%
O00001
(Using high feed G1 F5000. instead of G0.)
(T1 D=50. CR=0. - ZMIN=0. - face mill)
(T2 D=25. CR=0. - ZMIN=-5. - flat end mill)
(T4 D=5. CR=0. - ZMIN=-4.9 - flat end mill)
N10 G90 G94 G17
N15 G21
N20 G53 G0 Z0.

(Facejar)
N25 T1 M6
N30 S955 M3
N35 G54
N40 M8
N45 G0 X132.5 Y-137.339
N50 G43 Z16. H1
N55 T2
N60 G0 Z6.
N65 G1 Z5. F460.
N70 G18 G3 X127.5 Z0. I-5. K0.
N75 G1 X100.
N80 X85.
N85 X5.
N90 X-5.
N95 X-85.
N100 X-100.
N105 G17 G2 Y-92.154 I0. J22.593
N110 G1 X100.
N115 G3 Y-46.968 I0. J22.593
N120 G1 X-100.
N125 G2 Y-1.782 I0. J22.593
N130 G1 X100.
N135 G3 Y43.404 I0. J22.593
N140 G1 X-100.
N145 G2 Y88.589 I0. J22.593
N150 G1 X100.
N155 G3 Y133.775 I0. J22.593
N160 G1 X85.
N165 X5.
N170 X-5.
N175 X-85.
N180 X-100.
N185 G18 G3 X-105. Z5. I0. K5.
N190 G0 Z16.
N195 M5
N200 G53 G0 Z0.

(Cavidades inferiores)
N205 M9
N210 M1
N215 T2 M6
N220 S3880 M3
N225 G54
N230 M8
N235 G17
N240 G0 X-83.988 Y172.888
N245 G43 Z16. H2
N250 T4
N255 G0 Z6.
N260 Z0.5
N265 G1 Z-2. F2328.
N270 X-83.983 Y172.882 Z-2.196
N275 X-83.967 Y172.865 Z-2.391
N280 X-83.941 Y172.837 Z-2.584
N285 X-83.905 Y172.797 Z-2.773
N290 X-83.86 Y172.747 Z-2.957
N295 X-83.804 Y172.686 Z-3.135
N300 X-83.74 Y172.616 Z-3.306
N305 X-83.666 Y172.535 Z-3.469
N310 X-83.584 Y172.445 Z-3.624
N315 X-83.494 Y172.347 Z-3.768
N320 X-83.397 Y172.24 Z-3.901
N325 X-83.293 Y172.127 Z-4.023
N330 X-83.183 Y172.006 Z-4.132
N335 X-83.068 Y171.88 Z-4.228
N340 X-82.947 Y171.748 Z-4.31
N345 X-82.823 Y171.612 Z-4.378
N350 X-82.696 Y171.472 Z-4.431
N355 X-82.566 Y171.33 Z-4.469
N360 X-82.435 Y171.186 Z-4.492
N365 X-82.302 Y171.041 Z-4.5
N370 G3 X-81.481 Y170.503 I1.461 J1.334
N375 G1 X-80.96 Y170.341
N380 X-80.21 Y170.076
N385 X-79.461 Y169.758
N390 X-78.711 Y169.358
N395 X-77.961 Y168.923
N400 X-77.212 Y168.405
N405 X-76.462 Y167.79
N410 X-76.103 Y167.474
N415 X-75.931 Y167.323
N420 X-74.994 Y166.625
N425 X-73.792 Y165.871
N430 X-72.245 Y165.066
N435 X-70.627 Y164.383
N440 X-68.969 Y163.807
N445 X-67.282 Y163.319
N450 X-65.576 Y162.904
N455 X-63.856 Y162.552
N460 X-62.126 Y162.253
N465 X-60.389 Y161.998
N470 X-58.647 Y161.78
N475 X-56.901 Y161.595
N480 X-55.152 Y161.436
N485 X-53.402 Y161.301
N490 X-51.65 Y161.185
N495 X-49.897 Y161.087
N500 X-48.143 Y161.002
N505 X-46.389 Y160.93
N510 X-42.879 Y160.815
N515 X-39.368 Y160.731
N520 X-34.102 Y160.645
N525 X-28.835 Y160.591
N530 X-27.079 Y160.578
N535 X-20.056 Y160.542
N540 X-19.593 Y160.575
N545 X-19.14 Y160.678
N550 X-18.708 Y160.848
N555 X-18.307 Y161.081
N560 X-17.945 Y161.371
N565 X-17.631 Y161.713
N570 X-17.371 Y162.098
N575 X-17.173 Y162.518
N580 G3 X-19.273 Y165.816 I-2.364 J0.812
N585 G1 X-73.98 Y171.632
N590 G3 X-76.103 Y167.474 I-0.264 J-2.486
N595 G1 X-75.38 Y166.725
N600 X-74.963 Y166.256
N605 X-74.202 Y165.226
N610 X-73.731 Y164.477
N615 X-73.35 Y163.728
N620 X-72.999 Y162.978
N625 X-72.894 Y162.753
N630 X-72.526 Y162.108
N635 X-72.043 Y161.398
N640 X-71.432 Y160.641
N645 X-70.655 Y159.821
N650 X-69.681 Y158.947
N655 X-68.472 Y158.025
N660 X-66.995 Y157.076
N665 X-65.447 Y156.247
N670 X-63.848 Y155.522
N675 X-62.211 Y154.888
N680 X-60.545 Y154.334
N685 X-58.857 Y153.849
N690 X-57.153 Y153.426
N695 X-55.437 Y153.055
N700 X-53.711 Y152.731
N705 X-51.978 Y152.448
N710 X-50.24 Y152.201
N715 X-48.498 Y151.984
N720 X-46.752 Y151.795
N725 X-45.004 Y151.63
N730 X-43.255 Y151.486
N735 X-41.503 Y151.359
N740 X-39.751 Y151.249
N745 X-37.998 Y151.153
N750 X-36.244 Y151.069
N755 X-32.735 Y150.932
N760 X-30.98 Y150.876
N765 X-29.225 Y150.837
N770 X-27.469 Y150.839
N775 X-25.715 Y150.91
N780 X-23.967 Y151.077
N785 X-22.281 Y151.356
N790 X-20.828 Y151.719
N795 X-19.957 Y152.012
N800 X-19.545 Y152.188
N805 X-19.166 Y152.425
N810 X-18.828 Y152.717
N815 X-18.54 Y153.059
N820 X-18.308 Y153.441
N825 X-18.138 Y153.855
N830 X-18.035 Y154.29
N835 X-18. Y154.736
N840 X-17.996 Y157.733
N845 G3 X-20.191 Y160.14 I-2.499 J-0.074
N850 G1 X-70.335 Y166.285
N855 G3 X-72.999 Y162.978 I-0.304 J-2.481
N860 G1 X-72.708 Y162.229
N865 X-72.49 Y161.48
N870 X-72.301 Y160.73
N875 X-72.159 Y159.981
N880 X-72.073 Y159.232
N885 X-72.018 Y158.482
N890 X-72.008 Y158.348
N895 X-71.913 Y157.76
N900 X-71.756 Y157.119
N905 X-71.518 Y156.403
N910 X-71.194 Y155.638
N915 X-70.75 Y154.788
N920 X-70.193 Y153.902
N925 X-69.481 Y152.95
N930 X-68.589 Y151.937
N935 X-67.489 Y150.875
N940 X-66.144 Y149.77
N945 X-64.702 Y148.768
N950 X-63.194 Y147.869
N955 X-61.633 Y147.064
N960 X-60.032 Y146.344
N965 X-58.399 Y145.7
N970 X-56.74 Y145.124
N975 X-55.061 Y144.611
N980 X-53.366 Y144.152
N985 X-51.659 Y143.743
N990 X-49.941 Y143.379
N995 X-48.216 Y143.054
N1000 X-46.484 Y142.765
N1005 X-44.747 Y142.507
N1010 X-43.006 Y142.278
N1015 X-41.262 Y142.075
N1020 X-39.516 Y141.896
N1025 X-37.767 Y141.743
N1030 X-36.015 Y141.621
N1035 X-34.261 Y141.535
N1040 X-32.506 Y141.49
N1045 X-30.751 Y141.495
N1050 X-28.996 Y141.558
N1055 X-27.245 Y141.685
N1060 X-25.501 Y141.889
N1065 X-23.771 Y142.192
N1070 X-22.153 Y142.594
N1075 X-20.763 Y143.062
N1080 X-20.001 Y143.388
N1085 X-19.574 Y143.609
N1090 X-19.184 Y143.889
N1095 X-18.838 Y144.224
N1100 X-18.545 Y144.605
N1105 X-18.311 Y145.024
N1110 X-18.139 Y145.473
N1115 X-18.035 Y145.942
N1120 X-18. Y146.422
N1125 Y154.736
N1130 G3 X-20.306 Y157.141 I-2.498 J-0.087
N1135 G1 X-69.325 Y160.935
N1140 G3 X-72.018 Y158.482 I-0.193 J-2.493
N1145 G1 X-72.004 Y157.733
N1150 X-72. Y152.488
N1155 X-71.959 Y151.674
N1160 X-71.863 Y150.941
N1165 X-71.698 Y150.168
N1170 X-71.436 Y149.293
N1175 X-71.082 Y148.386
N1180 X-70.598 Y147.387
N1185 X-69.971 Y146.322
N1190 X-69.193 Y145.215
N1195 X-68.219 Y144.041
N1200 X-67.019 Y142.812
N1205 X-65.696 Y141.658
N1210 X-64.293 Y140.602
N1215 X-62.825 Y139.639
N1220 X-61.305 Y138.761
N1225 X-59.742 Y137.961
N1230 X-58.143 Y137.235
N1235 X-56.516 Y136.575
N1240 X-54.866 Y135.976
N1245 X-53.196 Y135.432
N1250 X-51.511 Y134.94
N1255 X-49.812 Y134.495
N1260 X-48.103 Y134.094
N1265 X-46.385 Y133.734
N1270 X-44.658 Y133.414
N1275 X-42.925 Y133.135
N1280 X-41.185 Y132.896
N1285 X-39.441 Y132.699
N1290 X-37.692 Y132.546
N1295 X-35.939 Y132.437
N1300 X-34.185 Y132.375
N1305 X-32.429 Y132.367
N1310 X-30.674 Y132.418
N1315 X-28.922 Y132.53
N1320 X-27.175 Y132.713
N1325 X-25.439 Y132.975
N1330 X-23.72 Y133.332
N1335 X-22.059 Y133.797
N1340 X-20.637 Y134.322
N1345 X-19.777 Y134.72
N1350 X-19.396 Y134.931
N1355 X-19.048 Y135.193
N1360 X-18.742 Y135.502
N1365 X-18.482 Y135.851
N1370 X-18.274 Y136.234
N1375 X-18.123 Y136.642
N1380 X-18.031 Y137.067
N1385 X-18. Y137.501
N1390 Y146.422
N1395 G3 X-20.191 Y148.815 I-2.498 J-0.087
N1400 G1 X-69.194 Y154.882
N1405 G3 X-72. Y152.488 I-0.307 J-2.481
N1410 G1 Y144.995
N1415 X-71.943 Y143.85
N1420 X-71.837 Y143.048
N1425 X-71.656 Y142.197
N1430 X-71.368 Y141.238
N1435 X-70.977 Y140.233
N1440 X-70.448 Y139.144
N1445 X-69.759 Y137.972
N1450 X-68.888 Y136.734
N1455 X-67.813 Y135.437
N1460 X-66.586 Y134.181
N1465 X-65.27 Y133.019
N1470 X-63.88 Y131.946
N1475 X-62.429 Y130.958
N1480 X-60.927 Y130.048
N1485 X-59.383 Y129.212
N1490 X-57.805 Y128.444
N1495 X-56.196 Y127.74
N1500 X-54.563 Y127.096
N1505 X-52.908 Y126.509
N1510 X-51.235 Y125.976
N1515 X-49.546 Y125.494
N1520 X-47.845 Y125.063
N1525 X-46.131 Y124.679
N1530 X-44.408 Y124.343
N1535 X-42.676 Y124.055
N1540 X-40.937 Y123.815
N1545 X-39.191 Y123.624
N1550 X-37.441 Y123.482
N1555 X-35.688 Y123.391
N1560 X-33.933 Y123.353
N1565 X-32.177 Y123.373
N1570 X-30.423 Y123.454
N1575 X-28.673 Y123.599
N1580 X-26.931 Y123.816
N1585 X-25.2 Y124.112
N1590 X-23.488 Y124.499
N1595 X-21.817 Y124.996
N1600 X-20.398 Y125.547
N1605 X-19.864 Y125.805
N1610 X-19.463 Y126.034
N1615 X-19.099 Y126.317
N1620 X-18.777 Y126.649
N1625 X-18.505 Y127.022
N1630 X-18.287 Y127.429
N1635 X-18.129 Y127.863
N1640 X-18.032 Y128.315
N1645 X-18. Y128.776
N1650 Y137.501
N1655 G3 X-20.121 Y139.885 I-2.498 J-0.087
N1660 G1 X-69.124 Y147.379
N1665 G3 X-72. Y144.995 I-0.378 J-2.471
N1670 G1 Y136.34
N1675 X-71.96 Y135.545
N1680 X-71.852 Y134.718
N1685 X-71.657 Y133.806
N1690 X-71.354 Y132.795
N1695 X-70.94 Y131.733
N1700 X-70.379 Y130.575
N1705 X-69.647 Y129.333
N1710 X-68.723 Y128.017
N1715 X-67.601 Y126.666
N1720 X-66.377 Y125.407
N1725 X-65.069 Y124.236
N1730 X-63.689 Y123.15
N1735 X-62.25 Y122.144
N1740 X-60.761 Y121.214
N1745 X-59.995 Y120.784
N1750 X-57.951 Y119.722
N1755 X-56.359 Y118.981
N1760 X-54.74 Y118.302
N1765 X-53.097 Y117.683
N1770 X-51.434 Y117.12
N1775 X-49.753 Y116.612
N1780 X-48.057 Y116.159
N1785 X-46.347 Y115.758
N1790 X-44.627 Y115.408
N1795 X-42.896 Y115.11
N1800 X-41.158 Y114.862
N1805 X-39.413 Y114.666
N1810 X-37.664 Y114.521
N1815 X-35.91 Y114.43
N1820 X-34.155 Y114.394
N1825 X-32.399 Y114.416
N1830 X-30.645 Y114.497
N1835 X-28.896 Y114.643
N1840 X-27.153 Y114.86
N1845 X-25.422 Y115.152
N1850 X-23.709 Y115.535
N1855 X-22.024 Y116.03
N1860 X-20.576 Y116.583
N1865 X-19.879 Y116.915
N1870 X-19.475 Y117.144
N1875 X-19.108 Y117.427
N1880 X-18.783 Y117.759
N1885 X-18.509 Y118.133
N1890 X-18.29 Y118.542
N1895 X-18.13 Y118.977
N1900 X-18.033 Y119.431
N1905 X-18. Y119.894
N1910 Y128.776
N1915 G3 X-20.117 Y131.159 I-2.498 J-0.087
N1920 G1 X-69.12 Y138.723
N1925 G3 X-72. Y136.34 I-0.381 J-2.471
N1930 G1 Y127.76
N1935 X-71.958 Y126.918
N1940 X-71.847 Y126.071
N1945 X-71.645 Y125.127
N1950 X-71.333 Y124.086
N1955 X-70.905 Y122.988
N1960 X-70.325 Y121.792
N1965 X-69.59 Y120.543
N1970 X-68.634 Y119.182
N1975 X-67.512 Y117.831
N1980 X-66.292 Y116.568
N1985 X-64.989 Y115.392
N1990 X-63.616 Y114.297
N1995 X-62.185 Y113.279
N2000 X-60.704 Y112.337
N2005 X-59.18 Y111.466
N2010 X-57.618 Y110.663
N2015 X-56.025 Y109.925
N2020 X-54.404 Y109.25
N2025 X-52.76 Y108.634
N2030 X-51.095 Y108.076
N2035 X-49.413 Y107.574
N2040 X-47.715 Y107.126
N2045 X-46.004 Y106.731
N2050 X-44.282 Y106.39
N2055 X-42.55 Y106.102
N2060 X-40.81 Y105.866
N2065 X-39.064 Y105.682
N2070 X-37.313 Y105.552
N2075 X-35.559 Y105.474
N2080 X-33.803 Y105.453
N2085 X-32.048 Y105.491
N2090 X-30.295 Y105.591
N2095 X-28.547 Y105.754
N2100 X-26.807 Y105.99
N2105 X-25.08 Y106.304
N2110 X-23.372 Y106.712
N2115 X-21.714 Y107.228
N2120 X-20.3 Y107.797
N2125 X-19.827 Y108.033
N2130 X-19.433 Y108.265
N2135 X-19.075 Y108.549
N2140 X-18.76 Y108.879
N2145 X-18.494 Y109.25
N2150 X-18.281 Y109.654
N2155 X-18.126 Y110.084
N2160 X-18.032 Y110.531
N2165 X-18. Y110.986
N2170 Y119.894
N2175 G3 X-20.102 Y122.275 I-2.498 J-0.087
N2180 G1 X-69.105 Y130.141
N2185 G3 X-72. Y127.76 I-0.396 J-2.468
N2190 G1 Y118.768
N2195 X-71.969 Y118.146
N2200 X-71.856 Y117.286
N2205 X-71.651 Y116.325
N2210 X-71.333 Y115.265
N2215 X-70.897 Y114.147
N2220 X-70.308 Y112.931
N2225 X-69.541 Y111.628
N2230 X-68.572 Y110.25
N2235 X-67.451 Y108.899
N2240 X-66.232 Y107.635
N2245 X-64.93 Y106.457
N2250 X-63.56 Y105.359
N2255 X-62.13 Y104.34
N2260 X-60.65 Y103.396
N2265 X-59.127 Y102.522
N2270 X-57.567 Y101.717
N2275 X-55.974 Y100.977
N2280 X-54.355 Y100.3
N2285 X-52.711 Y99.682
N2290 X-51.047 Y99.123
N2295 X-49.365 Y98.62
N2300 X-47.667 Y98.172
N2305 X-45.956 Y97.779
N2310 X-44.233 Y97.44
N2315 X-42.501 Y97.154
N2320 X-41.426 Y97.013
N2325 X-41.133 Y97.
N2330 X-32.234
N2335 X-28.727 Y97.183
N2340 X-26.981 Y97.361
N2345 X-25.245 Y97.624
N2350 X-23.527 Y97.986
N2355 X-21.907 Y98.45
N2360 X-20.514 Y98.973
N2365 X-19.896 Y99.264
N2370 X-19.489 Y99.491
N2375 X-19.118 Y99.774
N2380 X-18.791 Y100.106
N2385 X-18.514 Y100.481
N2390 X-18.293 Y100.892
N2395 X-18.131 Y101.329
N2400 X-18.033 Y101.785
N2405 X-18. Y102.25
N2410 Y110.986
N2415 G3 X-22.247 Y112.686 I-2.498 J-0.087
N2420 G1 X-33.895 Y101.285
N2425 G3 X-32.234 Y97. I1.749 J-1.787
N2430 G1 X-20.99
N2435 X-20.24 Y97.015
N2440 X-20.079 Y97.038
N2445 X-19.785 Y97.108
N2450 X-19.49 Y97.218
N2455 X-19.116 Y97.426
N2460 X-18.928 Y97.566
N2465 X-18.691 Y97.787
N2470 X-18.53 Y97.974
N2475 X-18.397 Y98.162
N2480 X-18.199 Y98.536
N2485 X-18.074 Y98.911
N2490 X-18.01 Y99.286
N2495 X-18. Y100.035
N2500 Y102.25
N2505 G3 X-19.7 Y104.532 I-2.498 J-0.087
N2510 G1 X-68.703 Y121.05
N2515 G3 X-72. Y118.768 I-0.799 J-2.369
N2520 G1 Y109.776
N2525 X-71.974 Y109.263
N2530 X-71.861 Y108.399
N2535 X-71.654 Y107.43
N2540 X-71.335 Y106.365
N2545 X-70.897 Y105.24
N2550 X-70.303 Y104.017
N2555 X-69.532 Y102.707
N2560 X-68.559 Y101.321
N2565 X-67.437 Y99.97
N2570 X-66.219 Y98.707
N2575 X-65.28 Y97.856
N2580 X-64.898 Y97.557
N2585 X-64.475 Y97.317
N2590 X-64.022 Y97.142
N2595 X-63.548 Y97.036
N2600 X-63.063 Y97.
N2605 X-41.133
N2610 G3 X-40.372 Y101.85 I-0.087 J2.498
N2615 G1 X-68.654 Y112.041
N2620 G3 X-72. Y109.776 I-0.847 J-2.352
N2625 G1 Y101.534
N2630 X-71.941 Y100.358
N2635 X-71.84 Y99.584
N2640 X-71.781 Y99.309
N2645 X-71.658 Y98.891
N2650 X-71.474 Y98.495
N2655 X-71.233 Y98.131
N2660 X-70.941 Y97.807
N2665 X-70.603 Y97.53
N2670 X-70.229 Y97.307
N2675 X-69.825 Y97.142
N2680 X-69.4 Y97.039
N2685 X-68.966 Y97.
N2690 G3 X-66.617 Y100.059 I-0.087 J2.498
N2695 G1 X-67.065 Y102.007
N2700 G3 X-72. Y101.534 I-2.436 J-0.561
N2705 G1 Y100.035
N2710 X-71.99 Y99.286
N2715 X-71.964 Y99.093
N2720 X-71.9 Y98.814
N2725 X-71.801 Y98.536
N2730 X-71.603 Y98.162
N2735 X-71.47 Y97.974
N2740 X-71.308 Y97.787
N2745 X-71.215 Y97.693
N2750 X-71.027 Y97.531
N2755 X-70.84 Y97.398
N2760 X-70.465 Y97.199
N2765 X-70.192 Y97.102
N2770 X-69.919 Y97.038
N2775 X-69.715 Y97.01
N2780 X-68.966 Y97.
N2785 X-63.063
N2790 G3 X-62.114 Y97.224 I-0.087 J2.498
N2795 G1 X-61.935 Y97.305 Z-4.492
N2800 X-61.758 Y97.386 Z-4.469
N2805 X-61.583 Y97.466 Z-4.431
N2810 X-61.411 Y97.544 Z-4.378
N2815 X-61.243 Y97.62 Z-4.31
N2820 X-61.081 Y97.694 Z-4.228
N2825 X-60.925 Y97.765 Z-4.132
N2830 X-60.777 Y97.833 Z-4.023
N2835 X-60.636 Y97.897 Z-3.901
N2840 X-60.505 Y97.957 Z-3.768
N2845 X-60.384 Y98.012 Z-3.624
N2850 X-60.273 Y98.062 Z-3.469
N2855 X-60.174 Y98.108 Z-3.306
N2860 X-60.087 Y98.147 Z-3.135
N2865 X-60.012 Y98.181 Z-2.957
N2870 X-59.95 Y98.21 Z-2.773
N2875 X-59.902 Y98.232 Z-2.584
N2880 X-59.867 Y98.248 Z-2.391
N2885 X-59.846 Y98.257 Z-2.196
N2890 X-59.839 Y98.26 Z-2.
N2895 G0 Z6.
N2900 G1 X5.909 Y172.769 F5000.
N2905 G0 Z0.5
N2910 G1 Z-2. F2328.
N2915 X5.915 Y172.763 Z-2.196
N2920 X5.931 Y172.747 Z-2.391
N2925 X5.958 Y172.72 Z-2.584
N2930 X5.996 Y172.682 Z-2.773
N2935 X6.044 Y172.635 Z-2.957
N2940 X6.102 Y172.576 Z-3.135
N2945 X6.17 Y172.509 Z-3.306
N2950 X6.247 Y172.432 Z-3.469
N2955 X6.333 Y172.346 Z-3.624
N2960 X6.428 Y172.252 Z-3.768
N2965 X6.53 Y172.15 Z-3.901
N2970 X6.639 Y172.041 Z-4.023
N2975 X6.754 Y171.926 Z-4.132
N2980 X6.876 Y171.805 Z-4.228
N2985 X7.002 Y171.679 Z-4.31
N2990 X7.132 Y171.549 Z-4.378
N2995 X7.266 Y171.415 Z-4.431
N3000 X7.402 Y171.279 Z-4.469
N3005 X7.54 Y171.142 Z-4.492
N3010 X7.679 Y171.003 Z-4.5
N3015 G3 X8.524 Y170.504 I1.397 J1.4
N3020 G1 X8.652 Y170.472
N3025 X9.745 Y170.102
N3030 X10.61 Y169.722
N3035 X11.244 Y169.382
N3040 X11.994 Y168.957
N3045 X13.024 Y168.224
N3050 X13.493 Y167.833
N3055 X13.894 Y167.474
N3060 X14.055 Y167.332
N3065 X14.989 Y166.635
N3070 X16.187 Y165.882
N3075 X17.728 Y165.078
N3080 X19.345 Y164.393
N3085 X21.003 Y163.815
N3090 X22.689 Y163.326
N3095 X24.395 Y162.91
N3100 X26.115 Y162.557
N3105 X27.845 Y162.257
N3110 X29.582 Y162.001
N3115 X31.324 Y161.783
N3120 X33.07 Y161.597
N3125 X34.819 Y161.439
N3130 X36.569 Y161.303
N3135 X38.321 Y161.187
N3140 X40.074 Y161.088
N3145 X41.828 Y161.003
N3150 X43.582 Y160.931
N3155 X47.092 Y160.816
N3160 X50.602 Y160.732
N3165 X55.869 Y160.645
N3170 X61.136 Y160.591
N3175 X62.892 Y160.578
N3180 X69.915 Y160.542
N3185 X70.381 Y160.576
N3190 X70.836 Y160.678
N3195 X71.271 Y160.848
N3200 X71.676 Y161.082
N3205 X72.041 Y161.373
N3210 X72.358 Y161.715
N3215 X72.62 Y162.102
N3220 X72.822 Y162.523
N3225 G3 X70.728 Y165.834 I-2.36 J0.825
N3230 G1 X15.965 Y171.69
N3235 G3 X13.894 Y167.474 I-0.266 J-2.486
N3240 G1 X14.243 Y167.135
N3245 X14.627 Y166.725
N3250 X14.993 Y166.305
N3255 X15.263 Y165.976
N3260 X15.742 Y165.304
N3265 X16.258 Y164.477
N3270 X16.492 Y164.056
N3275 X16.653 Y163.728
N3280 X16.997 Y162.978
N3285 X17.073 Y162.812
N3290 X17.431 Y162.171
N3295 X17.902 Y161.47
N3300 X18.499 Y160.717
N3305 X19.261 Y159.901
N3310 X20.214 Y159.032
N3315 X21.399 Y158.114
N3320 X22.869 Y157.154
N3325 X24.412 Y156.315
N3330 X26.007 Y155.581
N3335 X27.641 Y154.94
N3340 X29.305 Y154.379
N3345 X30.991 Y153.889
N3350 X32.694 Y153.46
N3355 X34.409 Y153.086
N3360 X36.134 Y152.758
N3365 X37.866 Y152.471
N3370 X39.604 Y152.221
N3375 X41.346 Y152.002
N3380 X43.091 Y151.811
N3385 X44.839 Y151.644
N3390 X46.589 Y151.497
N3395 X48.34 Y151.37
N3400 X50.092 Y151.258
N3405 X51.845 Y151.161
N3410 X53.599 Y151.076
N3415 X57.108 Y150.937
N3420 X58.863 Y150.881
N3425 X60.618 Y150.839
N3430 X62.374 Y150.837
N3435 X64.128 Y150.902
N3440 X65.877 Y151.061
N3445 X67.587 Y151.334
N3450 X69.056 Y151.691
N3455 X70.032 Y152.013
N3460 X70.445 Y152.187
N3465 X70.827 Y152.422
N3470 X71.166 Y152.715
N3475 X71.456 Y153.056
N3480 X71.69 Y153.439
N3485 X71.861 Y153.853
N3490 X71.965 Y154.289
N3495 X72. Y154.736
N3500 X72.004 Y157.733
N3505 G3 X69.808 Y160.14 I-2.499 J-0.074
N3510 G1 X19.664 Y166.272
N3515 G3 X16.997 Y162.978 I-0.303 J-2.482
N3520 G1 X17.284 Y162.229
N3525 X17.524 Y161.48
N3530 X17.699 Y160.73
N3535 X17.841 Y159.981
N3540 X17.927 Y159.232
N3545 X17.982 Y158.482
N3550 X17.992 Y158.348
N3555 X18.088 Y157.751
N3560 X18.243 Y157.12
N3565 X18.483 Y156.396
N3570 X18.805 Y155.637
N3575 X19.248 Y154.79
N3580 X19.809 Y153.897
N3585 X20.519 Y152.948
N3590 X21.409 Y151.938
N3595 X22.508 Y150.876
N3600 X23.854 Y149.77
N3605 X25.296 Y148.768
N3610 X26.804 Y147.87
N3615 X28.365 Y147.065
N3620 X29.966 Y146.344
N3625 X31.599 Y145.7
N3630 X33.258 Y145.125
N3635 X34.937 Y144.611
N3640 X36.632 Y144.153
N3645 X38.339 Y143.744
N3650 X40.057 Y143.379
N3655 X41.782 Y143.054
N3660 X43.514 Y142.765
N3665 X45.251 Y142.508
N3670 X46.992 Y142.279
N3675 X48.736 Y142.075
N3680 X50.482 Y141.896
N3685 X52.231 Y141.743
N3690 X53.983 Y141.621
N3695 X55.737 Y141.536
N3700 X57.492 Y141.492
N3705 X59.248 Y141.496
N3710 X61.002 Y141.559
N3715 X62.753 Y141.688
N3720 X64.497 Y141.892
N3725 X66.227 Y142.194
N3730 X67.847 Y142.597
N3735 X69.238 Y143.065
N3740 X69.999 Y143.391
N3745 X70.426 Y143.612
N3750 X70.816 Y143.893
N3755 X71.162 Y144.227
N3760 X71.455 Y144.608
N3765 X71.689 Y145.027
N3770 X71.861 Y145.476
N3775 X71.965 Y145.945
N3780 X72. Y146.425
N3785 Y154.736
N3790 G3 X69.694 Y157.141 I-2.498 J-0.087
N3795 G1 X20.675 Y160.935
N3800 G3 X17.982 Y158.482 I-0.193 J-2.493
N3805 G1 X17.996 Y157.733
N3810 X18. Y152.488
N3815 X18.041 Y151.673
N3820 X18.137 Y150.94
N3825 X18.302 Y150.168
N3830 X18.564 Y149.293
N3835 X18.918 Y148.386
N3840 X19.402 Y147.387
N3845 X20.029 Y146.322
N3850 X20.807 Y145.214
N3855 X21.781 Y144.041
N3860 X22.98 Y142.812
N3865 X24.303 Y141.658
N3870 X25.707 Y140.602
N3875 X27.174 Y139.639
N3880 X28.695 Y138.761
N3885 X30.258 Y137.962
N3890 X31.856 Y137.235
N3895 X33.483 Y136.575
N3900 X35.134 Y135.976
N3905 X36.803 Y135.432
N3910 X38.489 Y134.94
N3915 X40.187 Y134.495
N3920 X41.897 Y134.094
N3925 X43.615 Y133.734
N3930 X45.341 Y133.414
N3935 X47.075 Y133.135
N3940 X48.814 Y132.897
N3945 X50.559 Y132.7
N3950 X52.308 Y132.547
N3955 X54.061 Y132.438
N3960 X55.815 Y132.376
N3965 X57.571 Y132.369
N3970 X59.326 Y132.419
N3975 X61.078 Y132.532
N3980 X62.824 Y132.715
N3985 X64.56 Y132.977
N3990 X66.28 Y133.334
N3995 X67.941 Y133.799
N4000 X69.363 Y134.324
N4005 X70.226 Y134.724
N4010 X70.606 Y134.934
N4015 X70.953 Y135.196
N4020 X71.259 Y135.505
N4025 X71.519 Y135.854
N4030 X71.726 Y136.236
N4035 X71.877 Y136.643
N4040 X71.969 Y137.068
N4045 X72. Y137.501
N4050 Y146.425
N4055 G3 X69.809 Y148.818 I-2.498 J-0.087
N4060 G1 X20.805 Y154.882
N4065 G3 X18. Y152.488 I-0.307 J-2.481
N4070 G1 Y144.995
N4075 X18.057 Y143.85
N4080 X18.163 Y143.047
N4085 X18.344 Y142.197
N4090 X18.632 Y141.238
N4095 X19.023 Y140.233
N4100 X19.552 Y139.144
N4105 X20.241 Y137.972
N4110 X21.111 Y136.734
N4115 X22.187 Y135.437
N4120 X23.414 Y134.181
N4125 X24.73 Y133.019
N4130 X26.12 Y131.946
N4135 X27.571 Y130.958
N4140 X29.073 Y130.048
N4145 X30.616 Y129.212
N4150 X32.195 Y128.444
N4155 X33.804 Y127.74
N4160 X35.437 Y127.096
N4165 X37.092 Y126.509
N4170 X38.765 Y125.976
N4175 X40.454 Y125.495
N4180 X42.155 Y125.063
N4185 X43.869 Y124.679
N4190 X45.592 Y124.344
N4195 X47.324 Y124.056
N4200 X49.063 Y123.816
N4205 X50.809 Y123.625
N4210 X52.559 Y123.484
N4215 X54.312 Y123.392
N4220 X56.068 Y123.355
N4225 X57.823 Y123.375
N4230 X59.577 Y123.456
N4235 X61.327 Y123.601
N4240 X63.069 Y123.818
N4245 X64.8 Y124.114
N4250 X66.512 Y124.501
N4255 X68.183 Y124.999
N4260 X69.602 Y125.549
N4265 X70.136 Y125.807
N4270 X70.537 Y126.036
N4275 X70.901 Y126.319
N4280 X71.223 Y126.651
N4285 X71.495 Y127.024
N4290 X71.713 Y127.431
N4295 X71.871 Y127.865
N4300 X71.968 Y128.317
N4305 X72. Y128.778
N4310 Y137.501
N4315 G3 X69.879 Y139.885 I-2.498 J-0.087
N4320 G1 X20.876 Y147.379
N4325 G3 X18. Y144.995 I-0.378 J-2.471
N4330 G1 Y136.34
N4335 X18.04 Y135.545
N4340 X18.148 Y134.718
N4345 X18.343 Y133.806
N4350 X18.646 Y132.795
N4355 X19.06 Y131.733
N4360 X19.621 Y130.575
N4365 X20.353 Y129.333
N4370 X21.277 Y128.017
N4375 X22.399 Y126.666
N4380 X23.623 Y125.407
N4385 X24.931 Y124.236
N4390 X26.311 Y123.15
N4395 X27.75 Y122.144
N4400 X29.239 Y121.214
N4405 X30.005 Y120.785
N4410 X32.049 Y119.722
N4415 X33.641 Y118.981
N4420 X35.261 Y118.303
N4425 X36.903 Y117.683
N4430 X38.567 Y117.121
N4435 X40.247 Y116.613
N4440 X41.944 Y116.159
N4445 X43.653 Y115.758
N4450 X45.374 Y115.409
N4455 X47.104 Y115.111
N4460 X48.842 Y114.863
N4465 X50.587 Y114.667
N4470 X52.337 Y114.522
N4475 X54.09 Y114.431
N4480 X55.845 Y114.396
N4485 X57.601 Y114.418
N4490 X59.355 Y114.499
N4495 X61.105 Y114.644
N4500 X62.847 Y114.862
N4505 X64.578 Y115.154
N4510 X66.292 Y115.537
N4515 X67.976 Y116.032
N4520 X69.424 Y116.585
N4525 X70.121 Y116.917
N4530 X70.525 Y117.146
N4535 X70.892 Y117.429
N4540 X71.217 Y117.761
N4545 X71.491 Y118.135
N4550 X71.71 Y118.544
N4555 X71.87 Y118.979
N4560 X71.967 Y119.433
N4565 X72. Y119.896
N4570 Y128.778
N4575 G3 X69.883 Y131.161 I-2.498 J-0.087
N4580 G1 X20.88 Y138.723
N4585 G3 X18. Y136.34 I-0.381 J-2.471
N4590 G1 Y127.76
N4595 X18.042 Y126.918
N4600 X18.153 Y126.071
N4605 X18.355 Y125.127
N4610 X18.667 Y124.086
N4615 X19.095 Y122.988
N4620 X19.675 Y121.792
N4625 X20.41 Y120.544
N4630 X21.366 Y119.182
N4635 X22.488 Y117.831
N4640 X23.708 Y116.569
N4645 X25.011 Y115.392
N4650 X26.383 Y114.297
N4655 X27.815 Y113.28
N4660 X29.296 Y112.337
N4665 X30.82 Y111.466
N4670 X32.382 Y110.663
N4675 X33.975 Y109.926
N4680 X35.596 Y109.25
N4685 X37.24 Y108.635
N4690 X38.905 Y108.077
N4695 X40.587 Y107.575
N4700 X42.285 Y107.127
N4705 X43.996 Y106.732
N4710 X45.718 Y106.391
N4715 X47.45 Y106.103
N4720 X49.19 Y105.867
N4725 X50.936 Y105.684
N4730 X52.687 Y105.553
N4735 X54.441 Y105.476
N4740 X56.197 Y105.455
N4745 X57.952 Y105.493
N4750 X59.705 Y105.593
N4755 X61.453 Y105.756
N4760 X63.193 Y105.992
N4765 X64.92 Y106.306
N4770 X66.628 Y106.714
N4775 X68.286 Y107.23
N4780 X69.7 Y107.799
N4785 X70.173 Y108.035
N4790 X70.567 Y108.267
N4795 X70.925 Y108.551
N4800 X71.24 Y108.881
N4805 X71.506 Y109.252
N4810 X71.719 Y109.656
N4815 X71.874 Y110.086
N4820 X71.968 Y110.532
N4825 X72. Y110.988
N4830 Y119.896
N4835 G3 X69.898 Y122.277 I-2.498 J-0.087
N4840 G1 X20.895 Y130.141
N4845 G3 X18. Y127.76 I-0.396 J-2.468
N4850 G1 Y118.768
N4855 X18.031 Y118.146
N4860 X18.144 Y117.286
N4865 X18.349 Y116.325
N4870 X18.667 Y115.265
N4875 X19.102 Y114.147
N4880 X19.692 Y112.931
N4885 X20.459 Y111.629
N4890 X21.427 Y110.25
N4895 X22.549 Y108.899
N4900 X23.768 Y107.636
N4905 X25.069 Y106.457
N4910 X26.44 Y105.36
N4915 X27.87 Y104.341
N4920 X29.35 Y103.396
N4925 X30.873 Y102.523
N4930 X32.433 Y101.718
N4935 X34.026 Y100.978
N4940 X35.645 Y100.3
N4945 X37.289 Y99.683
N4950 X38.953 Y99.124
N4955 X40.636 Y98.621
N4960 X42.333 Y98.173
N4965 X44.045 Y97.781
N4970 X45.767 Y97.441
N4975 X47.5 Y97.155
N4980 X48.584 Y97.013
N4985 X48.877 Y97.
N4990 X57.721
N4995 X61.228 Y97.181
N5000 X62.975 Y97.357
N5005 X64.711 Y97.618
N5010 X66.43 Y97.977
N5015 X68.056 Y98.439
N5020 X69.454 Y98.961
N5025 X70.098 Y99.263
N5030 X70.506 Y99.49
N5035 X70.878 Y99.773
N5040 X71.206 Y100.105
N5045 X71.484 Y100.481
N5050 X71.706 Y100.891
N5055 X71.868 Y101.329
N5060 X71.967 Y101.786
N5065 X72. Y102.252
N5070 Y110.988
N5075 G3 X67.756 Y112.691 I-2.498 J-0.087
N5080 G1 X56.063 Y101.288
N5085 G3 X57.721 Y97. I1.745 J-1.79
N5090 G1 X68.966
N5095 X69.715 Y97.01
N5100 X69.919 Y97.038
N5105 X70.192 Y97.102
N5110 X70.465 Y97.199
N5115 X70.84 Y97.398
N5120 X71.027 Y97.531
N5125 X71.215 Y97.693
N5130 X71.308 Y97.787
N5135 X71.47 Y97.974
N5140 X71.603 Y98.162
N5145 X71.801 Y98.536
N5150 X71.9 Y98.814
N5155 X71.964 Y99.093
N5160 X71.99 Y99.286
N5165 X72. Y100.035
N5170 Y102.252
N5175 G3 X70.3 Y104.534 I-2.498 J-0.087
N5180 G1 X21.297 Y121.05
N5185 G3 X18. Y118.768 I-0.798 J-2.369
N5190 G1 Y109.776
N5195 X18.026 Y109.264
N5200 X18.139 Y108.399
N5205 X18.346 Y107.43
N5210 X18.665 Y106.365
N5215 X19.103 Y105.241
N5220 X19.697 Y104.018
N5225 X20.468 Y102.708
N5230 X21.441 Y101.322
N5235 X22.563 Y99.971
N5240 X23.781 Y98.707
N5245 X24.72 Y97.856
N5250 X25.103 Y97.557
N5255 X25.526 Y97.317
N5260 X25.979 Y97.142
N5265 X26.453 Y97.036
N5270 X26.937 Y97.
N5275 X48.877
N5280 G3 X49.637 Y101.851 I-0.087 J2.498
N5285 G1 X21.346 Y112.041
N5290 G3 X18. Y109.776 I-0.847 J-2.352
N5295 G1 Y101.534
N5300 X18.059 Y100.359
N5305 X18.16 Y99.584
N5310 X18.225 Y99.281
N5315 X18.346 Y98.869
N5320 X18.527 Y98.48
N5325 X18.763 Y98.121
N5330 X19.05 Y97.802
N5335 X19.381 Y97.529
N5340 X19.749 Y97.308
N5345 X20.146 Y97.144
N5350 X20.562 Y97.04
N5355 X20.99 Y97.
N5360 G3 X23.35 Y100.006 I-0.087 J2.498
N5365 G1 X22.946 Y101.954
N5370 G3 X18. Y101.534 I-2.448 J-0.508
N5375 G1 Y100.035
N5380 X18.01 Y99.286
N5385 X18.074 Y98.911
N5390 X18.199 Y98.536
N5395 X18.397 Y98.162
N5400 X18.53 Y97.974
N5405 X18.741 Y97.736
N5410 X18.928 Y97.566
N5415 X19.116 Y97.426
N5420 X19.49 Y97.218
N5425 X19.785 Y97.108
N5430 X20.079 Y97.038
N5435 X20.24 Y97.015
N5440 X20.99 Y97.
N5445 X26.937
N5450 X27.052 Y97.014 Z-4.493
N5455 X27.165 Y97.028 Z-4.473
N5460 X27.275 Y97.042 Z-4.439
N5465 X27.38 Y97.055 Z-4.392
N5470 X27.471 Y97.084 Z-4.337
N5475 X27.554 Y97.11 Z-4.271
N5480 X27.631 Y97.134 Z-4.196
N5485 X27.699 Y97.155 Z-4.113
N5490 X27.757 Y97.173 Z-4.022
N5495 X27.806 Y97.188 Z-3.925
N5500 X27.841 Y97.204 Z-3.827
N5505 X27.866 Y97.215 Z-3.726
N5510 X27.882 Y97.221 Z-3.623
N5515 X27.887 Y97.224 Z-3.518
N5520 G0 Z6.
N5525 G1 X-5.909 Y-172.769 F5000.
N5530 G0 Z0.5
N5535 G1 Z-2. F2328.
N5540 X-5.915 Y-172.763 Z-2.196
N5545 X-5.931 Y-172.747 Z-2.391
N5550 X-5.958 Y-172.72 Z-2.584
N5555 X-5.996 Y-172.682 Z-2.773
N5560 X-6.044 Y-172.635 Z-2.957
N5565 X-6.102 Y-172.576 Z-3.135
N5570 X-6.17 Y-172.509 Z-3.306
N5575 X-6.247 Y-172.432 Z-3.469
N5580 X-6.333 Y-172.346 Z-3.624
N5585 X-6.428 Y-172.252 Z-3.768
N5590 X-6.53 Y-172.15 Z-3.901
N5595 X-6.639 Y-172.041 Z-4.023
N5600 X-6.754 Y-171.926 Z-4.132
N5605 X-6.876 Y-171.805 Z-4.228
N5610 X-7.002 Y-171.679 Z-4.31
N5615 X-7.132 Y-171.549 Z-4.378
N5620 X-7.266 Y-171.415 Z-4.431
N5625 X-7.402 Y-171.279 Z-4.469
N5630 X-7.54 Y-171.142 Z-4.492
N5635 X-7.679 Y-171.003 Z-4.5
N5640 G3 X-8.524 Y-170.504 I-1.397 J-1.4
N5645 G1 X-8.652 Y-170.472
N5650 X-9.745 Y-170.102
N5655 X-10.61 Y-169.722
N5660 X-11.244 Y-169.382
N5665 X-11.994 Y-168.957
N5670 X-13.024 Y-168.224
N5675 X-13.493 Y-167.833
N5680 X-13.894 Y-167.474
N5685 X-14.055 Y-167.332
N5690 X-14.989 Y-166.635
N5695 X-16.187 Y-165.882
N5700 X-17.728 Y-165.078
N5705 X-19.345 Y-164.393
N5710 X-21.003 Y-163.815
N5715 X-22.689 Y-163.326
N5720 X-24.395 Y-162.91
N5725 X-26.115 Y-162.557
N5730 X-27.845 Y-162.257
N5735 X-29.582 Y-162.001
N5740 X-31.324 Y-161.783
N5745 X-33.07 Y-161.597
N5750 X-34.819 Y-161.439
N5755 X-36.569 Y-161.303
N5760 X-38.321 Y-161.187
N5765 X-40.074 Y-161.088
N5770 X-41.828 Y-161.003
N5775 X-43.582 Y-160.931
N5780 X-47.092 Y-160.816
N5785 X-50.602 Y-160.732
N5790 X-55.869 Y-160.645
N5795 X-61.136 Y-160.591
N5800 X-62.892 Y-160.578
N5805 X-69.915 Y-160.542
N5810 X-70.381 Y-160.576
N5815 X-70.836 Y-160.678
N5820 X-71.271 Y-160.848
N5825 X-71.676 Y-161.082
N5830 X-72.041 Y-161.373
N5835 X-72.358 Y-161.715
N5840 X-72.62 Y-162.102
N5845 X-72.822 Y-162.523
N5850 G3 X-70.728 Y-165.834 I2.36 J-0.825
N5855 G1 X-15.965 Y-171.69
N5860 G3 X-13.894 Y-167.474 I0.266 J2.486
N5865 G1 X-14.243 Y-167.135
N5870 X-14.627 Y-166.725
N5875 X-14.993 Y-166.305
N5880 X-15.263 Y-165.976
N5885 X-15.742 Y-165.304
N5890 X-16.258 Y-164.477
N5895 X-16.492 Y-164.056
N5900 X-16.653 Y-163.728
N5905 X-16.997 Y-162.978
N5910 X-17.073 Y-162.812
N5915 X-17.431 Y-162.171
N5920 X-17.902 Y-161.47
N5925 X-18.499 Y-160.717
N5930 X-19.261 Y-159.901
N5935 X-20.214 Y-159.032
N5940 X-21.399 Y-158.114
N5945 X-22.869 Y-157.154
N5950 X-24.412 Y-156.315
N5955 X-26.007 Y-155.581
N5960 X-27.641 Y-154.94
N5965 X-29.305 Y-154.379
N5970 X-30.991 Y-153.889
N5975 X-32.694 Y-153.46
N5980 X-34.409 Y-153.086
N5985 X-36.134 Y-152.758
N5990 X-37.866 Y-152.471
N5995 X-39.604 Y-152.221
N6000 X-41.346 Y-152.002
N6005 X-43.091 Y-151.811
N6010 X-44.839 Y-151.644
N6015 X-46.589 Y-151.497
N6020 X-48.34 Y-151.37
N6025 X-50.092 Y-151.258
N6030 X-51.845 Y-151.161
N6035 X-53.599 Y-151.076
N6040 X-57.108 Y-150.937
N6045 X-58.863 Y-150.881
N6050 X-60.618 Y-150.839
N6055 X-62.374 Y-150.837
N6060 X-64.128 Y-150.902
N6065 X-65.877 Y-151.061
N6070 X-67.587 Y-151.334
N6075 X-69.056 Y-151.691
N6080 X-70.032 Y-152.013
N6085 X-70.445 Y-152.187
N6090 X-70.827 Y-152.422
N6095 X-71.166 Y-152.715
N6100 X-71.456 Y-153.056
N6105 X-71.69 Y-153.439
N6110 X-71.861 Y-153.853
N6115 X-71.965 Y-154.289
N6120 X-72. Y-154.736
N6125 X-72.004 Y-157.733
N6130 G3 X-69.808 Y-160.14 I2.499 J0.074
N6135 G1 X-19.664 Y-166.272
N6140 G3 X-16.997 Y-162.978 I0.303 J2.482
N6145 G1 X-17.284 Y-162.229
N6150 X-17.524 Y-161.48
N6155 X-17.699 Y-160.73
N6160 X-17.841 Y-159.981
N6165 X-17.927 Y-159.232
N6170 X-17.982 Y-158.482
N6175 X-17.992 Y-158.348
N6180 X-18.088 Y-157.751
N6185 X-18.243 Y-157.12
N6190 X-18.483 Y-156.396
N6195 X-18.805 Y-155.637
N6200 X-19.248 Y-154.79
N6205 X-19.809 Y-153.897
N6210 X-20.519 Y-152.948
N6215 X-21.409 Y-151.938
N6220 X-22.508 Y-150.876
N6225 X-23.854 Y-149.77
N6230 X-25.296 Y-148.768
N6235 X-26.804 Y-147.87
N6240 X-28.365 Y-147.065
N6245 X-29.966 Y-146.344
N6250 X-31.599 Y-145.7
N6255 X-33.258 Y-145.125
N6260 X-34.937 Y-144.611
N6265 X-36.632 Y-144.153
N6270 X-38.339 Y-143.744
N6275 X-40.057 Y-143.379
N6280 X-41.782 Y-143.054
N6285 X-43.514 Y-142.765
N6290 X-45.251 Y-142.508
N6295 X-46.992 Y-142.279
N6300 X-48.736 Y-142.075
N6305 X-50.482 Y-141.896
N6310 X-52.231 Y-141.743
N6315 X-53.983 Y-141.621
N6320 X-55.737 Y-141.536
N6325 X-57.492 Y-141.492
N6330 X-59.248 Y-141.496
N6335 X-61.002 Y-141.559
N6340 X-62.753 Y-141.688
N6345 X-64.497 Y-141.892
N6350 X-66.227 Y-142.194
N6355 X-67.847 Y-142.597
N6360 X-69.238 Y-143.065
N6365 X-69.999 Y-143.391
N6370 X-70.426 Y-143.612
N6375 X-70.816 Y-143.893
N6380 X-71.162 Y-144.227
N6385 X-71.455 Y-144.608
N6390 X-71.689 Y-145.027
N6395 X-71.861 Y-145.476
N6400 X-71.965 Y-145.945
N6405 X-72. Y-146.425
N6410 Y-154.736
N6415 G3 X-69.694 Y-157.141 I2.498 J0.087
N6420 G1 X-20.675 Y-160.935
N6425 G3 X-17.982 Y-158.482 I0.193 J2.493
N6430 G1 X-17.996 Y-157.733
N6435 X-18. Y-152.488
N6440 X-18.041 Y-151.673
N6445 X-18.137 Y-150.94
N6450 X-18.302 Y-150.168
N6455 X-18.564 Y-149.293
N6460 X-18.918 Y-148.386
N6465 X-19.402 Y-147.387
N6470 X-20.029 Y-146.322
N6475 X-20.807 Y-145.214
N6480 X-21.781 Y-144.041
N6485 X-22.98 Y-142.812
N6490 X-24.303 Y-141.658
N6495 X-25.707 Y-140.602
N6500 X-27.174 Y-139.639
N6505 X-28.695 Y-138.761
N6510 X-30.258 Y-137.962
N6515 X-31.856 Y-137.235
N6520 X-33.483 Y-136.575
N6525 X-35.134 Y-135.976
N6530 X-36.803 Y-135.432
N6535 X-38.489 Y-134.94
N6540 X-40.187 Y-134.495
N6545 X-41.897 Y-134.094
N6550 X-43.615 Y-133.734
N6555 X-45.341 Y-133.414
N6560 X-47.075 Y-133.135
N6565 X-48.814 Y-132.897
N6570 X-50.559 Y-132.7
N6575 X-52.308 Y-132.547
N6580 X-54.061 Y-132.438
N6585 X-55.815 Y-132.376
N6590 X-57.571 Y-132.369
N6595 X-59.326 Y-132.419
N6600 X-61.078 Y-132.532
N6605 X-62.824 Y-132.715
N6610 X-64.56 Y-132.977
N6615 X-66.28 Y-133.334
N6620 X-67.941 Y-133.799
N6625 X-69.363 Y-134.324
N6630 X-70.226 Y-134.724
N6635 X-70.606 Y-134.934
N6640 X-70.953 Y-135.196
N6645 X-71.259 Y-135.505
N6650 X-71.519 Y-135.854
N6655 X-71.726 Y-136.236
N6660 X-71.877 Y-136.643
N6665 X-71.969 Y-137.068
N6670 X-72. Y-137.501
N6675 Y-146.425
N6680 G3 X-69.809 Y-148.818 I2.498 J0.087
N6685 G1 X-20.805 Y-154.882
N6690 G3 X-18. Y-152.488 I0.307 J2.481
N6695 G1 Y-144.995
N6700 X-18.057 Y-143.85
N6705 X-18.163 Y-143.047
N6710 X-18.344 Y-142.197
N6715 X-18.632 Y-141.238
N6720 X-19.023 Y-140.233
N6725 X-19.552 Y-139.144
N6730 X-20.241 Y-137.972
N6735 X-21.111 Y-136.734
N6740 X-22.187 Y-135.437
N6745 X-23.414 Y-134.181
N6750 X-24.73 Y-133.019
N6755 X-26.12 Y-131.946
N6760 X-27.571 Y-130.958
N6765 X-29.073 Y-130.048
N6770 X-30.616 Y-129.212
N6775 X-32.195 Y-128.444
N6780 X-33.804 Y-127.74
N6785 X-35.437 Y-127.096
N6790 X-37.092 Y-126.509
N6795 X-38.765 Y-125.976
N6800 X-40.454 Y-125.495
N6805 X-42.155 Y-125.063
N6810 X-43.869 Y-124.679
N6815 X-45.592 Y-124.344
N6820 X-47.324 Y-124.056
N6825 X-49.063 Y-123.816
N6830 X-51.246 Y-123.59
N6835 X-52.997 Y-123.46
N6840 X-54.752 Y-123.382
N6845 X-56.507 Y-123.358
N6850 X-58.263 Y-123.391
N6855 X-60.016 Y-123.488
N6860 X-61.764 Y-123.651
N6865 X-63.504 Y-123.886
N6870 X-65.231 Y-124.203
N6875 X-66.937 Y-124.617
N6880 X-68.541 Y-125.127
N6885 X-69.914 Y-125.69
N6890 X-70.192 Y-125.83
N6895 X-70.582 Y-126.063
N6900 X-70.936 Y-126.347
N6905 X-71.248 Y-126.677
N6910 X-71.512 Y-127.047
N6915 X-71.722 Y-127.449
N6920 X-71.876 Y-127.876
N6925 X-71.969 Y-128.321
N6930 X-72. Y-128.774
N6935 Y-137.501
N6940 G3 X-69.879 Y-139.885 I2.498 J0.087
N6945 G1 X-20.876 Y-147.379
N6950 G3 X-18. Y-144.995 I0.378 J2.471
N6955 G1 Y-136.34
N6960 X-18.04 Y-135.545
N6965 X-18.148 Y-134.718
N6970 X-18.343 Y-133.806
N6975 X-18.646 Y-132.795
N6980 X-19.06 Y-131.733
N6985 X-19.621 Y-130.575
N6990 X-20.353 Y-129.333
N6995 X-21.277 Y-128.017
N7000 X-22.399 Y-126.666
N7005 X-23.623 Y-125.407
N7010 X-24.931 Y-124.236
N7015 X-26.311 Y-123.15
N7020 X-27.75 Y-122.144
N7025 X-29.239 Y-121.214
N7030 X-30.77 Y-120.355
N7035 X-32.338 Y-119.564
N7040 X-33.936 Y-118.838
N7045 X-35.561 Y-118.172
N7050 X-37.313 Y-117.531
N7055 X-38.671 Y-117.096
N7060 X-39.08 Y-116.936
N7065 X-39.475 Y-116.745
N7070 X-39.855 Y-116.525
N7075 X-39.946 Y-116.463
N7080 X-41.649 Y-116.036
N7085 X-43.363 Y-115.656
N7090 X-45.087 Y-115.323
N7095 X-46.819 Y-115.037
N7100 X-48.559 Y-114.798
N7105 X-50.304 Y-114.609
N7110 X-52.055 Y-114.47
N7115 X-53.808 Y-114.383
N7120 X-55.564 Y-114.347
N7125 X-57.319 Y-114.366
N7130 X-59.073 Y-114.445
N7135 X-60.823 Y-114.587
N7140 X-62.567 Y-114.796
N7145 X-64.299 Y-115.078
N7150 X-66.016 Y-115.448
N7155 X-67.705 Y-115.926
N7160 X-69.203 Y-116.476
N7165 X-70.084 Y-116.883
N7170 X-70.494 Y-117.11
N7175 X-70.869 Y-117.392
N7180 X-71.2 Y-117.725
N7185 X-71.48 Y-118.101
N7190 X-71.704 Y-118.513
N7195 X-71.867 Y-118.953
N7200 X-71.967 Y-119.411
N7205 X-72. Y-119.879
N7210 Y-128.774
N7215 G3 X-69.883 Y-131.157 I2.498 J0.087
N7220 G1 X-20.88 Y-138.723
N7225 G3 X-18. Y-136.34 I0.381 J2.471
N7230 G1 Y-127.76
N7235 X-18.042 Y-126.918
N7240 X-18.153 Y-126.071
N7245 X-18.355 Y-125.127
N7250 X-18.667 Y-124.086
N7255 X-19.095 Y-122.988
N7260 X-19.675 Y-121.792
N7265 X-20.429 Y-120.51
N7270 X-21.383 Y-119.153
N7275 X-22.504 Y-117.802
N7280 X-23.725 Y-116.54
N7285 X-25.029 Y-115.364
N7290 X-26.402 Y-114.27
N7295 X-27.823 Y-113.238
N7300 X-29.288 Y-112.271
N7305 X-30.802 Y-111.382
N7310 X-32.358 Y-110.568
N7315 X-33.948 Y-109.824
N7320 X-35.568 Y-109.146
N7325 X-37.212 Y-108.53
N7330 X-38.877 Y-107.974
N7335 X-40.561 Y-107.476
N7340 X-42.26 Y-107.033
N7345 X-43.972 Y-106.645
N7350 X-45.696 Y-106.309
N7355 X-47.428 Y-106.025
N7360 X-49.169 Y-105.795
N7365 X-50.916 Y-105.617
N7370 X-52.667 Y-105.492
N7375 X-54.421 Y-105.421
N7380 X-56.177 Y-105.403
N7385 X-57.932 Y-105.445
N7390 X-59.685 Y-105.548
N7395 X-61.433 Y-105.716
N7400 X-63.172 Y-105.953
N7405 X-64.899 Y-106.27
N7410 X-66.607 Y-106.678
N7415 X-68.272 Y-107.197
N7420 X-69.691 Y-107.768
N7425 X-70.173 Y-108.008
N7430 X-70.567 Y-108.24
N7435 X-70.925 Y-108.524
N7440 X-71.24 Y-108.854
N7445 X-71.506 Y-109.225
N7450 X-71.719 Y-109.629
N7455 X-71.874 Y-110.059
N7460 X-71.968 Y-110.506
N7465 X-72. Y-110.961
N7470 Y-119.879
N7475 G3 X-69.898 Y-122.26 I2.498 J0.087
N7480 G1 X-20.895 Y-130.141
N7485 G3 X-18. Y-127.76 I0.397 J2.468
N7490 G1 Y-118.768
N7495 X-18.032 Y-118.132
N7500 X-18.144 Y-117.273
N7505 X-18.352 Y-116.304
N7510 X-18.675 Y-115.224
N7515 X-19.126 Y-114.067
N7520 X-19.727 Y-112.829
N7525 X-20.504 Y-111.508
N7530 X-21.481 Y-110.118
N7535 X-22.602 Y-108.767
N7540 X-23.821 Y-107.503
N7545 X-25.122 Y-106.324
N7550 X-26.493 Y-105.227
N7555 X-27.923 Y-104.208
N7560 X-29.404 Y-103.265
N7565 X-30.928 Y-102.394
N7570 X-32.49 Y-101.592
N7575 X-34.084 Y-100.855
N7580 X-35.705 Y-100.182
N7585 X-37.351 Y-99.569
N7590 X-39.017 Y-99.015
N7595 X-40.7 Y-98.517
N7600 X-42.4 Y-98.075
N7605 X-44.112 Y-97.688
N7610 X-45.836 Y-97.355
N7615 X-47.569 Y-97.074
N7620 X-48.068 Y-97.012
N7625 X-48.353 Y-97.
N7630 X-57.721
N7635 X-61.228 Y-97.177
N7640 X-62.976 Y-97.349
N7645 X-64.712 Y-97.607
N7650 X-66.431 Y-97.965
N7655 X-68.053 Y-98.424
N7660 X-69.448 Y-98.943
N7665 X-70.095 Y-99.245
N7670 X-70.504 Y-99.472
N7675 X-70.876 Y-99.755
N7680 X-71.205 Y-100.087
N7685 X-71.483 Y-100.463
N7690 X-71.706 Y-100.874
N7695 X-71.868 Y-101.312
N7700 X-71.967 Y-101.769
N7705 X-72. Y-102.235
N7710 Y-110.961
N7715 G3 X-67.758 Y-112.666 I2.498 J0.087
N7720 G1 X-56.065 Y-101.29
N7725 G3 X-57.721 Y-97. I-1.743 J1.792
N7730 G1 X-68.966
N7735 X-69.715 Y-97.01
N7740 X-69.919 Y-97.038
N7745 X-70.192 Y-97.102
N7750 X-70.465 Y-97.199
N7755 X-70.84 Y-97.398
N7760 X-71.027 Y-97.531
N7765 X-71.215 Y-97.693
N7770 X-71.308 Y-97.787
N7775 X-71.47 Y-97.974
N7780 X-71.603 Y-98.162
N7785 X-71.801 Y-98.536
N7790 X-71.9 Y-98.814
N7795 X-71.964 Y-99.093
N7800 X-71.99 Y-99.286
N7805 X-72. Y-100.035
N7810 Y-102.235
N7815 G3 X-70.301 Y-104.517 I2.498 J0.087
N7820 G1 X-21.298 Y-121.05
N7825 G3 X-18. Y-118.768 I0.799 J2.369
N7830 G1 Y-109.776
N7835 X-18.03 Y-109.17
N7840 X-18.144 Y-108.305
N7845 X-18.352 Y-107.331
N7850 X-18.671 Y-106.265
N7855 X-19.11 Y-105.139
N7860 X-19.704 Y-103.914
N7865 X-20.476 Y-102.604
N7870 X-21.448 Y-101.219
N7875 X-22.57 Y-99.868
N7880 X-23.789 Y-98.605
N7885 X-24.616 Y-97.855
N7890 X-24.999 Y-97.556
N7895 X-25.421 Y-97.317
N7900 X-25.874 Y-97.142
N7905 X-26.348 Y-97.036
N7910 X-26.832 Y-97.
N7915 X-47.227
N7920 G3 X-48.032 Y-101.833 I0.087 J-2.498
N7925 G1 X-21.392 Y-112.024
N7930 G3 X-18. Y-109.776 I0.893 J2.335
N7935 G1 Y-100.784
N7940 X-18.024 Y-100.304
N7945 X-18.124 Y-99.54
N7950 X-18.17 Y-99.327
N7955 X-18.293 Y-98.907
N7960 X-18.477 Y-98.509
N7965 X-18.718 Y-98.144
N7970 X-19.011 Y-97.818
N7975 X-19.349 Y-97.539
N7980 X-19.724 Y-97.314
N7985 X-20.129 Y-97.147
N7990 X-20.554 Y-97.041
N7995 X-20.99 Y-97.
N8000 G3 X-23.591 Y-97.955 I0.155 J-4.444
N8005 X-18. Y-100.784 I2.14 J-2.709
N8010 G1 Y-100.035
N8015 X-18.01 Y-99.286
N8020 X-18.074 Y-98.911
N8025 X-18.199 Y-98.536
N8030 X-18.397 Y-98.162
N8035 X-18.53 Y-97.974
N8040 X-18.741 Y-97.736
N8045 X-18.928 Y-97.566
N8050 X-19.116 Y-97.426
N8055 X-19.49 Y-97.218
N8060 X-19.785 Y-97.108
N8065 X-20.079 Y-97.038
N8070 X-20.24 Y-97.015
N8075 X-20.99 Y-97.
N8080 X-26.832
N8085 X-26.947 Y-97.014 Z-4.493
N8090 X-27.06 Y-97.028 Z-4.473
N8095 X-27.17 Y-97.042 Z-4.439
N8100 X-27.275 Y-97.055 Z-4.392
N8105 X-27.365 Y-97.084 Z-4.337
N8110 X-27.449 Y-97.11 Z-4.271
N8115 X-27.525 Y-97.134 Z-4.196
N8120 X-27.593 Y-97.155 Z-4.113
N8125 X-27.652 Y-97.173 Z-4.022
N8130 X-27.701 Y-97.188 Z-3.925
N8135 X-27.736 Y-97.204 Z-3.827
N8140 X-27.761 Y-97.215 Z-3.726
N8145 X-27.776 Y-97.221 Z-3.623
N8150 X-27.782 Y-97.224 Z-3.518
N8155 G0 Z6.
N8160 G1 X83.988 Y-172.888 F5000.
N8165 G0 Z0.5
N8170 G1 Z-2. F2328.
N8175 X83.983 Y-172.882 Z-2.196
N8180 X83.967 Y-172.865 Z-2.391
N8185 X83.941 Y-172.837 Z-2.584
N8190 X83.905 Y-172.797 Z-2.773
N8195 X83.86 Y-172.747 Z-2.957
N8200 X83.804 Y-172.686 Z-3.135
N8205 X83.74 Y-172.616 Z-3.306
N8210 X83.666 Y-172.535 Z-3.469
N8215 X83.584 Y-172.445 Z-3.624
N8220 X83.494 Y-172.347 Z-3.768
N8225 X83.397 Y-172.24 Z-3.901
N8230 X83.293 Y-172.127 Z-4.023
N8235 X83.183 Y-172.006 Z-4.132
N8240 X83.068 Y-171.88 Z-4.228
N8245 X82.947 Y-171.748 Z-4.31
N8250 X82.823 Y-171.612 Z-4.378
N8255 X82.696 Y-171.472 Z-4.431
N8260 X82.566 Y-171.33 Z-4.469
N8265 X82.435 Y-171.186 Z-4.492
N8270 X82.302 Y-171.041 Z-4.5
N8275 G3 X81.481 Y-170.503 I-1.461 J-1.334
N8280 G1 X80.96 Y-170.341
N8285 X80.21 Y-170.076
N8290 X79.461 Y-169.758
N8295 X78.711 Y-169.358
N8300 X77.961 Y-168.923
N8305 X77.212 Y-168.405
N8310 X76.462 Y-167.79
N8315 X76.103 Y-167.474
N8320 X75.931 Y-167.323
N8325 X74.994 Y-166.625
N8330 X73.792 Y-165.871
N8335 X72.245 Y-165.066
N8340 X70.627 Y-164.383
N8345 X68.969 Y-163.807
N8350 X67.282 Y-163.319
N8355 X65.576 Y-162.904
N8360 X63.856 Y-162.552
N8365 X62.126 Y-162.253
N8370 X60.389 Y-161.998
N8375 X58.647 Y-161.78
N8380 X56.901 Y-161.595
N8385 X55.152 Y-161.436
N8390 X53.402 Y-161.301
N8395 X51.65 Y-161.185
N8400 X49.897 Y-161.087
N8405 X48.143 Y-161.002
N8410 X46.389 Y-160.93
N8415 X42.879 Y-160.815
N8420 X39.368 Y-160.731
N8425 X34.102 Y-160.645
N8430 X28.835 Y-160.591
N8435 X27.079 Y-160.578
N8440 X20.056 Y-160.542
N8445 X19.593 Y-160.575
N8450 X19.14 Y-160.678
N8455 X18.708 Y-160.848
N8460 X18.307 Y-161.081
N8465 X17.945 Y-161.371
N8470 X17.631 Y-161.713
N8475 X17.371 Y-162.098
N8480 X17.173 Y-162.518
N8485 G3 X19.273 Y-165.816 I2.364 J-0.812
N8490 G1 X73.98 Y-171.632
N8495 G3 X76.103 Y-167.474 I0.264 J2.486
N8500 G1 X75.38 Y-166.725
N8505 X74.963 Y-166.256
N8510 X74.202 Y-165.226
N8515 X73.731 Y-164.477
N8520 X73.35 Y-163.728
N8525 X72.999 Y-162.978
N8530 X72.894 Y-162.753
N8535 X72.526 Y-162.108
N8540 X72.043 Y-161.398
N8545 X71.432 Y-160.641
N8550 X70.655 Y-159.821
N8555 X69.681 Y-158.947
N8560 X68.472 Y-158.025
N8565 X66.995 Y-157.076
N8570 X65.447 Y-156.247
N8575 X63.848 Y-155.522
N8580 X62.211 Y-154.888
N8585 X60.545 Y-154.334
N8590 X58.857 Y-153.849
N8595 X57.153 Y-153.426
N8600 X55.437 Y-153.055
N8605 X53.711 Y-152.731
N8610 X51.978 Y-152.448
N8615 X50.24 Y-152.201
N8620 X48.498 Y-151.984
N8625 X46.752 Y-151.795
N8630 X45.004 Y-151.63
N8635 X43.255 Y-151.486
N8640 X41.503 Y-151.359
N8645 X39.751 Y-151.249
N8650 X37.998 Y-151.153
N8655 X36.244 Y-151.069
N8660 X32.735 Y-150.932
N8665 X30.98 Y-150.876
N8670 X29.225 Y-150.837
N8675 X27.469 Y-150.839
N8680 X25.715 Y-150.91
N8685 X23.967 Y-151.077
N8690 X22.281 Y-151.356
N8695 X20.828 Y-151.719
N8700 X19.957 Y-152.012
N8705 X19.545 Y-152.188
N8710 X19.166 Y-152.425
N8715 X18.828 Y-152.717
N8720 X18.54 Y-153.059
N8725 X18.308 Y-153.441
N8730 X18.138 Y-153.855
N8735 X18.035 Y-154.29
N8740 X18. Y-154.736
N8745 X17.996 Y-157.733
N8750 G3 X20.191 Y-160.14 I2.499 J0.074
N8755 G1 X70.335 Y-166.285
N8760 G3 X72.999 Y-162.978 I0.304 J2.481
N8765 G1 X72.708 Y-162.229
N8770 X72.49 Y-161.48
N8775 X72.301 Y-160.73
N8780 X72.159 Y-159.981
N8785 X72.073 Y-159.232
N8790 X72.018 Y-158.482
N8795 X72.008 Y-158.348
N8800 X71.913 Y-157.76
N8805 X71.756 Y-157.119
N8810 X71.518 Y-156.403
N8815 X71.194 Y-155.638
N8820 X70.75 Y-154.788
N8825 X70.193 Y-153.902
N8830 X69.481 Y-152.95
N8835 X68.589 Y-151.937
N8840 X67.489 Y-150.875
N8845 X66.144 Y-149.77
N8850 X64.702 Y-148.768
N8855 X63.194 Y-147.869
N8860 X61.633 Y-147.064
N8865 X60.032 Y-146.344
N8870 X58.399 Y-145.7
N8875 X56.74 Y-145.124
N8880 X55.061 Y-144.611
N8885 X53.366 Y-144.152
N8890 X51.659 Y-143.743
N8895 X49.941 Y-143.379
N8900 X48.216 Y-143.054
N8905 X46.484 Y-142.765
N8910 X44.747 Y-142.507
N8915 X43.006 Y-142.278
N8920 X41.262 Y-142.075
N8925 X39.516 Y-141.896
N8930 X37.767 Y-141.743
N8935 X36.015 Y-141.621
N8940 X34.261 Y-141.535
N8945 X32.506 Y-141.49
N8950 X30.751 Y-141.495
N8955 X28.996 Y-141.558
N8960 X27.245 Y-141.685
N8965 X25.501 Y-141.889
N8970 X23.771 Y-142.192
N8975 X22.153 Y-142.594
N8980 X20.763 Y-143.062
N8985 X20.001 Y-143.388
N8990 X19.574 Y-143.609
N8995 X19.184 Y-143.889
N9000 X18.838 Y-144.224
N9005 X18.545 Y-144.605
N9010 X18.311 Y-145.024
N9015 X18.139 Y-145.473
N9020 X18.035 Y-145.942
N9025 X18. Y-146.422
N9030 Y-154.736
N9035 G3 X20.306 Y-157.141 I2.498 J0.087
N9040 G1 X69.325 Y-160.935
N9045 G3 X72.018 Y-158.482 I0.193 J2.493
N9050 G1 X72.004 Y-157.733
N9055 X72. Y-152.488
N9060 X71.959 Y-151.674
N9065 X71.863 Y-150.941
N9070 X71.698 Y-150.168
N9075 X71.436 Y-149.293
N9080 X71.082 Y-148.386
N9085 X70.598 Y-147.387
N9090 X69.971 Y-146.322
N9095 X69.193 Y-145.215
N9100 X68.219 Y-144.041
N9105 X67.019 Y-142.812
N9110 X65.696 Y-141.658
N9115 X64.293 Y-140.602
N9120 X62.825 Y-139.639
N9125 X61.305 Y-138.761
N9130 X59.742 Y-137.961
N9135 X58.143 Y-137.235
N9140 X56.516 Y-136.575
N9145 X54.866 Y-135.976
N9150 X53.196 Y-135.432
N9155 X51.511 Y-134.94
N9160 X49.812 Y-134.495
N9165 X48.103 Y-134.094
N9170 X46.385 Y-133.734
N9175 X44.658 Y-133.414
N9180 X42.925 Y-133.135
N9185 X41.185 Y-132.896
N9190 X39.441 Y-132.699
N9195 X37.692 Y-132.546
N9200 X35.939 Y-132.437
N9205 X34.185 Y-132.375
N9210 X32.429 Y-132.367
N9215 X30.674 Y-132.418
N9220 X28.922 Y-132.53
N9225 X27.175 Y-132.713
N9230 X25.439 Y-132.975
N9235 X23.72 Y-133.332
N9240 X22.059 Y-133.797
N9245 X20.637 Y-134.322
N9250 X19.777 Y-134.72
N9255 X19.396 Y-134.931
N9260 X19.048 Y-135.193
N9265 X18.742 Y-135.502
N9270 X18.482 Y-135.851
N9275 X18.274 Y-136.234
N9280 X18.123 Y-136.642
N9285 X18.031 Y-137.067
N9290 X18. Y-137.501
N9295 Y-146.422
N9300 G3 X20.191 Y-148.815 I2.498 J0.087
N9305 G1 X69.194 Y-154.882
N9310 G3 X72. Y-152.488 I0.307 J2.481
N9315 G1 Y-144.995
N9320 X71.943 Y-143.85
N9325 X71.837 Y-143.048
N9330 X71.656 Y-142.197
N9335 X71.368 Y-141.238
N9340 X70.977 Y-140.233
N9345 X70.448 Y-139.144
N9350 X69.759 Y-137.972
N9355 X68.888 Y-136.734
N9360 X67.813 Y-135.437
N9365 X66.586 Y-134.181
N9370 X65.27 Y-133.019
N9375 X63.88 Y-131.946
N9380 X62.429 Y-130.958
N9385 X60.927 Y-130.048
N9390 X59.383 Y-129.212
N9395 X57.805 Y-128.444
N9400 X56.196 Y-127.74
N9405 X54.563 Y-127.096
N9410 X52.908 Y-126.509
N9415 X51.235 Y-125.976
N9420 X49.546 Y-125.494
N9425 X47.845 Y-125.063
N9430 X46.131 Y-124.679
N9435 X44.408 Y-124.343
N9440 X42.676 Y-124.055
N9445 X40.937 Y-123.815
N9450 X38.754 Y-123.588
N9455 X37.003 Y-123.459
N9460 X35.249 Y-123.381
N9465 X33.493 Y-123.356
N9470 X31.738 Y-123.389
N9475 X29.985 Y-123.486
N9480 X28.236 Y-123.649
N9485 X26.496 Y-123.884
N9490 X24.769 Y-124.201
N9495 X23.063 Y-124.614
N9500 X21.46 Y-125.125
N9505 X20.086 Y-125.688
N9510 X19.808 Y-125.828
N9515 X19.418 Y-126.061
N9520 X19.064 Y-126.345
N9525 X18.752 Y-126.675
N9530 X18.488 Y-127.045
N9535 X18.278 Y-127.447
N9540 X18.124 Y-127.874
N9545 X18.031 Y-128.319
N9550 X18. Y-128.772
N9555 Y-137.501
N9560 G3 X20.121 Y-139.885 I2.498 J0.087
N9565 G1 X69.124 Y-147.379
N9570 G3 X72. Y-144.995 I0.378 J2.471
N9575 G1 Y-136.34
N9580 X71.96 Y-135.545
N9585 X71.852 Y-134.718
N9590 X71.657 Y-133.806
N9595 X71.354 Y-132.795
N9600 X70.94 Y-131.733
N9605 X70.379 Y-130.575
N9610 X69.647 Y-129.333
N9615 X68.723 Y-128.017
N9620 X67.601 Y-126.666
N9625 X66.377 Y-125.407
N9630 X65.069 Y-124.236
N9635 X63.689 Y-123.15
N9640 X62.25 Y-122.144
N9645 X60.761 Y-121.214
N9650 X59.23 Y-120.355
N9655 X57.662 Y-119.564
N9660 X56.064 Y-118.838
N9665 X54.439 Y-118.172
N9670 X52.687 Y-117.531
N9675 X51.329 Y-117.096
N9680 X50.92 Y-116.935
N9685 X50.525 Y-116.745
N9690 X50.145 Y-116.525
N9695 X50.054 Y-116.463
N9700 X48.351 Y-116.035
N9705 X46.637 Y-115.655
N9710 X44.913 Y-115.322
N9715 X43.181 Y-115.036
N9720 X41.442 Y-114.797
N9725 X39.696 Y-114.608
N9730 X37.946 Y-114.469
N9735 X36.192 Y-114.381
N9740 X34.437 Y-114.346
N9745 X32.681 Y-114.364
N9750 X30.927 Y-114.443
N9755 X29.177 Y-114.585
N9760 X27.434 Y-114.794
N9765 X25.701 Y-115.076
N9770 X23.985 Y-115.446
N9775 X22.295 Y-115.924
N9780 X20.797 Y-116.474
N9785 X19.916 Y-116.881
N9790 X19.506 Y-117.108
N9795 X19.131 Y-117.39
N9800 X18.8 Y-117.723
N9805 X18.52 Y-118.099
N9810 X18.296 Y-118.511
N9815 X18.133 Y-118.951
N9820 X18.033 Y-119.409
N9825 X18. Y-119.877
N9830 Y-128.772
N9835 G3 X20.117 Y-131.155 I2.498 J0.087
N9840 G1 X69.12 Y-138.723
N9845 G3 X72. Y-136.34 I0.382 J2.471
N9850 G1 Y-127.76
N9855 X71.958 Y-126.918
N9860 X71.847 Y-126.071
N9865 X71.645 Y-125.127
N9870 X71.333 Y-124.086
N9875 X70.905 Y-122.988
N9880 X70.325 Y-121.792
N9885 X69.571 Y-120.51
N9890 X68.617 Y-119.153
N9895 X67.496 Y-117.802
N9900 X66.275 Y-116.54
N9905 X64.971 Y-115.363
N9910 X63.598 Y-114.269
N9915 X62.177 Y-113.238
N9920 X60.712 Y-112.27
N9925 X59.198 Y-111.382
N9930 X57.642 Y-110.568
N9935 X56.052 Y-109.823
N9940 X54.432 Y-109.145
N9945 X52.788 Y-108.529
N9950 X51.123 Y-107.974
N9955 X49.439 Y-107.475
N9960 X47.74 Y-107.032
N9965 X46.028 Y-106.644
N9970 X44.305 Y-106.308
N9975 X42.572 Y-106.024
N9980 X40.831 Y-105.794
N9985 X39.085 Y-105.616
N9990 X37.333 Y-105.491
N9995 X35.579 Y-105.419
N10000 X33.823 Y-105.402
N10005 X32.068 Y-105.443
N10010 X30.315 Y-105.547
N10015 X28.568 Y-105.714
N10020 X26.828 Y-105.952
N10025 X25.101 Y-106.268
N10030 X23.393 Y-106.676
N10035 X21.728 Y-107.195
N10040 X20.309 Y-107.766
N10045 X19.827 Y-108.006
N10050 X19.433 Y-108.238
N10055 X19.075 Y-108.522
N10060 X18.76 Y-108.852
N10065 X18.494 Y-109.223
N10070 X18.281 Y-109.627
N10075 X18.126 Y-110.057
N10080 X18.032 Y-110.504
N10085 X18. Y-110.959
N10090 Y-119.877
N10095 G3 X20.101 Y-122.258 I2.498 J0.087
N10100 G1 X69.104 Y-130.141
N10105 G3 X72. Y-127.76 I0.397 J2.468
N10110 G1 Y-118.768
N10115 X71.968 Y-118.131
N10120 X71.856 Y-117.272
N10125 X71.648 Y-116.304
N10130 X71.325 Y-115.224
N10135 X70.874 Y-114.066
N10140 X70.273 Y-112.828
N10145 X69.496 Y-111.508
N10150 X68.519 Y-110.117
N10155 X67.398 Y-108.766
N10160 X66.179 Y-107.503
N10165 X64.878 Y-106.324
N10170 X63.507 Y-105.226
N10175 X62.077 Y-104.208
N10180 X60.596 Y-103.265
N10185 X59.072 Y-102.393
N10190 X57.51 Y-101.591
N10195 X55.916 Y-100.854
N10200 X54.295 Y-100.181
N10205 X52.649 Y-99.568
N10210 X50.983 Y-99.014
N10215 X49.3 Y-98.516
N10220 X47.6 Y-98.074
N10225 X45.888 Y-97.687
N10230 X44.164 Y-97.353
N10235 X42.431 Y-97.073
N10240 X41.942 Y-97.012
N10245 X41.656 Y-97.
N10250 X32.234
N10255 X28.727 Y-97.179
N10260 X26.98 Y-97.353
N10265 X25.244 Y-97.614
N10270 X23.525 Y-97.974
N10275 X21.91 Y-98.434
N10280 X20.52 Y-98.955
N10285 X19.899 Y-99.246
N10290 X19.491 Y-99.473
N10295 X19.12 Y-99.756
N10300 X18.792 Y-100.088
N10305 X18.515 Y-100.464
N10310 X18.293 Y-100.874
N10315 X18.131 Y-101.312
N10320 X18.033 Y-101.768
N10325 X18. Y-102.234
N10330 Y-110.959
N10335 G3 X22.245 Y-112.661 I2.498 J0.087
N10340 G1 X33.893 Y-101.287
N10345 G3 X32.234 Y-97. I-1.747 J1.789
N10350 G1 X20.99
N10355 X20.24 Y-97.015
N10360 X20.079 Y-97.038
N10365 X19.785 Y-97.108
N10370 X19.49 Y-97.218
N10375 X19.116 Y-97.426
N10380 X18.928 Y-97.566
N10385 X18.691 Y-97.787
N10390 X18.53 Y-97.974
N10395 X18.397 Y-98.162
N10400 X18.199 Y-98.536
N10405 X18.074 Y-98.911
N10410 X18.01 Y-99.286
N10415 X18. Y-100.035
N10420 Y-102.234
N10425 G3 X19.699 Y-104.515 I2.498 J0.087
N10430 G1 X68.702 Y-121.05
N10435 G3 X72. Y-118.768 I0.799 J2.369
N10440 G1 Y-109.776
N10445 X71.97 Y-109.17
N10450 X71.856 Y-108.304
N10455 X71.648 Y-107.33
N10460 X71.329 Y-106.265
N10465 X70.89 Y-105.138
N10470 X70.296 Y-103.913
N10475 X69.524 Y-102.603
N10480 X68.552 Y-101.219
N10485 X67.43 Y-99.868
N10490 X66.211 Y-98.604
N10495 X65.385 Y-97.855
N10500 X65.002 Y-97.556
N10505 X64.58 Y-97.317
N10510 X64.127 Y-97.142
N10515 X63.653 Y-97.036
N10520 X63.169 Y-97.
N10525 X42.729
N10530 G3 X41.924 Y-101.834 I0.087 J-2.498
N10535 G1 X68.61 Y-112.024
N10540 G3 X72. Y-109.776 I0.892 J2.336
N10545 G1 Y-100.784
N10550 X71.976 Y-100.303
N10555 X71.876 Y-99.539
N10560 X71.836 Y-99.355
N10565 X71.711 Y-98.928
N10570 X71.523 Y-98.524
N10575 X71.278 Y-98.153
N10580 X70.98 Y-97.823
N10585 X70.636 Y-97.541
N10590 X70.253 Y-97.313
N10595 X69.841 Y-97.145
N10600 X69.409 Y-97.039
N10605 X68.966 Y-97.
N10610 G3 X66.374 Y-97.962 I0.153 J-4.386
N10615 X72. Y-100.784 I2.166 J-2.701
N10620 G1 Y-100.035
N10625 X71.99 Y-99.286
N10630 X71.964 Y-99.093
N10635 X71.9 Y-98.814
N10640 X71.801 Y-98.536
N10645 X71.603 Y-98.162
N10650 X71.47 Y-97.974
N10655 X71.308 Y-97.787
N10660 X71.215 Y-97.693
N10665 X71.027 Y-97.531
N10670 X70.84 Y-97.398
N10675 X70.465 Y-97.199
N10680 X70.192 Y-97.102
N10685 X69.919 Y-97.038
N10690 X69.715 Y-97.01
N10695 X68.966 Y-97.
N10700 X63.169
N10705 X63.054 Y-97.014 Z-4.493
N10710 X62.941 Y-97.028 Z-4.473
N10715 X62.831 Y-97.042 Z-4.439
N10720 X62.726 Y-97.055 Z-4.392
N10725 X62.636 Y-97.084 Z-4.337
N10730 X62.552 Y-97.11 Z-4.271
N10735 X62.475 Y-97.134 Z-4.196
N10740 X62.407 Y-97.155 Z-4.113
N10745 X62.349 Y-97.173 Z-4.022
N10750 X62.3 Y-97.188 Z-3.925
N10755 X62.265 Y-97.204 Z-3.827
N10760 X62.24 Y-97.215 Z-3.726
N10765 X62.224 Y-97.221 Z-3.623
N10770 X62.219 Y-97.224 Z-3.518
N10775 G0 Z6.
N10780 Z16.
N10785 M5
N10790 G53 G0 Z0.

(Cavidades inferiores acab. paredes)
N10795 M9
N10800 M1
N10805 T4 M6
N10810 S10000 M3
N10815 G54
N10820 M8
N10825 G0 X9. Y158.5
N10830 G43 Z16. H4
N10835 T2
N10840 G0 Z5.
N10845 G1 Z2. F30.
N10850 Z-4.4
N10855 G18 G3 X8.5 Z-4.9 I-0.5 K0.
N10860 G1 X8. F1200.
N10865 G17 G3 X7.5 Y158. I0. J-0.5
N10870 G1 Y87.5
N10875 G3 X8.5 Y86.5 I1. J0.
N10880 G1 X81.5
N10885 G3 X82.5 Y87.5 I0. J1.
N10890 G1 Y158.
N10895 G3 X82. Y158.5 I-0.5 J0.
N10900 G1 X81.5
N10905 G18 G3 X81. Z-4.4 I0. K0.5
N10910 G0 Z6.
N10915 X-81.
N10920 Z5.
N10925 G1 Z2. F30.
N10930 Z-4.4
N10935 G3 X-81.5 Z-4.9 I-0.5 K0.
N10940 G1 X-82. F1200.
N10945 G17 G3 X-82.5 Y158. I0. J-0.5
N10950 G1 Y87.5
N10955 G3 X-81.5 Y86.5 I1. J0.
N10960 G1 X-8.5
N10965 G3 X-7.5 Y87.5 I0. J1.
N10970 G1 Y158.
N10975 G3 X-8. Y158.5 I-0.5 J0.
N10980 G1 X-8.5
N10985 G18 G3 X-9. Z-4.4 I0. K0.5
N10990 G0 Z6.
N10995 Y-158.5
N11000 Z5.
N11005 G1 Z2. F30.
N11010 Z-4.4
N11015 G2 X-8.5 Z-4.9 I0.5 K0.
N11020 G1 X-8. F1200.
N11025 G17 G3 X-7.5 Y-158. I0. J0.5
N11030 G1 Y-87.5
N11035 G3 X-8.5 Y-86.5 I-1. J0.
N11040 G1 X-81.5
N11045 G3 X-82.5 Y-87.5 I0. J-1.
N11050 G1 Y-158.
N11055 G3 X-82. Y-158.5 I0.5 J0.
N11060 G1 X-81.5
N11065 G18 G2 X-81. Z-4.4 I0. K0.5
N11070 G0 Z6.
N11075 X81.
N11080 Z5.
N11085 G1 Z2. F30.
N11090 Z-4.4
N11095 G2 X81.5 Z-4.9 I0.5 K0.
N11100 G1 X82. F1200.
N11105 G17 G3 X82.5 Y-158. I0. J0.5
N11110 G1 Y-87.5
N11115 G3 X81.5 Y-86.5 I-1. J0.
N11120 G1 X8.5
N11125 G3 X7.5 Y-87.5 I0. J-1.
N11130 G1 Y-158.
N11135 G3 X8. Y-158.5 I0.5 J0.
N11140 G1 X8.5
N11145 G18 G2 X9. Z-4.4 I0. K0.5
N11150 G0 Z16.
N11155 M5
N11160 G53 G0 Z0.

(Cavidades inferiores acab. base)
N11165 M9
N11170 M1
N11175 T2 M6
N11180 S3880 M3
N11185 G54
N11190 M8
N11195 G17
N11200 G0 X-88.038 Y172.146
N11205 G43 Z16. H2
N11210 T1
N11215 G0 Z6.
N11220 Z0.
N11225 G1 Z-2.5 F2328.
N11230 X-88.032 Y172.142 Z-2.696
N11235 X-88.012 Y172.13 Z-2.891
N11240 X-87.98 Y172.109 Z-3.084
N11245 X-87.935 Y172.08 Z-3.273
N11250 X-87.878 Y172.044 Z-3.457
N11255 X-87.809 Y172. Z-3.635
N11260 X-87.728 Y171.948 Z-3.806
N11265 X-87.636 Y171.889 Z-3.969
N11270 X-87.533 Y171.824 Z-4.124
N11275 X-87.421 Y171.752 Z-4.268
N11280 X-87.3 Y171.674 Z-4.401
N11285 X-87.17 Y171.591 Z-4.523
N11290 X-87.032 Y171.503 Z-4.632
N11295 X-86.888 Y171.411 Z-4.728
N11300 X-86.738 Y171.315 Z-4.81
N11305 X-86.583 Y171.216 Z-4.878
N11310 X-86.423 Y171.114 Z-4.931
N11315 X-86.261 Y171.011 Z-4.969
N11320 X-86.097 Y170.906 Z-4.992
N11325 X-85.932 Y170.8 Z-5.
N11330 G3 X-84.999 Y170.493 I1.065 J1.667
N11335 G1 X-84.25 Y170.469
N11340 X-83.501 Y170.395
N11345 X-82.753 Y170.286
N11350 X-82.004 Y170.129
N11355 X-81.101 Y169.863
N11360 X-80.506 Y169.655
N11365 X-79.757 Y169.346
N11370 X-79.008 Y168.952
N11375 X-78.259 Y168.519
N11380 X-78.013 Y168.363
N11385 X-77.51 Y168.
N11390 X-77.037 Y167.613
N11395 X-75.651 Y166.592
N11400 X-74.435 Y165.836
N11405 X-72.905 Y165.047
N11410 X-71.318 Y164.38
N11415 X-69.691 Y163.815
N11420 X-68.038 Y163.335
N11425 X-66.366 Y162.927
N11430 X-64.68 Y162.578
N11435 X-62.984 Y162.281
N11440 X-61.281 Y162.027
N11445 X-59.573 Y161.809
N11450 X-57.862 Y161.623
N11455 X-56.147 Y161.464
N11460 X-54.431 Y161.327
N11465 X-52.714 Y161.21
N11470 X-50.995 Y161.11
N11475 X-49.276 Y161.024
N11480 X-47.556 Y160.95
N11485 X-44.114 Y160.832
N11490 X-40.672 Y160.745
N11495 X-35.508 Y160.655
N11500 X-30.344 Y160.599
N11505 X-26.9 Y160.573
N11510 X-19.674 Y160.539
N11515 X-19.187 Y160.573
N11520 X-18.71 Y160.679
N11525 X-18.253 Y160.855
N11530 X-17.828 Y161.096
N11535 X-17.443 Y161.397
N11540 X-17.107 Y161.752
N11545 X-16.827 Y162.153
N11550 X-16.609 Y162.59
N11555 G3 X-18.689 Y165.94 I-2.346 J0.865
N11560 G1 X-75.122 Y171.979
N11565 G3 X-77.037 Y167.613 I-0.266 J-2.486
N11570 G1 X-76.761 Y167.388
N11575 X-76.211 Y166.863
N11580 X-75.492 Y166.113
N11585 X-74.914 Y165.364
N11590 X-74.515 Y164.792
N11595 X-74.399 Y164.614
N11600 X-73.973 Y163.864
N11605 X-73.605 Y163.114
N11610 X-73.337 Y162.566
N11615 X-72.954 Y161.921
N11620 X-72.446 Y161.205
N11625 X-71.796 Y160.428
N11630 X-70.985 Y159.603
N11635 X-69.969 Y158.724
N11640 X-68.702 Y157.795
N11645 X-67.237 Y156.891
N11650 X-65.708 Y156.099
N11655 X-64.133 Y155.405
N11660 X-62.522 Y154.796
N11665 X-60.885 Y154.263
N11670 X-59.228 Y153.796
N11675 X-57.556 Y153.387
N11680 X-55.872 Y153.028
N11685 X-54.18 Y152.713
N11690 X-52.48 Y152.437
N11695 X-50.776 Y152.196
N11700 X-49.067 Y151.984
N11705 X-47.356 Y151.798
N11710 X-45.642 Y151.636
N11715 X-43.926 Y151.493
N11720 X-42.209 Y151.369
N11725 X-40.491 Y151.259
N11730 X-38.772 Y151.164
N11735 X-37.052 Y151.08
N11740 X-33.612 Y150.943
N11745 X-30.17 Y150.837
N11750 X-28.449 Y150.809
N11755 X-26.727 Y150.827
N11760 X-25.008 Y150.915
N11765 X-23.296 Y151.097
N11770 X-21.617 Y151.393
N11775 X-20.163 Y151.771
N11780 X-19.546 Y151.986
N11785 X-19.115 Y152.174
N11790 X-18.718 Y152.427
N11795 X-18.365 Y152.737
N11800 X-18.064 Y153.099
N11805 X-17.821 Y153.502
N11810 X-17.644 Y153.938
N11815 X-17.536 Y154.395
N11820 X-17.5 Y154.864
N11825 X-17.497 Y157.527
N11830 G3 X-19.68 Y159.94 I-2.499 J-0.067
N11835 G1 X-70.949 Y166.475
N11840 G3 X-73.605 Y163.114 I-0.316 J-2.48
N11845 G1 X-73.293 Y162.364
N11850 X-73.017 Y161.509
N11855 X-72.839 Y160.864
N11860 X-72.694 Y160.114
N11865 X-72.587 Y159.364
N11870 X-72.517 Y158.614
N11875 X-72.479 Y158.206
N11880 X-72.377 Y157.621
N11885 X-72.207 Y156.965
N11890 X-71.958 Y156.247
N11895 X-71.617 Y155.472
N11900 X-71.156 Y154.616
N11905 X-70.577 Y153.723
N11910 X-69.84 Y152.764
N11915 X-68.92 Y151.748
N11920 X-67.787 Y150.682
N11925 X-66.442 Y149.607
N11930 X-65.018 Y148.639
N11935 X-63.532 Y147.77
N11940 X-61.997 Y146.99
N11945 X-60.424 Y146.29
N11950 X-58.821 Y145.664
N11955 X-57.193 Y145.103
N11960 X-55.546 Y144.601
N11965 X-53.884 Y144.152
N11970 X-52.21 Y143.75
N11975 X-50.526 Y143.392
N11980 X-48.835 Y143.072
N11985 X-47.137 Y142.786
N11990 X-45.434 Y142.531
N11995 X-43.728 Y142.304
N12000 X-42.018 Y142.101
N12005 X-40.306 Y141.921
N12010 X-38.592 Y141.764
N12015 X-36.875 Y141.631
N12020 X-35.156 Y141.529
N12025 X-33.436 Y141.462
N12030 X-31.715 Y141.435
N12035 X-29.993 Y141.456
N12040 X-28.273 Y141.533
N12045 X-26.557 Y141.673
N12050 X-24.849 Y141.888
N12055 X-23.157 Y142.202
N12060 X-21.555 Y142.618
N12065 X-20.173 Y143.098
N12070 X-19.471 Y143.407
N12075 X-19.049 Y143.63
N12080 X-18.665 Y143.911
N12085 X-18.325 Y144.245
N12090 X-18.036 Y144.624
N12095 X-17.805 Y145.041
N12100 X-17.637 Y145.487
N12105 X-17.534 Y145.952
N12110 X-17.5 Y146.427
N12115 Y154.864
N12120 G3 X-19.81 Y157.27 I-2.498 J-0.087
N12125 G1 X-69.829 Y161.057
N12130 G3 X-72.517 Y158.614 I-0.189 J-2.493
N12135 G1 X-72.5 Y157.114
N12140 Y152.614
N12145 X-72.452 Y151.648
N12150 X-72.358 Y150.934
N12155 X-72.19 Y150.147
N12160 X-71.931 Y149.284
N12165 X-71.576 Y148.373
N12170 X-71.09 Y147.371
N12175 X-70.468 Y146.314
N12180 X-69.69 Y145.207
N12185 X-68.716 Y144.033
N12190 X-67.518 Y142.805
N12195 X-66.22 Y141.673
N12200 X-64.846 Y140.636
N12205 X-63.409 Y139.688
N12210 X-61.921 Y138.822
N12215 X-60.391 Y138.033
N12220 X-58.827 Y137.313
N12225 X-57.234 Y136.659
N12230 X-55.619 Y136.063
N12235 X-53.985 Y135.522
N12240 X-52.335 Y135.031
N12245 X-50.672 Y134.585
N12250 X-48.998 Y134.182
N12255 X-47.315 Y133.818
N12260 X-45.625 Y133.492
N12265 X-43.928 Y133.203
N12270 X-42.225 Y132.952
N12275 X-40.516 Y132.738
N12280 X-38.804 Y132.563
N12285 X-37.087 Y132.428
N12290 X-35.368 Y132.335
N12295 X-33.647 Y132.288
N12300 X-31.926 Y132.292
N12305 X-30.205 Y132.351
N12310 X-28.487 Y132.468
N12315 X-26.776 Y132.653
N12320 X-25.074 Y132.913
N12325 X-23.388 Y133.261
N12330 X-21.728 Y133.718
N12335 X-20.278 Y134.242
N12340 X-19.418 Y134.634
N12345 X-19.007 Y134.858
N12350 X-18.632 Y135.138
N12355 X-18.301 Y135.469
N12360 X-18.021 Y135.843
N12365 X-17.797 Y136.254
N12370 X-17.633 Y136.692
N12375 X-17.533 Y137.149
N12380 X-17.5 Y137.615
N12385 Y146.427
N12390 G3 X-19.691 Y148.821 I-2.498 J-0.087
N12395 G1 X-69.695 Y155.008
N12400 G3 X-72.5 Y152.614 I-0.307 J-2.481
N12405 G1 Y144.365
N12410 X-72.475 Y143.871
N12415 X-72.37 Y143.067
N12420 X-72.188 Y142.216
N12425 X-71.9 Y141.257
N12430 X-71.507 Y140.246
N12435 X-70.979 Y139.159
N12440 X-70.29 Y137.989
N12445 X-69.42 Y136.749
N12450 X-68.341 Y135.449
N12455 X-67.138 Y134.217
N12460 X-65.85 Y133.075
N12465 X-64.49 Y132.019
N12470 X-63.071 Y131.045
N12475 X-61.602 Y130.146
N12480 X-60.093 Y129.318
N12485 X-58.549 Y128.556
N12490 X-56.976 Y127.856
N12495 X-55.379 Y127.214
N12500 X-53.761 Y126.626
N12505 X-52.124 Y126.091
N12510 X-50.473 Y125.604
N12515 X-48.808 Y125.165
N12520 X-47.132 Y124.771
N12525 X-45.447 Y124.422
N12530 X-43.752 Y124.116
N12535 X-42.05 Y123.856
N12540 X-40.342 Y123.64
N12545 X-38.629 Y123.471
N12550 X-36.912 Y123.347
N12555 X-35.192 Y123.272
N12560 X-33.471 Y123.246
N12565 X-31.749 Y123.275
N12570 X-30.03 Y123.362
N12575 X-28.314 Y123.508
N12580 X-26.606 Y123.723
N12585 X-24.909 Y124.012
N12590 X-23.229 Y124.387
N12595 X-21.576 Y124.869
N12600 X-20.122 Y125.419
N12605 X-19.269 Y125.823
N12610 X-18.889 Y126.036
N12615 X-18.543 Y126.301
N12620 X-18.238 Y126.612
N12625 X-17.979 Y126.963
N12630 X-17.773 Y127.347
N12635 X-17.622 Y127.755
N12640 X-17.531 Y128.181
N12645 X-17.5 Y128.616
N12650 Y137.615
N12655 G3 X-19.664 Y140.006 I-2.498 J-0.087
N12660 G1 X-69.667 Y146.755
N12665 G3 X-72.5 Y144.365 I-0.334 J-2.478
N12670 G1 Y136.116
N12675 X-72.472 Y135.548
N12680 X-72.362 Y134.715
N12685 X-72.169 Y133.81
N12690 X-71.866 Y132.799
N12695 X-71.451 Y131.732
N12700 X-70.891 Y130.58
N12705 X-70.162 Y129.341
N12710 X-69.239 Y128.027
N12715 X-68.139 Y126.702
N12720 X-66.941 Y125.466
N12725 X-65.662 Y124.314
N12730 X-64.314 Y123.244
N12735 X-62.908 Y122.249
N12740 X-61.454 Y121.328
N12745 X-59.862 Y120.426
N12750 X-58.232 Y119.597
N12755 X-56.667 Y118.879
N12760 X-55.077 Y118.219
N12765 X-53.465 Y117.616
N12770 X-51.833 Y117.065
N12775 X-50.185 Y116.567
N12780 X-48.523 Y116.119
N12785 X-46.848 Y115.72
N12790 X-45.163 Y115.369
N12795 X-43.468 Y115.065
N12800 X-41.766 Y114.809
N12805 X-40.057 Y114.602
N12810 X-38.343 Y114.443
N12815 X-36.624 Y114.333
N12820 X-34.904 Y114.273
N12825 X-33.182 Y114.264
N12830 X-31.461 Y114.312
N12835 X-29.743 Y114.419
N12840 X-28.03 Y114.586
N12845 X-26.324 Y114.821
N12850 X-24.631 Y115.132
N12855 X-22.955 Y115.528
N12860 X-21.309 Y116.032
N12865 X-19.876 Y116.596
N12870 X-19.348 Y116.855
N12875 X-18.95 Y117.085
N12880 X-18.589 Y117.369
N12885 X-18.27 Y117.7
N12890 X-18. Y118.072
N12895 X-17.784 Y118.478
N12900 X-17.627 Y118.91
N12905 X-17.532 Y119.36
N12910 X-17.5 Y119.818
N12915 Y128.616
N12920 G3 X-19.628 Y131.001 I-2.498 J-0.087
N12925 G1 X-69.631 Y138.501
N12930 G3 X-72.5 Y136.116 I-0.371 J-2.472
N12935 G1 Y127.866
N12940 X-72.453 Y126.918
N12945 X-72.34 Y126.063
N12950 X-72.14 Y125.126
N12955 X-71.828 Y124.084
N12960 X-71.397 Y122.978
N12965 X-70.82 Y121.788
N12970 X-70.069 Y120.512
N12975 X-69.113 Y119.152
N12980 X-68.013 Y117.827
N12985 X-66.819 Y116.587
N12990 X-65.544 Y115.43
N12995 X-64.202 Y114.351
N13000 X-62.804 Y113.348
N13005 X-61.356 Y112.416
N13010 X-59.866 Y111.553
N13015 X-58.34 Y110.755
N13020 X-56.784 Y110.02
N13025 X-55.201 Y109.343
N13030 X-53.594 Y108.724
N13035 X-51.968 Y108.16
N13040 X-50.324 Y107.649
N13045 X-48.665 Y107.189
N13050 X-46.992 Y106.781
N13055 X-45.308 Y106.423
N13060 X-43.615 Y106.114
N13065 X-41.913 Y105.854
N13070 X-40.204 Y105.644
N13075 X-38.49 Y105.482
N13080 X-36.772 Y105.37
N13085 X-35.051 Y105.309
N13090 X-33.33 Y105.302
N13095 X-31.609 Y105.349
N13100 X-29.89 Y105.453
N13105 X-28.177 Y105.618
N13110 X-26.471 Y105.852
N13115 X-24.777 Y106.158
N13120 X-23.1 Y106.55
N13125 X-21.453 Y107.049
N13130 X-20.003 Y107.615
N13135 X-19.359 Y107.928
N13140 X-18.959 Y108.158
N13145 X-18.595 Y108.441
N13150 X-18.274 Y108.772
N13155 X-18.003 Y109.145
N13160 X-17.786 Y109.552
N13165 X-17.628 Y109.985
N13170 X-17.532 Y110.436
N13175 X-17.5 Y110.896
N13180 Y119.818
N13185 G3 X-19.601 Y122.199 I-2.498 J-0.087
N13190 G1 X-69.604 Y130.247
N13195 G3 X-72.5 Y127.866 I-0.397 J-2.468
N13200 G1 Y118.867
N13205 X-72.463 Y118.135
N13210 X-72.35 Y117.268
N13215 X-72.145 Y116.312
N13220 X-71.827 Y115.25
N13225 X-71.389 Y114.125
N13230 X-70.801 Y112.913
N13235 X-70.035 Y111.611
N13240 X-69.065 Y110.231
N13245 X-67.966 Y108.907
N13250 X-66.772 Y107.666
N13255 X-65.5 Y106.506
N13260 X-64.161 Y105.424
N13265 X-62.765 Y104.416
N13270 X-61.32 Y103.48
N13275 X-59.834 Y102.611
N13280 X-58.311 Y101.809
N13285 X-56.756 Y101.068
N13290 X-55.175 Y100.388
N13295 X-53.57 Y99.766
N13300 X-51.944 Y99.199
N13305 X-50.301 Y98.686
N13310 X-48.642 Y98.225
N13315 X-46.97 Y97.815
N13320 X-45.286 Y97.457
N13325 X-43.592 Y97.148
N13330 X-41.89 Y96.89
N13335 X-40.181 Y96.681
N13340 X-38.467 Y96.521
N13345 X-38.031 Y96.5
N13350 X-34.075
N13355 X-32.355 Y96.586
N13360 X-30.634 Y96.634
N13365 X-28.916 Y96.75
N13370 X-27.205 Y96.934
N13375 X-25.502 Y97.19
N13380 X-23.815 Y97.531
N13385 X-22.151 Y97.972
N13390 X-20.612 Y98.502
N13395 X-19.239 Y99.107
N13400 X-18.862 Y99.343
N13405 X-18.521 Y99.628
N13410 X-18.221 Y99.956
N13415 X-17.968 Y100.321
N13420 X-17.766 Y100.717
N13425 X-17.619 Y101.136
N13430 X-17.53 Y101.571
N13435 X-17.5 Y102.015
N13440 Y109.867
N13445 G3 X-21.525 Y111.76 I-2.498 J-0.087
N13450 G1 X-35.513 Y100.979
N13455 G3 X-34.075 Y96.5 I1.526 J-1.98
N13460 G1 X-20.595
N13465 X-19.846 Y96.506
N13470 X-19.471 Y96.561
N13475 X-19.097 Y96.677
N13480 X-18.735 Y96.855
N13485 X-18.554 Y96.974
N13490 X-18.348 Y97.141
N13495 X-18.163 Y97.323
N13500 X-18.01 Y97.505
N13505 X-17.78 Y97.868
N13510 X-17.677 Y98.095
N13515 X-17.599 Y98.322
N13520 X-17.532 Y98.618
N13525 X-17.5 Y99.368
N13530 Y102.015
N13535 G3 X-19.2 Y104.296 I-2.498 J-0.087
N13540 G1 X-69.203 Y121.149
N13545 G3 X-72.5 Y118.867 I-0.798 J-2.369
N13550 G1 Y109.867
N13555 X-72.469 Y109.252
N13560 X-72.355 Y108.379
N13565 X-72.149 Y107.415
N13570 X-71.828 Y106.345
N13575 X-71.386 Y105.211
N13580 X-70.793 Y103.988
N13585 X-70.021 Y102.677
N13590 X-69.045 Y101.287
N13595 X-67.945 Y99.962
N13600 X-66.752 Y98.721
N13605 X-65.481 Y97.56
N13610 X-65.08 Y97.235
N13615 X-64.712 Y96.977
N13620 X-64.314 Y96.771
N13625 X-63.89 Y96.622
N13630 X-63.451 Y96.531
N13635 X-63.003 Y96.5
N13640 X-38.031
N13645 G3 X-37.317 Y101.367 I-0.087 J2.498
N13650 G1 X-69.201 Y112.148
N13655 G3 X-72.5 Y109.867 I-0.801 J-2.368
N13660 G1 Y100.868
N13665 X-72.473 Y100.324
N13670 X-72.364 Y99.494
N13675 X-72.186 Y98.662
N13680 X-72.01 Y98.211
N13685 X-71.765 Y97.793
N13690 X-71.456 Y97.42
N13695 X-71.092 Y97.1
N13700 X-70.682 Y96.843
N13705 X-70.235 Y96.654
N13710 X-69.765 Y96.539
N13715 X-69.282 Y96.5
N13720 G3 X-67.013 Y99.835 I-0.086 J2.499
N13725 G1 X-67.646 Y101.618
N13730 G3 X-72.5 Y100.868 I-2.356 J-0.837
N13735 G1 Y99.368
N13740 X-72.468 Y98.618
N13745 X-72.392 Y98.293
N13750 X-72.268 Y97.967
N13755 X-72.22 Y97.868
N13760 X-71.982 Y97.493
N13765 X-71.825 Y97.306
N13770 X-71.633 Y97.118
N13775 X-71.519 Y97.025
N13780 X-71.332 Y96.893
N13785 X-71.145 Y96.784
N13790 X-70.77 Y96.626
N13795 X-70.396 Y96.534
N13800 X-70.021 Y96.5
N13805 X-64.03
N13810 G3 X-63.081 Y96.724 I-0.087 J2.498
N13815 G1 X-62.902 Y96.805 Z-4.992
N13820 X-62.725 Y96.886 Z-4.969
N13825 X-62.55 Y96.966 Z-4.931
N13830 X-62.378 Y97.044 Z-4.878
N13835 X-62.21 Y97.12 Z-4.81
N13840 X-62.048 Y97.194 Z-4.728
N13845 X-61.892 Y97.265 Z-4.632
N13850 X-61.744 Y97.333 Z-4.523
N13855 X-61.603 Y97.397 Z-4.401
N13860 X-61.472 Y97.457 Z-4.268
N13865 X-61.351 Y97.512 Z-4.124
N13870 X-61.24 Y97.562 Z-3.969
N13875 X-61.141 Y97.608 Z-3.806
N13880 X-61.054 Y97.647 Z-3.635
N13885 X-60.979 Y97.681 Z-3.457
N13890 X-60.917 Y97.71 Z-3.273
N13895 X-60.869 Y97.732 Z-3.084
N13900 X-60.834 Y97.748 Z-2.891
N13905 X-60.813 Y97.757 Z-2.696
N13910 X-60.806 Y97.76 Z-2.5
N13915 G0 Z6.
N13920 G1 X1.806 Y172.105 F5000.
N13925 G0 Z0.
N13930 G1 Z-2.5 F2328.
N13935 X1.813 Y172.101 Z-2.696
N13940 X1.833 Y172.089 Z-2.891
N13945 X1.865 Y172.069 Z-3.084
N13950 X1.91 Y172.041 Z-3.273
N13955 X1.968 Y172.005 Z-3.457
N13960 X2.038 Y171.962 Z-3.635
N13965 X2.12 Y171.911 Z-3.806
N13970 X2.212 Y171.854 Z-3.969
N13975 X2.316 Y171.79 Z-4.124
N13980 X2.429 Y171.719 Z-4.268
N13985 X2.551 Y171.643 Z-4.401
N13990 X2.682 Y171.562 Z-4.523
N13995 X2.821 Y171.476 Z-4.632
N14000 X2.967 Y171.386 Z-4.728
N14005 X3.118 Y171.292 Z-4.81
N14010 X3.275 Y171.195 Z-4.878
N14015 X3.435 Y171.095 Z-4.931
N14020 X3.599 Y170.994 Z-4.969
N14025 X3.764 Y170.891 Z-4.992
N14030 X3.931 Y170.788 Z-5.
N14035 G3 X4.868 Y170.494 I1.042 J1.681
N14040 G1 X5.617 Y170.48
N14045 X6.366 Y170.411
N14050 X7.114 Y170.307
N14055 X7.863 Y170.165
N14060 X8.926 Y169.863
N14065 X9.361 Y169.699
N14070 X10.11 Y169.401
N14075 X10.859 Y169.026
N14080 X11.608 Y168.597
N14085 X11.987 Y168.363
N14090 X12.357 Y168.09
N14095 X13.106 Y167.496
N14100 X13.869 Y166.891
N14105 X14.964 Y166.158
N14110 X16.372 Y165.371
N14115 X17.937 Y164.655
N14120 X19.548 Y164.048
N14125 X21.191 Y163.533
N14130 X22.856 Y163.095
N14135 X24.537 Y162.722
N14140 X26.229 Y162.404
N14145 X27.929 Y162.132
N14150 X29.634 Y161.899
N14155 X31.344 Y161.7
N14160 X33.058 Y161.53
N14165 X34.773 Y161.384
N14170 X36.49 Y161.258
N14175 X38.208 Y161.151
N14180 X39.928 Y161.059
N14185 X41.647 Y160.98
N14190 X45.088 Y160.854
N14195 X48.53 Y160.761
N14200 X53.694 Y160.666
N14205 X58.859 Y160.605
N14210 X62.302 Y160.578
N14215 X70.76 Y160.537
N14220 X71.175 Y160.568
N14225 X71.581 Y160.664
N14230 X71.967 Y160.822
N14235 X72.323 Y161.039
N14240 X72.641 Y161.308
N14245 X72.913 Y161.625
N14250 X73.132 Y161.979
N14255 X73.293 Y162.364
N14260 G3 X71.221 Y165.73 I-2.34 J0.881
N14265 G1 X15.111 Y171.78
N14270 G3 X13.106 Y167.496 I-0.268 J-2.486
N14275 G1 X13.855 Y166.819
N14280 X14.496 Y166.113
N14285 X15.352 Y165.003
N14290 X15.597 Y164.614
N14295 X16.027 Y163.864
N14300 X16.395 Y163.114
N14305 X16.666 Y162.56
N14310 X17.058 Y161.901
N14315 X17.558 Y161.195
N14320 X18.202 Y160.425
N14325 X19.017 Y159.596
N14330 X20.035 Y158.716
N14335 X21.299 Y157.788
N14340 X22.764 Y156.885
N14345 X24.293 Y156.093
N14350 X25.868 Y155.399
N14355 X27.479 Y154.792
N14360 X29.116 Y154.259
N14365 X30.773 Y153.792
N14370 X32.446 Y153.383
N14375 X34.13 Y153.025
N14380 X35.822 Y152.71
N14385 X37.522 Y152.435
N14390 X39.226 Y152.193
N14395 X40.935 Y151.982
N14400 X42.646 Y151.797
N14405 X44.36 Y151.634
N14410 X46.076 Y151.492
N14415 X47.793 Y151.367
N14420 X49.511 Y151.258
N14425 X51.23 Y151.163
N14430 X52.95 Y151.079
N14435 X56.39 Y150.942
N14440 X59.832 Y150.837
N14445 X61.553 Y150.803
N14450 X63.275 Y150.81
N14455 X64.995 Y150.883
N14460 X66.709 Y151.049
N14465 X68.361 Y151.325
N14470 X69.785 Y151.682
N14475 X70.356 Y151.876
N14480 X70.807 Y152.068
N14485 X71.222 Y152.329
N14490 X71.593 Y152.65
N14495 X71.909 Y153.025
N14500 X72.163 Y153.445
N14505 X72.349 Y153.898
N14510 X72.462 Y154.375
N14515 X72.5 Y154.864
N14520 X72.503 Y157.527
N14525 G3 X70.32 Y159.94 I-2.499 J-0.067
N14530 G1 X19.056 Y166.458
N14535 G3 X16.395 Y163.114 I-0.315 J-2.48
N14540 G1 X16.701 Y162.364
N14545 X16.85 Y161.961
N14550 X16.954 Y161.614
N14555 X17.161 Y160.864
N14560 X17.306 Y160.114
N14565 X17.413 Y159.364
N14570 X17.483 Y158.614
N14575 X17.521 Y158.2
N14580 X17.623 Y157.615
N14585 X17.793 Y156.96
N14590 X18.042 Y156.242
N14595 X18.383 Y155.467
N14600 X18.844 Y154.612
N14605 X19.423 Y153.719
N14610 X20.159 Y152.761
N14615 X21.079 Y151.745
N14620 X22.212 Y150.679
N14625 X23.556 Y149.604
N14630 X24.98 Y148.637
N14635 X26.467 Y147.767
N14640 X28.001 Y146.987
N14645 X29.574 Y146.288
N14650 X31.178 Y145.661
N14655 X32.806 Y145.101
N14660 X34.453 Y144.599
N14665 X36.115 Y144.15
N14670 X37.789 Y143.749
N14675 X39.473 Y143.39
N14680 X41.164 Y143.07
N14685 X42.862 Y142.784
N14690 X44.565 Y142.53
N14695 X46.271 Y142.303
N14700 X47.981 Y142.1
N14705 X49.693 Y141.92
N14710 X51.407 Y141.762
N14715 X53.124 Y141.627
N14720 X54.842 Y141.521
N14725 X56.562 Y141.45
N14730 X58.284 Y141.417
N14735 X60.005 Y141.432
N14740 X61.725 Y141.502
N14745 X63.442 Y141.635
N14750 X65.15 Y141.846
N14755 X66.844 Y142.158
N14760 X68.436 Y142.571
N14765 X69.814 Y143.049
N14770 X70.529 Y143.363
N14775 X70.95 Y143.586
N14780 X71.335 Y143.867
N14785 X71.675 Y144.201
N14790 X71.964 Y144.581
N14795 X72.195 Y144.997
N14800 X72.363 Y145.443
N14805 X72.466 Y145.909
N14810 X72.5 Y146.384
N14815 Y154.864
N14820 G3 X70.19 Y157.27 I-2.498 J-0.087
N14825 G1 X20.171 Y161.057
N14830 G3 X17.483 Y158.614 I-0.189 J-2.493
N14835 G1 X17.5 Y157.114
N14840 Y152.614
N14845 X17.549 Y151.644
N14850 X17.642 Y150.93
N14855 X17.81 Y150.144
N14860 X18.069 Y149.281
N14865 X18.424 Y148.369
N14870 X18.91 Y147.368
N14875 X19.532 Y146.311
N14880 X20.31 Y145.204
N14885 X21.283 Y144.031
N14890 X22.482 Y142.803
N14895 X23.779 Y141.671
N14900 X25.154 Y140.634
N14905 X26.591 Y139.686
N14910 X28.079 Y138.82
N14915 X29.609 Y138.031
N14920 X31.173 Y137.311
N14925 X32.765 Y136.657
N14930 X34.38 Y136.061
N14935 X36.015 Y135.52
N14940 X37.665 Y135.029
N14945 X39.328 Y134.584
N14950 X41.002 Y134.18
N14955 X42.684 Y133.816
N14960 X44.374 Y133.489
N14965 X46.071 Y133.199
N14970 X47.774 Y132.946
N14975 X49.482 Y132.73
N14980 X51.195 Y132.552
N14985 X52.911 Y132.414
N14990 X54.63 Y132.318
N14995 X56.351 Y132.267
N15000 X58.072
N15005 X59.793 Y132.323
N15010 X61.511 Y132.438
N15015 X63.223 Y132.621
N15020 X64.925 Y132.879
N15025 X66.611 Y133.225
N15030 X68.271 Y133.681
N15035 X69.719 Y134.204
N15040 X70.566 Y134.59
N15045 X70.98 Y134.815
N15050 X71.358 Y135.097
N15055 X71.692 Y135.43
N15060 X71.975 Y135.807
N15065 X72.201 Y136.221
N15070 X72.366 Y136.663
N15075 X72.466 Y137.123
N15080 X72.5 Y137.594
N15085 Y146.384
N15090 G3 X70.311 Y148.778 I-2.498 J-0.087
N15095 G1 X20.308 Y155.008
N15100 G3 X17.5 Y152.614 I-0.309 J-2.481
N15105 G1 Y144.365
N15110 X17.525 Y143.868
N15115 X17.63 Y143.064
N15120 X17.812 Y142.213
N15125 X18.1 Y141.254
N15130 X18.493 Y140.244
N15135 X19.021 Y139.156
N15140 X19.709 Y137.986
N15145 X20.58 Y136.747
N15150 X21.659 Y135.447
N15155 X22.861 Y134.215
N15160 X24.15 Y133.073
N15165 X25.51 Y132.017
N15170 X26.929 Y131.043
N15175 X28.397 Y130.144
N15180 X29.907 Y129.316
N15185 X31.451 Y128.554
N15190 X33.024 Y127.854
N15195 X34.621 Y127.212
N15200 X36.239 Y126.624
N15205 X37.875 Y126.087
N15210 X39.526 Y125.6
N15215 X41.19 Y125.159
N15220 X42.866 Y124.764
N15225 X44.551 Y124.413
N15230 X46.245 Y124.106
N15235 X47.947 Y123.843
N15240 X49.655 Y123.626
N15245 X51.368 Y123.454
N15250 X53.085 Y123.329
N15255 X54.805 Y123.251
N15260 X56.526 Y123.223
N15265 X58.247 Y123.25
N15270 X59.967 Y123.335
N15275 X61.682 Y123.481
N15280 X63.391 Y123.693
N15285 X65.088 Y123.981
N15290 X66.769 Y124.356
N15295 X68.421 Y124.838
N15300 X69.875 Y125.387
N15305 X70.703 Y125.778
N15310 X71.089 Y125.995
N15315 X71.44 Y126.264
N15320 X71.75 Y126.58
N15325 X72.013 Y126.937
N15330 X72.223 Y127.326
N15335 X72.376 Y127.742
N15340 X72.469 Y128.175
N15345 X72.5 Y128.616
N15350 Y137.594
N15355 G3 X70.337 Y139.984 I-2.498 J-0.087
N15360 G1 X20.334 Y146.755
N15365 G3 X17.5 Y144.365 I-0.335 J-2.477
N15370 G1 Y136.116
N15375 X17.529 Y135.546
N15380 X17.638 Y134.713
N15385 X17.831 Y133.808
N15390 X18.134 Y132.797
N15395 X18.549 Y131.73
N15400 X19.109 Y130.578
N15405 X19.838 Y129.339
N15410 X20.761 Y128.025
N15415 X21.861 Y126.7
N15420 X23.059 Y125.464
N15425 X24.338 Y124.312
N15430 X25.686 Y123.241
N15435 X27.092 Y122.247
N15440 X28.546 Y121.325
N15445 X30.137 Y120.423
N15450 X31.767 Y119.594
N15455 X33.332 Y118.875
N15460 X34.922 Y118.214
N15465 X36.534 Y117.61
N15470 X38.165 Y117.058
N15475 X39.812 Y116.559
N15480 X41.474 Y116.11
N15485 X43.148 Y115.709
N15490 X44.833 Y115.356
N15495 X46.528 Y115.051
N15500 X48.23 Y114.794
N15505 X49.939 Y114.585
N15510 X51.653 Y114.424
N15515 X53.371 Y114.313
N15520 X55.092 Y114.251
N15525 X56.813 Y114.242
N15530 X58.534 Y114.288
N15535 X60.253 Y114.394
N15540 X61.966 Y114.56
N15545 X63.672 Y114.794
N15550 X65.365 Y115.104
N15555 X67.041 Y115.5
N15560 X68.687 Y116.004
N15565 X70.119 Y116.568
N15570 X70.653 Y116.83
N15575 X71.05 Y117.061
N15580 X71.412 Y117.344
N15585 X71.731 Y117.675
N15590 X72. Y118.047
N15595 X72.216 Y118.453
N15600 X72.373 Y118.885
N15605 X72.468 Y119.335
N15610 X72.5 Y119.793
N15615 Y128.616
N15620 G3 X70.372 Y131.001 I-2.498 J-0.087
N15625 G1 X20.369 Y138.501
N15630 G3 X17.5 Y136.116 I-0.371 J-2.472
N15635 G1 Y127.866
N15640 X17.548 Y126.916
N15645 X17.66 Y126.06
N15650 X17.86 Y125.124
N15655 X18.172 Y124.081
N15660 X18.603 Y122.975
N15665 X19.181 Y121.784
N15670 X19.932 Y120.508
N15675 X20.888 Y119.147
N15680 X21.988 Y117.822
N15685 X23.183 Y116.582
N15690 X24.457 Y115.425
N15695 X25.799 Y114.346
N15700 X27.197 Y113.342
N15705 X28.645 Y112.41
N15710 X30.134 Y111.546
N15715 X31.659 Y110.748
N15720 X33.216 Y110.012
N15725 X34.798 Y109.335
N15730 X36.404 Y108.714
N15735 X38.031 Y108.149
N15740 X39.674 Y107.637
N15745 X41.333 Y107.177
N15750 X43.005 Y106.767
N15755 X44.689 Y106.408
N15760 X46.383 Y106.098
N15765 X48.084 Y105.837
N15770 X49.793 Y105.626
N15775 X51.507 Y105.463
N15780 X53.225 Y105.35
N15785 X54.945 Y105.288
N15790 X56.667 Y105.279
N15795 X58.388 Y105.326
N15800 X60.106 Y105.43
N15805 X61.82 Y105.594
N15810 X63.526 Y105.828
N15815 X65.22 Y106.133
N15820 X66.897 Y106.525
N15825 X68.544 Y107.024
N15830 X69.994 Y107.589
N15835 X70.641 Y107.903
N15840 X71.041 Y108.133
N15845 X71.405 Y108.416
N15850 X71.725 Y108.747
N15855 X71.997 Y109.12
N15860 X72.214 Y109.527
N15865 X72.372 Y109.96
N15870 X72.468 Y110.412
N15875 X72.5 Y110.872
N15880 Y119.793
N15885 G3 X70.4 Y122.174 I-2.498 J-0.087
N15890 G1 X20.397 Y130.247
N15895 G3 X17.5 Y127.866 I-0.398 J-2.468
N15900 G1 Y118.867
N15905 X17.537 Y118.131
N15910 X17.651 Y117.263
N15915 X17.855 Y116.307
N15920 X18.173 Y115.244
N15925 X18.612 Y114.119
N15930 X19.2 Y112.906
N15935 X19.967 Y111.604
N15940 X20.937 Y110.223
N15945 X22.037 Y108.898
N15950 X23.23 Y107.657
N15955 X24.502 Y106.497
N15960 X25.841 Y105.415
N15965 X27.237 Y104.407
N15970 X28.681 Y103.47
N15975 X30.167 Y102.601
N15980 X31.69 Y101.798
N15985 X33.244 Y101.057
N15990 X34.825 Y100.376
N15995 X36.43 Y99.753
N16000 X38.056 Y99.185
N16005 X39.699 Y98.672
N16010 X41.358 Y98.21
N16015 X43.03 Y97.8
N16020 X44.713 Y97.44
N16025 X46.407 Y97.131
N16030 X48.109 Y96.872
N16035 X49.818 Y96.662
N16040 X51.498 Y96.506
N16045 X51.703 Y96.5
N16050 X56.541
N16055 X58.261 Y96.586
N16060 X59.981 Y96.656
N16065 X61.697 Y96.792
N16070 X63.406 Y97.001
N16075 X65.104 Y97.285
N16080 X66.785 Y97.658
N16085 X68.438 Y98.139
N16090 X69.886 Y98.686
N16095 X70.61 Y99.028
N16100 X71.016 Y99.256
N16105 X71.386 Y99.539
N16110 X71.712 Y99.871
N16115 X71.988 Y100.246
N16120 X72.209 Y100.655
N16125 X72.369 Y101.092
N16130 X72.467 Y101.547
N16135 X72.5 Y102.012
N16140 Y110.872
N16145 G3 X68.349 Y112.66 I-2.498 J-0.087
N16150 G1 X54.976 Y100.874
N16155 G3 X56.541 Y96.5 I1.653 J-1.876
N16160 G1 X70.021
N16165 X70.396 Y96.534
N16170 X70.77 Y96.626
N16175 X71.145 Y96.784
N16180 X71.332 Y96.893
N16185 X71.519 Y97.025
N16190 X71.633 Y97.118
N16195 X71.825 Y97.306
N16200 X71.982 Y97.493
N16205 X72.22 Y97.868
N16210 X72.268 Y97.967
N16215 X72.392 Y98.293
N16220 X72.468 Y98.618
N16225 X72.5 Y99.368
N16230 Y102.012
N16235 G3 X70.8 Y104.293 I-2.498 J-0.087
N16240 G1 X20.797 Y121.149
N16245 G3 X17.5 Y118.867 I-0.799 J-2.369
N16250 G1 Y109.867
N16255 X17.531 Y109.244
N16260 X17.646 Y108.371
N16265 X17.852 Y107.407
N16270 X18.173 Y106.336
N16275 X18.615 Y105.201
N16280 X19.208 Y103.978
N16285 X19.981 Y102.666
N16290 X20.957 Y101.275
N16295 X22.057 Y99.951
N16300 X23.25 Y98.709
N16305 X24.521 Y97.548
N16310 X24.907 Y97.236
N16315 X25.274 Y96.977
N16320 X25.673 Y96.771
N16325 X26.097 Y96.622
N16330 X26.536 Y96.531
N16335 X26.984 Y96.5
N16340 X50.55
N16345 G3 X51.297 Y101.355 I-0.087 J2.498
N16350 G1 X20.833 Y112.137
N16355 G3 X17.5 Y109.867 I-0.834 J-2.357
N16360 G1 Y100.868
N16365 X17.528 Y100.313
N16370 X17.636 Y99.485
N16375 X17.814 Y98.655
N16380 X17.84 Y98.568
N16385 X18.007 Y98.138
N16390 X18.239 Y97.741
N16395 X18.532 Y97.385
N16400 X18.877 Y97.081
N16405 X19.266 Y96.834
N16410 X19.689 Y96.653
N16415 X20.136 Y96.54
N16420 X20.595 Y96.5
N16425 G3 X22.911 Y99.685 I-0.087 J2.498
N16430 G1 X22.402 Y101.467
N16435 G3 X17.5 Y100.868 I-2.404 J-0.686
N16440 G1 Y99.368
N16445 X17.532 Y98.618
N16450 X17.599 Y98.322
N16455 X17.677 Y98.095
N16460 X17.78 Y97.868
N16465 X18.01 Y97.505
N16470 X18.163 Y97.323
N16475 X18.374 Y97.118
N16480 X18.554 Y96.974
N16485 X18.735 Y96.855
N16490 X19.097 Y96.677
N16495 X19.471 Y96.561
N16500 X19.846 Y96.506
N16505 X23.59 Y96.5
N16510 X26.984
N16515 G3 X27.934 Y96.724 I-0.087 J2.498
N16520 G1 X28.112 Y96.805 Z-4.992
N16525 X28.29 Y96.886 Z-4.969
N16530 X28.465 Y96.966 Z-4.931
N16535 X28.637 Y97.044 Z-4.878
N16540 X28.804 Y97.12 Z-4.81
N16545 X28.966 Y97.194 Z-4.728
N16550 X29.122 Y97.265 Z-4.632
N16555 X29.271 Y97.333 Z-4.523
N16560 X29.411 Y97.397 Z-4.401
N16565 X29.542 Y97.457 Z-4.268
N16570 X29.664 Y97.512 Z-4.124
N16575 X29.774 Y97.562 Z-3.969
N16580 X29.873 Y97.608 Z-3.806
N16585 X29.961 Y97.647 Z-3.635
N16590 X30.035 Y97.681 Z-3.457
N16595 X30.097 Y97.71 Z-3.273
N16600 X30.146 Y97.732 Z-3.084
N16605 X30.181 Y97.748 Z-2.891
N16610 X30.202 Y97.757 Z-2.696
N16615 X30.209 Y97.76 Z-2.5
N16620 G0 Z6.
N16625 G1 X88.038 Y-172.146 F5000.
N16630 G0 Z0.
N16635 G1 Z-2.5 F2328.
N16640 X88.032 Y-172.142 Z-2.696
N16645 X88.012 Y-172.13 Z-2.891
N16650 X87.98 Y-172.109 Z-3.084
N16655 X87.935 Y-172.08 Z-3.273
N16660 X87.878 Y-172.044 Z-3.457
N16665 X87.809 Y-172. Z-3.635
N16670 X87.728 Y-171.948 Z-3.806
N16675 X87.636 Y-171.889 Z-3.969
N16680 X87.533 Y-171.824 Z-4.124
N16685 X87.421 Y-171.752 Z-4.268
N16690 X87.3 Y-171.674 Z-4.401
N16695 X87.17 Y-171.591 Z-4.523
N16700 X87.032 Y-171.503 Z-4.632
N16705 X86.888 Y-171.411 Z-4.728
N16710 X86.738 Y-171.315 Z-4.81
N16715 X86.583 Y-171.216 Z-4.878
N16720 X86.423 Y-171.114 Z-4.931
N16725 X86.261 Y-171.011 Z-4.969
N16730 X86.097 Y-170.906 Z-4.992
N16735 X85.932 Y-170.8 Z-5.
N16740 G3 X84.999 Y-170.493 I-1.065 J-1.667
N16745 G1 X84.25 Y-170.469
N16750 X83.501 Y-170.395
N16755 X82.753 Y-170.286
N16760 X82.004 Y-170.129
N16765 X81.101 Y-169.863
N16770 X80.506 Y-169.655
N16775 X79.757 Y-169.346
N16780 X79.008 Y-168.952
N16785 X78.259 Y-168.519
N16790 X78.013 Y-168.363
N16795 X77.51 Y-168.
N16800 X77.037 Y-167.613
N16805 X75.651 Y-166.592
N16810 X74.435 Y-165.836
N16815 X72.905 Y-165.047
N16820 X71.318 Y-164.38
N16825 X69.691 Y-163.815
N16830 X68.038 Y-163.335
N16835 X66.366 Y-162.927
N16840 X64.68 Y-162.578
N16845 X62.984 Y-162.281
N16850 X61.281 Y-162.027
N16855 X59.573 Y-161.809
N16860 X57.862 Y-161.623
N16865 X56.147 Y-161.464
N16870 X54.431 Y-161.327
N16875 X52.714 Y-161.21
N16880 X50.995 Y-161.11
N16885 X49.276 Y-161.024
N16890 X47.556 Y-160.95
N16895 X44.114 Y-160.832
N16900 X40.672 Y-160.745
N16905 X35.508 Y-160.655
N16910 X30.344 Y-160.599
N16915 X26.9 Y-160.573
N16920 X19.674 Y-160.539
N16925 X19.187 Y-160.573
N16930 X18.71 Y-160.679
N16935 X18.253 Y-160.855
N16940 X17.828 Y-161.096
N16945 X17.443 Y-161.397
N16950 X17.107 Y-161.752
N16955 X16.827 Y-162.153
N16960 X16.609 Y-162.59
N16965 G3 X18.689 Y-165.94 I2.346 J-0.865
N16970 G1 X75.122 Y-171.979
N16975 G3 X77.037 Y-167.613 I0.266 J2.486
N16980 G1 X76.761 Y-167.388
N16985 X76.211 Y-166.863
N16990 X75.492 Y-166.113
N16995 X74.914 Y-165.364
N17000 X74.515 Y-164.792
N17005 X74.399 Y-164.614
N17010 X73.973 Y-163.864
N17015 X73.605 Y-163.114
N17020 X73.337 Y-162.566
N17025 X72.954 Y-161.921
N17030 X72.446 Y-161.205
N17035 X71.796 Y-160.428
N17040 X70.985 Y-159.603
N17045 X69.969 Y-158.724
N17050 X68.702 Y-157.795
N17055 X67.237 Y-156.891
N17060 X65.708 Y-156.099
N17065 X64.133 Y-155.405
N17070 X62.522 Y-154.796
N17075 X60.885 Y-154.263
N17080 X59.228 Y-153.796
N17085 X57.556 Y-153.387
N17090 X55.872 Y-153.028
N17095 X54.18 Y-152.713
N17100 X52.48 Y-152.437
N17105 X50.776 Y-152.196
N17110 X49.067 Y-151.984
N17115 X47.356 Y-151.798
N17120 X45.642 Y-151.636
N17125 X43.926 Y-151.493
N17130 X42.209 Y-151.369
N17135 X40.491 Y-151.259
N17140 X38.772 Y-151.164
N17145 X37.052 Y-151.08
N17150 X33.612 Y-150.943
N17155 X30.17 Y-150.837
N17160 X28.449 Y-150.809
N17165 X26.727 Y-150.827
N17170 X25.008 Y-150.915
N17175 X23.296 Y-151.097
N17180 X21.617 Y-151.393
N17185 X20.163 Y-151.771
N17190 X19.546 Y-151.986
N17195 X19.115 Y-152.174
N17200 X18.718 Y-152.427
N17205 X18.365 Y-152.737
N17210 X18.064 Y-153.099
N17215 X17.821 Y-153.502
N17220 X17.644 Y-153.938
N17225 X17.536 Y-154.395
N17230 X17.5 Y-154.864
N17235 X17.497 Y-157.527
N17240 G3 X19.68 Y-159.94 I2.499 J0.067
N17245 G1 X70.949 Y-166.475
N17250 G3 X73.605 Y-163.114 I0.316 J2.48
N17255 G1 X73.293 Y-162.364
N17260 X73.017 Y-161.509
N17265 X72.839 Y-160.864
N17270 X72.694 Y-160.114
N17275 X72.587 Y-159.364
N17280 X72.517 Y-158.614
N17285 X72.479 Y-158.206
N17290 X72.377 Y-157.621
N17295 X72.207 Y-156.965
N17300 X71.958 Y-156.247
N17305 X71.617 Y-155.472
N17310 X71.156 Y-154.616
N17315 X70.577 Y-153.723
N17320 X69.84 Y-152.764
N17325 X68.92 Y-151.748
N17330 X67.787 Y-150.682
N17335 X66.442 Y-149.607
N17340 X65.018 Y-148.639
N17345 X63.532 Y-147.77
N17350 X61.997 Y-146.99
N17355 X60.424 Y-146.29
N17360 X58.821 Y-145.664
N17365 X57.193 Y-145.103
N17370 X55.546 Y-144.601
N17375 X53.884 Y-144.152
N17380 X52.21 Y-143.75
N17385 X50.526 Y-143.392
N17390 X48.835 Y-143.072
N17395 X47.137 Y-142.786
N17400 X45.434 Y-142.531
N17405 X43.728 Y-142.304
N17410 X42.018 Y-142.101
N17415 X40.306 Y-141.921
N17420 X38.592 Y-141.764
N17425 X36.875 Y-141.631
N17430 X35.156 Y-141.529
N17435 X33.436 Y-141.462
N17440 X31.715 Y-141.435
N17445 X29.993 Y-141.456
N17450 X28.273 Y-141.533
N17455 X26.557 Y-141.673
N17460 X24.849 Y-141.888
N17465 X23.157 Y-142.202
N17470 X21.555 Y-142.618
N17475 X20.173 Y-143.098
N17480 X19.471 Y-143.407
N17485 X19.049 Y-143.63
N17490 X18.665 Y-143.911
N17495 X18.325 Y-144.245
N17500 X18.036 Y-144.624
N17505 X17.805 Y-145.041
N17510 X17.637 Y-145.487
N17515 X17.534 Y-145.952
N17520 X17.5 Y-146.427
N17525 Y-154.864
N17530 G3 X19.81 Y-157.27 I2.498 J0.087
N17535 G1 X69.829 Y-161.057
N17540 G3 X72.517 Y-158.614 I0.189 J2.493
N17545 G1 X72.5 Y-157.114
N17550 Y-152.614
N17555 X72.452 Y-151.648
N17560 X72.358 Y-150.934
N17565 X72.19 Y-150.147
N17570 X71.931 Y-149.284
N17575 X71.576 Y-148.373
N17580 X71.09 Y-147.371
N17585 X70.468 Y-146.314
N17590 X69.69 Y-145.207
N17595 X68.716 Y-144.033
N17600 X67.518 Y-142.805
N17605 X66.22 Y-141.673
N17610 X64.846 Y-140.636
N17615 X63.409 Y-139.688
N17620 X61.921 Y-138.822
N17625 X60.391 Y-138.033
N17630 X58.827 Y-137.313
N17635 X57.234 Y-136.659
N17640 X55.619 Y-136.063
N17645 X53.985 Y-135.522
N17650 X52.335 Y-135.031
N17655 X50.672 Y-134.585
N17660 X48.998 Y-134.182
N17665 X47.315 Y-133.818
N17670 X45.625 Y-133.492
N17675 X43.928 Y-133.203
N17680 X42.225 Y-132.952
N17685 X40.516 Y-132.738
N17690 X38.804 Y-132.563
N17695 X37.087 Y-132.428
N17700 X35.368 Y-132.335
N17705 X33.647 Y-132.288
N17710 X31.926 Y-132.292
N17715 X30.205 Y-132.351
N17720 X28.487 Y-132.468
N17725 X26.776 Y-132.653
N17730 X25.074 Y-132.913
N17735 X23.388 Y-133.261
N17740 X21.728 Y-133.718
N17745 X20.278 Y-134.242
N17750 X19.418 Y-134.634
N17755 X19.007 Y-134.858
N17760 X18.632 Y-135.138
N17765 X18.301 Y-135.469
N17770 X18.021 Y-135.843
N17775 X17.797 Y-136.254
N17780 X17.633 Y-136.692
N17785 X17.533 Y-137.149
N17790 X17.5 Y-137.615
N17795 Y-146.427
N17800 G3 X19.691 Y-148.821 I2.498 J0.087
N17805 G1 X69.695 Y-155.008
N17810 G3 X72.5 Y-152.614 I0.307 J2.481
N17815 G1 Y-144.365
N17820 X72.475 Y-143.871
N17825 X72.37 Y-143.067
N17830 X72.188 Y-142.216
N17835 X71.9 Y-141.257
N17840 X71.507 Y-140.246
N17845 X70.979 Y-139.159
N17850 X70.29 Y-137.989
N17855 X69.42 Y-136.749
N17860 X68.341 Y-135.449
N17865 X67.138 Y-134.217
N17870 X65.85 Y-133.075
N17875 X64.49 Y-132.019
N17880 X63.071 Y-131.045
N17885 X61.602 Y-130.146
N17890 X60.093 Y-129.318
N17895 X58.549 Y-128.556
N17900 X56.976 Y-127.856
N17905 X55.379 Y-127.214
N17910 X53.761 Y-126.626
N17915 X52.124 Y-126.091
N17920 X50.473 Y-125.604
N17925 X48.808 Y-125.165
N17930 X47.132 Y-124.771
N17935 X45.447 Y-124.422
N17940 X43.752 Y-124.116
N17945 X42.05 Y-123.856
N17950 X41.09 Y-123.736
N17955 X39.379 Y-123.545
N17960 X37.663 Y-123.399
N17965 X35.944 Y-123.301
N17970 X34.223 Y-123.254
N17975 X32.502 Y-123.259
N17980 X30.781 Y-123.318
N17985 X29.064 Y-123.437
N17990 X27.352 Y-123.623
N17995 X25.65 Y-123.879
N18000 X23.961 Y-124.215
N18005 X22.295 Y-124.648
N18010 X20.73 Y-125.177
N18015 X19.379 Y-125.758
N18020 X19.257 Y-125.823
N18025 X18.877 Y-126.058
N18030 X18.532 Y-126.343
N18035 X18.229 Y-126.671
N18040 X17.973 Y-127.038
N18045 X17.769 Y-127.435
N18050 X17.62 Y-127.857
N18055 X17.53 Y-128.294
N18060 X17.5 Y-128.74
N18065 Y-137.615
N18070 G3 X19.664 Y-140.006 I2.498 J0.087
N18075 G1 X69.667 Y-146.755
N18080 G3 X72.5 Y-144.365 I0.334 J2.478
N18085 G1 Y-136.116
N18090 X72.472 Y-135.548
N18095 X72.362 Y-134.715
N18100 X72.169 Y-133.81
N18105 X71.866 Y-132.799
N18110 X71.451 Y-131.732
N18115 X70.891 Y-130.58
N18120 X70.162 Y-129.341
N18125 X69.239 Y-128.027
N18130 X68.139 Y-126.702
N18135 X66.941 Y-125.466
N18140 X65.662 Y-124.314
N18145 X64.314 Y-123.244
N18150 X62.908 Y-122.249
N18155 X61.454 Y-121.328
N18160 X59.958 Y-120.476
N18165 X58.427 Y-119.689
N18170 X56.865 Y-118.963
N18175 X55.278 Y-118.297
N18180 X53.668 Y-117.687
N18185 X52.649 Y-117.342
N18190 X51.828 Y-117.083
N18195 X51.428 Y-116.925
N18200 X51.04 Y-116.738
N18205 X50.667 Y-116.523
N18210 X50.311 Y-116.281
N18215 X48.963 Y-115.21
N18220 X47.262 Y-114.945
N18225 X45.557 Y-114.708
N18230 X43.848 Y-114.502
N18235 X42.135 Y-114.327
N18240 X40.419 Y-114.186
N18245 X38.7 Y-114.083
N18250 X36.98 Y-114.02
N18255 X35.258 Y-113.999
N18260 X33.537 Y-114.023
N18265 X31.817 Y-114.093
N18270 X30.1 Y-114.217
N18275 X28.388 Y-114.398
N18280 X26.683 Y-114.64
N18285 X24.99 Y-114.95
N18290 X23.313 Y-115.343
N18295 X21.664 Y-115.837
N18300 X20.162 Y-116.412
N18305 X19.243 Y-116.851
N18310 X18.869 Y-117.064
N18315 X18.528 Y-117.327
N18320 X18.227 Y-117.635
N18325 X17.972 Y-117.982
N18330 X17.769 Y-118.362
N18335 X17.62 Y-118.766
N18340 X17.53 Y-119.187
N18345 X17.5 Y-119.617
N18350 Y-128.74
N18355 G3 X19.634 Y-131.126 I2.498 J0.087
N18360 G1 X69.637 Y-138.502
N18365 G3 X72.5 Y-136.116 I0.365 J2.473
N18370 G1 Y-127.866
N18375 X72.453 Y-126.918
N18380 X72.34 Y-126.063
N18385 X72.14 Y-125.126
N18390 X71.828 Y-124.084
N18395 X71.397 Y-122.978
N18400 X70.82 Y-121.788
N18405 X70.066 Y-120.508
N18410 X69.113 Y-119.151
N18415 X68.013 Y-117.826
N18420 X66.818 Y-116.587
N18425 X65.544 Y-115.429
N18430 X64.202 Y-114.351
N18435 X62.838 Y-113.3
N18440 X61.455 Y-112.275
N18445 X60.034 Y-111.303
N18450 X58.558 Y-110.416
N18455 X57.031 Y-109.621
N18460 X55.463 Y-108.91
N18465 X53.864 Y-108.273
N18470 X52.239 Y-107.704
N18475 X50.593 Y-107.198
N18480 X48.931 Y-106.751
N18485 X47.254 Y-106.36
N18490 X45.566 Y-106.022
N18495 X43.868 Y-105.735
N18500 X42.163 Y-105.498
N18505 X40.452 Y-105.309
N18510 X38.736 Y-105.169
N18515 X37.017 Y-105.078
N18520 X35.296 Y-105.035
N18525 X33.574 Y-105.045
N18530 X31.854 Y-105.107
N18535 X30.136 Y-105.224
N18540 X28.423 Y-105.399
N18545 X26.719 Y-105.641
N18550 X25.026 Y-105.952
N18555 X23.349 Y-106.342
N18560 X21.698 Y-106.831
N18565 X20.185 Y-107.403
N18570 X19.257 Y-107.843
N18575 X18.88 Y-108.055
N18580 X18.536 Y-108.318
N18585 X18.233 Y-108.627
N18590 X17.976 Y-108.975
N18595 X17.771 Y-109.356
N18600 X17.621 Y-109.762
N18605 X17.531 Y-110.186
N18610 X17.5 Y-110.617
N18615 Y-119.617
N18620 G3 X19.592 Y-121.996 I2.498 J0.087
N18625 G1 X69.595 Y-130.246
N18630 G3 X72.5 Y-127.866 I0.407 J2.467
N18635 G1 Y-118.867
N18640 X72.463 Y-118.135
N18645 X72.35 Y-117.268
N18650 X72.137 Y-116.272
N18655 X71.795 Y-115.132
N18660 X71.298 Y-113.855
N18665 X70.625 Y-112.469
N18670 X69.783 Y-111.038
N18675 X68.793 Y-109.629
N18680 X67.697 Y-108.302
N18685 X66.508 Y-107.057
N18690 X65.24 Y-105.893
N18695 X63.903 Y-104.808
N18700 X62.507 Y-103.8
N18705 X61.061 Y-102.866
N18710 X59.571 Y-102.003
N18715 X58.044 Y-101.209
N18720 X56.484 Y-100.48
N18725 X54.896 Y-99.815
N18730 X53.284 Y-99.211
N18735 X51.651 Y-98.665
N18740 X50.001 Y-98.175
N18745 X48.335 Y-97.739
N18750 X46.657 Y-97.355
N18755 X44.968 Y-97.023
N18760 X43.269 Y-96.74
N18765 X41.577 Y-96.513
N18770 X41.28 Y-96.5
N18775 X33.326
N18780 X31.606 Y-96.586
N18785 X29.886 Y-96.646
N18790 X28.169 Y-96.773
N18795 X26.459 Y-96.976
N18800 X24.761 Y-97.258
N18805 X23.079 Y-97.628
N18810 X21.426 Y-98.108
N18815 X20.002 Y-98.648
N18820 X19.388 Y-98.938
N18825 X18.982 Y-99.166
N18830 X18.613 Y-99.449
N18835 X18.287 Y-99.781
N18840 X18.012 Y-100.156
N18845 X17.791 Y-100.566
N18850 X17.63 Y-101.002
N18855 X17.533 Y-101.457
N18860 X17.5 Y-101.921
N18865 Y-110.617
N18870 X17.514 Y-110.732 Z-4.993
N18875 X17.528 Y-110.845 Z-4.973
N18880 X17.542 Y-110.955 Z-4.939
N18885 X17.555 Y-111.06 Z-4.892
N18890 X17.584 Y-111.15 Z-4.837
N18895 X17.61 Y-111.234 Z-4.771
N18900 X17.634 Y-111.311 Z-4.696
N18905 X17.655 Y-111.379 Z-4.613
N18910 X17.673 Y-111.437 Z-4.522
N18915 X17.688 Y-111.486 Z-4.425
N18920 X17.704 Y-111.521 Z-4.327
N18925 X17.715 Y-111.546 Z-4.226
N18930 X17.721 Y-111.562 Z-4.123
N18935 X17.724 Y-111.567 Z-4.018
N18940 G0 Z6.
N18945 G1 X72.276 Y-119.816 F5000.
N18950 G0 Z-2.5
N18955 G1 Z-5. F2328.
N18960 G3 X72.5 Y-118.867 I-2.275 J1.037
N18965 G1 Y-109.867
N18970 X72.448 Y-108.837
N18975 X72.333 Y-107.955
N18980 X72.121 Y-106.965
N18985 X71.797 Y-105.884
N18990 X71.353 Y-104.742
N18995 X70.753 Y-103.506
N19000 X69.976 Y-102.186
N19005 X68.999 Y-100.795
N19010 X67.899 Y-99.47
N19015 X66.706 Y-98.229
N19020 X65.753 Y-97.361
N19025 X65.37 Y-97.06
N19030 X64.946 Y-96.819
N19035 X64.492 Y-96.643
N19040 X64.016 Y-96.536
N19045 X63.53 Y-96.5
N19050 X42.312
N19055 G3 X41.49 Y-101.327 I0.087 J-2.498
N19060 G1 X69.092 Y-112.109
N19065 G3 X72.5 Y-109.867 I0.91 J2.329
N19070 G1 Y-100.868
N19075 X72.451 Y-99.892
N19080 X72.349 Y-99.112
N19085 X72.317 Y-98.963
N19090 X72.184 Y-98.512
N19095 X71.985 Y-98.086
N19100 X71.724 Y-97.695
N19105 X71.407 Y-97.348
N19110 X71.042 Y-97.052
N19115 X70.636 Y-96.815
N19120 X70.199 Y-96.641
N19125 X69.741 Y-96.536
N19130 X69.272 Y-96.5
N19135 G3 X67.008 Y-99.845 I0.087 J-2.498
N19140 G1 X67.649 Y-101.628
N19145 G3 X72.5 Y-100.868 I2.352 J0.847
N19150 G1 Y-99.368
N19155 X72.468 Y-98.618
N19160 X72.392 Y-98.293
N19165 X72.268 Y-97.967
N19170 X72.22 Y-97.868
N19175 X71.982 Y-97.493
N19180 X71.825 Y-97.306
N19185 X71.633 Y-97.118
N19190 X71.519 Y-97.025
N19195 X71.332 Y-96.893
N19200 X71.145 Y-96.784
N19205 X70.77 Y-96.626
N19210 X70.396 Y-96.534
N19215 X70.021 Y-96.5
N19220 X63.53
N19225 X63.416 Y-96.514 Z-4.993
N19230 X63.303 Y-96.528 Z-4.973
N19235 X63.193 Y-96.542 Z-4.939
N19240 X63.088 Y-96.555 Z-4.892
N19245 X62.997 Y-96.584 Z-4.837
N19250 X62.913 Y-96.61 Z-4.771
N19255 X62.837 Y-96.634 Z-4.696
N19260 X62.769 Y-96.655 Z-4.613
N19265 X62.71 Y-96.673 Z-4.522
N19270 X62.662 Y-96.688 Z-4.425
N19275 X62.627 Y-96.704 Z-4.327
N19280 X62.601 Y-96.715 Z-4.226
N19285 X62.586 Y-96.721 Z-4.123
N19290 X62.581 Y-96.724 Z-4.018
N19295 G0 Z6.
N19300 G1 X-1.806 Y-172.105 F5000.
N19305 G0 Z0.
N19310 G1 Z-2.5 F2328.
N19315 X-1.813 Y-172.101 Z-2.696
N19320 X-1.833 Y-172.089 Z-2.891
N19325 X-1.865 Y-172.069 Z-3.084
N19330 X-1.91 Y-172.041 Z-3.273
N19335 X-1.968 Y-172.005 Z-3.457
N19340 X-2.038 Y-171.962 Z-3.635
N19345 X-2.12 Y-171.911 Z-3.806
N19350 X-2.212 Y-171.854 Z-3.969
N19355 X-2.316 Y-171.79 Z-4.124
N19360 X-2.429 Y-171.719 Z-4.268
N19365 X-2.551 Y-171.643 Z-4.401
N19370 X-2.682 Y-171.562 Z-4.523
N19375 X-2.821 Y-171.476 Z-4.632
N19380 X-2.967 Y-171.386 Z-4.728
N19385 X-3.118 Y-171.292 Z-4.81
N19390 X-3.275 Y-171.195 Z-4.878
N19395 X-3.435 Y-171.095 Z-4.931
N19400 X-3.599 Y-170.994 Z-4.969
N19405 X-3.764 Y-170.891 Z-4.992
N19410 X-3.931 Y-170.788 Z-5.
N19415 G3 X-4.868 Y-170.494 I-1.042 J-1.681
N19420 G1 X-5.617 Y-170.48
N19425 X-6.366 Y-170.411
N19430 X-7.114 Y-170.307
N19435 X-7.863 Y-170.165
N19440 X-8.926 Y-169.863
N19445 X-9.361 Y-169.699
N19450 X-10.11 Y-169.401
N19455 X-10.859 Y-169.026
N19460 X-11.608 Y-168.597
N19465 X-11.987 Y-168.363
N19470 X-12.357 Y-168.09
N19475 X-13.106 Y-167.496
N19480 X-13.869 Y-166.891
N19485 X-14.964 Y-166.158
N19490 X-16.372 Y-165.371
N19495 X-17.937 Y-164.655
N19500 X-19.548 Y-164.048
N19505 X-21.191 Y-163.533
N19510 X-22.856 Y-163.095
N19515 X-24.537 Y-162.722
N19520 X-26.229 Y-162.404
N19525 X-27.929 Y-162.132
N19530 X-29.634 Y-161.899
N19535 X-31.344 Y-161.7
N19540 X-33.058 Y-161.53
N19545 X-34.773 Y-161.384
N19550 X-36.49 Y-161.258
N19555 X-38.208 Y-161.151
N19560 X-39.928 Y-161.059
N19565 X-41.647 Y-160.98
N19570 X-45.088 Y-160.854
N19575 X-48.53 Y-160.761
N19580 X-53.694 Y-160.666
N19585 X-58.859 Y-160.605
N19590 X-62.302 Y-160.578
N19595 X-70.76 Y-160.537
N19600 X-71.175 Y-160.568
N19605 X-71.581 Y-160.664
N19610 X-71.967 Y-160.822
N19615 X-72.323 Y-161.039
N19620 X-72.641 Y-161.308
N19625 X-72.913 Y-161.625
N19630 X-73.132 Y-161.979
N19635 X-73.293 Y-162.364
N19640 G3 X-71.221 Y-165.73 I2.34 J-0.881
N19645 G1 X-15.111 Y-171.78
N19650 G3 X-13.106 Y-167.496 I0.268 J2.486
N19655 G1 X-13.855 Y-166.819
N19660 X-14.496 Y-166.113
N19665 X-15.352 Y-165.003
N19670 X-15.597 Y-164.614
N19675 X-16.027 Y-163.864
N19680 X-16.395 Y-163.114
N19685 X-16.666 Y-162.56
N19690 X-17.058 Y-161.901
N19695 X-17.558 Y-161.195
N19700 X-18.202 Y-160.425
N19705 X-19.017 Y-159.596
N19710 X-20.035 Y-158.716
N19715 X-21.299 Y-157.788
N19720 X-22.764 Y-156.885
N19725 X-24.293 Y-156.093
N19730 X-25.868 Y-155.399
N19735 X-27.479 Y-154.792
N19740 X-29.116 Y-154.259
N19745 X-30.773 Y-153.792
N19750 X-32.446 Y-153.383
N19755 X-34.13 Y-153.025
N19760 X-35.822 Y-152.71
N19765 X-37.522 Y-152.435
N19770 X-39.226 Y-152.193
N19775 X-40.935 Y-151.982
N19780 X-42.646 Y-151.797
N19785 X-44.36 Y-151.634
N19790 X-46.076 Y-151.492
N19795 X-47.793 Y-151.367
N19800 X-49.511 Y-151.258
N19805 X-51.23 Y-151.163
N19810 X-52.95 Y-151.079
N19815 X-56.39 Y-150.942
N19820 X-59.832 Y-150.837
N19825 X-61.553 Y-150.803
N19830 X-63.275 Y-150.81
N19835 X-64.995 Y-150.883
N19840 X-66.709 Y-151.049
N19845 X-68.361 Y-151.325
N19850 X-69.785 Y-151.682
N19855 X-70.356 Y-151.876
N19860 X-70.807 Y-152.068
N19865 X-71.222 Y-152.329
N19870 X-71.593 Y-152.65
N19875 X-71.909 Y-153.025
N19880 X-72.163 Y-153.445
N19885 X-72.349 Y-153.898
N19890 X-72.462 Y-154.375
N19895 X-72.5 Y-154.864
N19900 X-72.503 Y-157.527
N19905 G3 X-70.32 Y-159.94 I2.499 J0.067
N19910 G1 X-19.056 Y-166.458
N19915 G3 X-16.395 Y-163.114 I0.315 J2.48
N19920 G1 X-16.701 Y-162.364
N19925 X-16.85 Y-161.961
N19930 X-16.954 Y-161.614
N19935 X-17.161 Y-160.864
N19940 X-17.306 Y-160.114
N19945 X-17.413 Y-159.364
N19950 X-17.483 Y-158.614
N19955 X-17.521 Y-158.2
N19960 X-17.623 Y-157.615
N19965 X-17.793 Y-156.96
N19970 X-18.042 Y-156.242
N19975 X-18.383 Y-155.467
N19980 X-18.844 Y-154.612
N19985 X-19.423 Y-153.719
N19990 X-20.159 Y-152.761
N19995 X-21.079 Y-151.745
N20000 X-22.212 Y-150.679
N20005 X-23.556 Y-149.604
N20010 X-24.98 Y-148.637
N20015 X-26.467 Y-147.767
N20020 X-28.001 Y-146.987
N20025 X-29.574 Y-146.288
N20030 X-31.178 Y-145.661
N20035 X-32.806 Y-145.101
N20040 X-34.453 Y-144.599
N20045 X-36.115 Y-144.15
N20050 X-37.789 Y-143.749
N20055 X-39.473 Y-143.39
N20060 X-41.164 Y-143.07
N20065 X-42.862 Y-142.784
N20070 X-44.565 Y-142.53
N20075 X-46.271 Y-142.303
N20080 X-47.981 Y-142.1
N20085 X-49.693 Y-141.92
N20090 X-51.407 Y-141.762
N20095 X-53.124 Y-141.627
N20100 X-54.842 Y-141.521
