%
O0001
(T1 D=50. CR=0. - ZMIN=0. - FACE MILL)
(T2 D=25. CR=0. - ZMIN=-24.5 - FLAT END MILL)
(T3 D=5. CR=0.8 - ZMIN=-10. - BULLNOSE END MILL)
(T4 D=5. CR=0. - ZMIN=-24.5 - FLAT END MILL)
(T5 D=12. CR=0. - ZMIN=-30.5 - FLAT END MILL)
(T6 D=10. CR=0. - ZMIN=-14. - FLAT END MILL)
(T8 D=6.6 CR=0. TAPER=118DEG - ZMIN=-46.983 - DRILL)
N10 G90 G94 G17 G49 G40 G80
N15 G21
N20 G28 G91 Z0.
N25 G90

(FACEJAR TOPO)
N30 T1 M06
N35 T2
N40 S955 M03
N45 G54
N50 M08
N55 G00 X132.5 Y-137.339
N60 G43 Z16. H01
N65 G00 Z6.
N70 G01 Z5. F460.
N75 G18 G03 X127.5 Z0. I-5.
N80 G01 X100.
N85 X-100.
N90 G17 G02 Y-92.154 J22.593
N95 G01 X100.
N100 G03 Y-46.968 J22.593
N105 G01 X-100.
N110 G02 Y-1.782 J22.593
N115 G01 X100.
N120 X100.01
N125 G03 Y43.404 J22.593
N130 G01 X-100.
N135 G02 Y88.589 J22.593
N140 G01 X100.01
N145 G03 Y133.775 J22.593
N150 G01 X100.
N155 X-100.
N160 G18 G03 X-105. Z5. K5.
N165 G00 Z16.
N170 G17
N175 M05
N180 G28 G91 Z0.
N185 G90
N190 G49

(1PATAMAR)
N195 M09
N200 M01
N205 T2 M06
N210 T3
N215 S3880 M03
N220 G54
N225 M08
N230 G00 X-114.224 Y121.752
N235 G43 Z16. H02
N240 G00 Z6.
N245 Z0.2
N250 G01 Z-2.4 F2328.
N255 X-114.22 Y121.758 Z-2.594
N260 X-114.208 Y121.777 Z-2.788
N265 X-114.188 Y121.807 Z-2.979
N270 X-114.161 Y121.849 Z-3.166
N275 X-114.126 Y121.903 Z-3.35
N280 X-114.084 Y121.968 Z-3.528
N285 X-114.034 Y122.045 Z-3.7
N290 X-113.978 Y122.132 Z-3.865
N295 X-113.915 Y122.228 Z-4.021
N300 X-113.847 Y122.335 Z-4.168
N305 X-113.772 Y122.45 Z-4.306
N310 X-113.692 Y122.574 Z-4.433
N315 X-113.607 Y122.706 Z-4.548
N320 X-113.518 Y122.844 Z-4.652
N325 X-113.424 Y122.988 Z-4.743
N330 X-113.327 Y123.138 Z-4.82
N335 X-113.228 Y123.292 Z-4.884
N340 X-113.126 Y123.45 Z-4.935
N345 X-113.022 Y123.61 Z-4.971
N350 X-112.917 Y123.772 Z-4.993
N355 X-112.812 Y123.935 Z-5.
N360 G03 X-112.5 Y124.866 I-1.661 J1.074
N365 G01 X-112.472 Y125.616
N370 X-112.412 Y126.366
N375 X-112.316 Y127.116
N380 X-112.154 Y127.866
N385 X-111.95 Y128.616
N390 X-111.709 Y129.366
N395 X-111.402 Y130.116
N400 X-111.21 Y130.505
N405 X-110.601 Y131.616
N410 X-110.462 Y131.836
N415 X-110.093 Y132.366
N420 X-109.493 Y133.116
N425 X-109.03 Y133.681
N430 X-108.307 Y134.724
N435 X-107.531 Y136.062
N440 X-106.79 Y137.616
N445 X-106.162 Y139.22
N450 X-105.63 Y140.857
N455 X-105.178 Y142.518
N460 X-104.793 Y144.196
N465 X-104.464 Y145.886
N470 X-104.183 Y147.584
N475 X-103.537 Y149.18
N480 X-102.585 Y150.615
N485 X-101.428 Y151.889
N490 X-100.124 Y153.014
N495 X-98.715 Y154.003
N500 X-97.227 Y154.868
N505 X-95.68 Y155.624
N510 X-94.089 Y156.283
N515 X-92.466 Y156.856
N520 X-90.818 Y157.353
N525 X-89.151 Y157.784
N530 X-87.47 Y158.158
N535 X-85.779 Y158.481
N540 X-84.08 Y158.76
N545 X-82.376 Y159.001
N550 X-80.667 Y159.209
N555 X-78.954 Y159.389
N560 X-77.24 Y159.543
N565 X-75.523 Y159.677
N570 X-73.806 Y159.792
N575 X-72.087 Y159.891
N580 X-70.367 Y159.976
N585 X-68.647 Y160.049
N590 X-65.206 Y160.167
N595 X-61.764 Y160.254
N600 X-56.6 Y160.343
N605 X-51.435 Y160.401
N610 X-42.828 Y160.453
N615 X-29.055 Y160.486
N620 X-22.168 Y160.492
N625 X29.48 Y160.5
N630 X81.129
N635 X88.015
N640 X88.444 Y160.463
N645 X88.869 Y160.394
N650 X90.543 Y159.994
N655 X92.045 Y159.152
N660 X93.384 Y158.07
N665 X94.569 Y156.821
N670 X95.612 Y155.451
N675 X96.526 Y153.993
N680 X97.326 Y152.468
N685 X98.023 Y150.894
N690 X98.63 Y149.283
N695 X99.157 Y147.644
N700 X99.614 Y145.984
N705 X100.01 Y144.308
N710 X100.353 Y142.621
N715 X100.65 Y140.925
N720 X100.906 Y139.223
N725 X101.127 Y137.516
N730 X101.318 Y135.805
N735 X101.483 Y134.091
N740 X101.624 Y132.375
N745 X101.747 Y130.658
N750 X101.852 Y128.939
N755 X101.942 Y127.22
N760 X102.02 Y125.5
N765 X102.145 Y122.059
N770 X102.238 Y118.617
N775 X102.333 Y113.454
N780 X102.394 Y108.289
N785 X102.442 Y101.403
N790 X102.48 Y89.352
N795 X102.496 Y70.414
N800 X102.5 Y18.765
N805 Y-32.883
N810 Y-84.531
N815 Y-136.18
N820 Y-146.509
N825 X102.152 Y-148.196
N830 X101.376 Y-149.732
N835 X100.339 Y-151.106
N840 X99.122 Y-152.324
N845 X97.775 Y-153.396
N850 X96.334 Y-154.338
N855 X94.822 Y-155.161
N860 X93.257 Y-155.88
N865 X91.653 Y-156.505
N870 X90.019 Y-157.049
N875 X88.364 Y-157.52
N880 X86.691 Y-157.929
N885 X85.007 Y-158.283
N890 X83.312 Y-158.589
N895 X81.611 Y-158.854
N900 X79.905 Y-159.082
N905 X78.194 Y-159.279
N910 X76.481 Y-159.449
N915 X74.766 Y-159.595
N920 X73.049 Y-159.722
N925 X71.331 Y-159.83
N930 X69.612 Y-159.924
N935 X67.892 Y-160.005
N940 X66.172 Y-160.074
N945 X62.73 Y-160.185
N950 X59.288 Y-160.267
N955 X54.124 Y-160.352
N960 X48.959 Y-160.406
N965 X40.351 Y-160.456
N970 X26.579 Y-160.487
N975 X14.527 Y-160.495
N980 X-37.121 Y-160.5
N985 X-88.77
N990 X-90.436 Y-160.069
N995 X-91.949 Y-159.246
N1000 X-93.298 Y-158.177
N1005 X-94.493 Y-156.938
N1010 X-95.546 Y-155.575
N1015 X-96.468 Y-154.122
N1020 X-97.275 Y-152.601
N1025 X-97.979 Y-151.03
N1030 X-98.592 Y-149.421
N1035 X-99.124 Y-147.784
N1040 X-99.585 Y-146.125
N1045 X-99.986 Y-144.451
N1050 X-100.332 Y-142.764
N1055 X-100.631 Y-141.069
N1060 X-100.89 Y-139.367
N1065 X-100.974 Y-138.969
N1070 X-101.119 Y-138.589
N1075 X-101.321 Y-138.235
N1080 X-101.574 Y-137.917
N1085 X-101.874 Y-137.642
N1090 X-102.212 Y-137.416
N1095 X-102.582 Y-137.245
N1100 X-102.973 Y-137.132
N1105 G03 X-103.947 Y-137.092 I-0.589 J-2.43
N1110 G01 X-104.139 Y-137.122 Z-4.993
N1115 X-104.33 Y-137.152 Z-4.971
N1120 X-104.519 Y-137.182 Z-4.935
N1125 X-104.704 Y-137.211 Z-4.884
N1130 X-104.886 Y-137.239 Z-4.82
N1135 X-105.062 Y-137.266 Z-4.743
N1140 X-105.232 Y-137.293 Z-4.652
N1145 X-105.394 Y-137.318 Z-4.548
N1150 X-105.549 Y-137.343 Z-4.433
N1155 X-105.694 Y-137.365 Z-4.306
N1160 X-105.83 Y-137.386 Z-4.168
N1165 X-105.956 Y-137.406 Z-4.021
N1170 X-106.07 Y-137.424 Z-3.865
N1175 X-106.172 Y-137.44 Z-3.7
N1180 X-106.262 Y-137.454 Z-3.528
N1185 X-106.338 Y-137.466 Z-3.35
N1190 X-106.402 Y-137.476 Z-3.166
N1195 X-106.452 Y-137.484 Z-2.979
N1200 X-106.487 Y-137.489 Z-2.788
N1205 X-106.509 Y-137.493 Z-2.594
N1210 X-106.516 Y-137.494 Z-2.4
N1215 G00 Z6.
N1220 X-112.816 Y131.84
N1225 Z0.2
N1230 G01 Z-2.4 F2328.
N1235 X-112.809 Y131.842 Z-2.594
N1240 X-112.788 Y131.849 Z-2.788
N1245 X-112.754 Y131.859 Z-2.979
N1250 X-112.705 Y131.874 Z-3.166
N1255 X-112.644 Y131.893 Z-3.35
N1260 X-112.57 Y131.916 Z-3.528
N1265 X-112.483 Y131.942 Z-3.7
N1270 X-112.384 Y131.973 Z-3.865
N1275 X-112.274 Y132.007 Z-4.021
N1280 X-112.152 Y132.044 Z-4.168
N1285 X-112.021 Y132.084 Z-4.306
N1290 X-111.88 Y132.128 Z-4.433
N1295 X-111.731 Y132.173 Z-4.548
N1300 X-111.573 Y132.222 Z-4.652
N1305 X-111.409 Y132.272 Z-4.743
N1310 X-111.239 Y132.325 Z-4.82
N1315 X-111.063 Y132.379 Z-4.884
N1320 X-110.884 Y132.434 Z-4.935
N1325 X-110.701 Y132.49 Z-4.971
N1330 X-110.516 Y132.547 Z-4.993
N1335 X-110.331 Y132.604 Z-5.
N1340 G03 X-109.493 Y133.116 I-0.581 J1.891
N1345 G01 X-108.964 Y133.7
N1350 X-108.215 Y134.42
N1355 X-107.984 Y134.616
N1360 X-107.466 Y135.012
N1365 X-106.971 Y135.366
N1370 X-106.717 Y135.529
N1375 X-105.968 Y135.974
N1380 X-105.219 Y136.344
N1385 X-104.993 Y136.439
N1390 X-104.631 Y136.613
N1395 X-103.981 Y136.991
N1400 X-102.567 Y137.974
N1405 X-101.23 Y139.059
N1410 X-99.858 Y140.099
N1415 X-98.444 Y141.081
N1420 X-96.988 Y141.999
N1425 X-95.491 Y142.85
N1430 X-93.958 Y143.633
N1435 X-92.393 Y144.35
N1440 X-90.8 Y145.003
N1445 X-89.183 Y145.596
N1450 X-87.548 Y146.132
N1455 X-85.895 Y146.616
N1460 X-84.229 Y147.051
N1465 X-82.553 Y147.441
N1470 X-80.867 Y147.79
N1475 X-79.174 Y148.102
N1480 X-77.475 Y148.38
N1485 X-75.771 Y148.627
N1490 X-74.063 Y148.848
N1495 X-72.353 Y149.043
N1500 X-70.64 Y149.216
N1505 X-68.925 Y149.37
N1510 X-67.209 Y149.505
N1515 X-65.492 Y149.625
N1520 X-63.773 Y149.731
N1525 X-62.054 Y149.825
N1530 X-58.614 Y149.98
N1535 X-56.894 Y150.044
N1540 X-53.452 Y150.15
N1545 X-50.01 Y150.231
N1550 X-44.846 Y150.32
N1555 X-37.96 Y150.395
N1560 X-29.352 Y150.447
N1565 X-15.579 Y150.482
N1570 X-5.25 Y150.492
N1575 X46.399 Y150.5
N1580 X73.945
N1585 X75.662 Y150.382
N1590 X77.33 Y149.954
N1595 X78.906 Y149.261
N1600 X80.369 Y148.353
N1605 X81.71 Y147.274
N1610 X82.928 Y146.057
N1615 X84.027 Y144.732
N1620 X85.015 Y143.322
N1625 X85.898 Y141.844
N1630 X86.685 Y140.313
N1635 X87.385 Y138.74
N1640 X88.005 Y137.134
N1645 X88.554 Y135.503
N1650 X89.039 Y133.851
N1655 X89.467 Y132.183
N1660 X89.844 Y130.503
N1665 X90.175 Y128.814
N1670 X90.466 Y127.117
N1675 X90.722 Y125.414
N1680 X90.946 Y123.707
N1685 X91.143 Y121.997
N1690 X91.315 Y120.284
N1695 X91.466 Y118.569
N1700 X91.598 Y116.853
N1705 X91.713 Y115.135
N1710 X91.814 Y113.416
N1715 X91.902 Y111.697
N1720 X92.046 Y108.257
N1725 X92.156 Y104.815
N1730 X92.239 Y101.373
N1735 X92.328 Y96.209
N1740 X92.387 Y91.044
N1745 X92.444 Y82.436
N1750 X92.479 Y70.385
N1755 X92.498 Y42.839
N1760 X92.499 Y30.788
N1765 X92.5 Y-20.86
N1770 Y-72.509
N1775 Y-124.157
N1780 Y-132.765
N1785 X92.23 Y-134.465
N1790 X91.67 Y-136.093
N1795 X90.869 Y-137.617
N1800 X89.874 Y-139.022
N1805 X88.725 Y-140.305
N1810 X87.454 Y-141.466
N1815 X86.086 Y-142.511
N1820 X84.642 Y-143.448
N1825 X83.137 Y-144.284
N1830 X81.585 Y-145.029
N1835 X79.995 Y-145.689
N1840 X78.376 Y-146.275
N1845 X76.734 Y-146.792
N1850 X75.074 Y-147.249
N1855 X73.4 Y-147.652
N1860 X71.715 Y-148.007
N1865 X70.022 Y-148.318
N1870 X68.323 Y-148.592
N1875 X66.618 Y-148.833
N1880 X64.909 Y-149.043
N1885 X63.197 Y-149.228
N1890 X61.483 Y-149.39
N1895 X59.768 Y-149.531
N1900 X58.051 Y-149.655
N1905 X56.332 Y-149.763
N1910 X54.613 Y-149.857
N1915 X52.894 Y-149.94
N1920 X49.453 Y-150.075
N1925 X46.011 Y-150.178
N1930 X42.569 Y-150.256
N1935 X37.405 Y-150.339
N1940 X30.519 Y-150.408
N1945 X21.911 Y-150.454
N1950 X8.138 Y-150.485
N1955 X4.695 Y-150.489
N1960 X-46.954 Y-150.5
N1965 X-74.499
N1970 X-76.207 Y-150.281
N1975 X-77.849 Y-149.764
N1980 X-79.391 Y-148.997
N1985 X-80.815 Y-148.03
N1990 X-82.116 Y-146.903
N1995 X-83.304 Y-145.657
N2000 X-84.409 Y-144.336
N2005 X-85.458 Y-142.971
N2010 X-87.498 Y-140.197
N2015 X-88.613 Y-138.73
N2020 X-88.948 Y-138.372
N2025 X-89.333 Y-138.067
N2030 X-89.758 Y-137.823
N2035 X-90.215 Y-137.645
N2040 X-90.694 Y-137.536
N2045 X-91.183 Y-137.5
N2050 X-99.228
N2055 X-99.977 Y-137.492
N2060 G03 X-100.929 Y-137.705 I0.06 J-2.499
N2065 G01 X-101.107 Y-137.784 Z-4.993
N2070 X-101.283 Y-137.862 Z-4.971
N2075 X-101.458 Y-137.939 Z-4.935
N2080 X-101.63 Y-138.015 Z-4.884
N2085 X-101.797 Y-138.09 Z-4.82
N2090 X-101.96 Y-138.162 Z-4.743
N2095 X-102.118 Y-138.232 Z-4.652
N2100 X-102.268 Y-138.298 Z-4.548
N2105 X-102.411 Y-138.362 Z-4.433
N2110 X-102.546 Y-138.421 Z-4.306
N2115 X-102.672 Y-138.477 Z-4.168
N2120 X-102.788 Y-138.528 Z-4.021
N2125 X-102.893 Y-138.575 Z-3.865
N2130 X-102.988 Y-138.617 Z-3.7
N2135 X-103.071 Y-138.654 Z-3.528
N2140 X-103.142 Y-138.685 Z-3.35
N2145 X-103.201 Y-138.711 Z-3.166
N2150 X-103.247 Y-138.731 Z-2.979
N2155 X-103.28 Y-138.746 Z-2.788
N2160 X-103.3 Y-138.755 Z-2.594
N2165 X-103.306 Y-138.758 Z-2.4
N2170 G00 Z6.
N2175 X-108.543 Y136.691
N2180 Z0.2
N2185 G01 Z-2.4 F2328.
N2190 X-108.536 Y136.69 Z-2.594
N2195 X-108.514 Y136.687 Z-2.788
N2200 X-108.479 Y136.682 Z-2.979
N2205 X-108.429 Y136.675 Z-3.166
N2210 X-108.365 Y136.666 Z-3.35
N2215 X-108.288 Y136.655 Z-3.528
N2220 X-108.198 Y136.643 Z-3.7
N2225 X-108.096 Y136.628 Z-3.865
N2230 X-107.981 Y136.612 Z-4.021
N2235 X-107.856 Y136.595 Z-4.168
N2240 X-107.72 Y136.576 Z-4.306
N2245 X-107.574 Y136.555 Z-4.433
N2250 X-107.419 Y136.533 Z-4.548
N2255 X-107.256 Y136.511 Z-4.652
N2260 X-107.086 Y136.487 Z-4.743
N2265 X-106.909 Y136.462 Z-4.82
N2270 X-106.727 Y136.436 Z-4.884
N2275 X-106.541 Y136.41 Z-4.935
N2280 X-106.352 Y136.384 Z-4.971
N2285 X-106.161 Y136.357 Z-4.993
N2290 X-105.968 Y136.33 Z-5.
N2295 G03 X-104.993 Y136.439 I0.275 J1.959
N2300 G01 X-104.47 Y136.658
N2305 X-103.928 Y136.866
N2310 X-102.973 Y137.132
N2315 X-102.224 Y137.286
N2320 X-101.475 Y137.402
N2325 X-100.726 Y137.474
N2330 X-99.977 Y137.492
N2335 X-98.479 Y137.5
N2340 X-92.488
N2345 X-90.769 Y137.586
N2350 X-89.048 Y137.648
N2355 X-87.329 Y137.745
N2360 X-85.612 Y137.867
N2365 X-82.181 Y138.152
N2370 X-75.32 Y138.753
N2375 X-71.888 Y139.027
N2380 X-68.454 Y139.272
N2385 X-65.017 Y139.485
N2390 X-61.579 Y139.668
N2395 X-58.139 Y139.822
N2400 X-54.698 Y139.951
N2405 X-51.257 Y140.058
N2410 X-46.093 Y140.183
N2415 X-40.929 Y140.275
N2420 X-34.043 Y140.358
N2425 X-25.435 Y140.422
N2430 X-13.384 Y140.467
N2435 X7.275 Y140.493
N2440 X10.718 Y140.494
N2445 X62.367 Y140.5
N2450 X64.08 Y140.332
N2455 X65.752 Y139.92
N2460 X67.35 Y139.279
N2465 X68.852 Y138.438
N2470 X70.247 Y137.43
N2475 X71.531 Y136.283
N2480 X72.704 Y135.022
N2485 X73.769 Y133.669
N2490 X74.732 Y132.242
N2495 X75.599 Y130.755
N2500 X76.377 Y129.219
N2505 X77.074 Y127.645
N2510 X77.697 Y126.04
N2515 X78.252 Y124.41
N2520 X78.746 Y122.761
N2525 X79.185 Y121.096
N2530 X79.575 Y119.42
N2535 X79.92 Y117.733
N2540 X80.227 Y116.039
N2545 X80.497 Y114.339
N2550 X80.737 Y112.634
N2555 X80.948 Y110.925
N2560 X81.135 Y109.214
N2565 X81.3 Y107.5
N2570 X81.445 Y105.785
N2575 X81.573 Y104.068
N2580 X81.686 Y102.35
N2585 X81.785 Y100.631
N2590 X81.872 Y98.912
N2595 X81.949 Y97.192
N2600 X82.076 Y93.751
N2605 X82.174 Y90.309
N2610 X82.28 Y85.145
N2615 X82.352 Y79.981
N2620 X82.413 Y73.095
N2625 X82.461 Y62.765
N2630 X82.49 Y45.549
N2635 X82.5 Y-6.099
N2640 Y-57.748
N2645 Y-109.396
N2650 Y-119.726
N2655 X82.422 Y-121.446
N2660 X82.102 Y-123.137
N2665 X81.543 Y-124.766
N2670 X80.773 Y-126.305
N2675 X79.824 Y-127.742
N2680 X78.726 Y-129.068
N2685 X77.505 Y-130.281
N2690 X76.184 Y-131.386
N2695 X74.783 Y-132.386
N2700 X73.317 Y-133.288
N2705 X71.798 Y-134.099
N2710 X70.237 Y-134.825
N2715 X68.642 Y-135.474
N2720 X67.021 Y-136.054
N2725 X65.379 Y-136.57
N2730 X63.719 Y-137.029
N2735 X62.047 Y-137.436
N2740 X60.364 Y-137.798
N2745 X58.672 Y-138.118
N2750 X56.974 Y-138.401
N2755 X55.271 Y-138.652
N2760 X53.563 Y-138.873
N2765 X51.853 Y-139.069
N2770 X50.14 Y-139.241
N2775 X48.425 Y-139.394
N2780 X46.709 Y-139.528
N2785 X44.991 Y-139.646
N2790 X43.273 Y-139.75
N2795 X41.553 Y-139.841
N2800 X38.113 Y-139.993
N2805 X34.672 Y-140.11
N2810 X31.23 Y-140.2
N2815 X26.066 Y-140.298
N2820 X20.902 Y-140.364
N2825 X14.016 Y-140.42
N2830 X3.686 Y-140.464
N2835 X-1.479 Y-140.476
N2840 X-27.303 Y-140.497
N2845 X-53.127 Y-140.5
N2850 X-61.735
N2855 X-63.455 Y-140.422
N2860 X-65.153 Y-140.135
N2865 X-66.809 Y-139.666
N2870 X-68.415 Y-139.045
N2875 X-69.969 Y-138.304
N2880 X-70.68 Y-137.911
N2885 X-71.056 Y-137.734
N2890 X-71.451 Y-137.604
N2895 X-71.86 Y-137.526
N2900 X-72.275 Y-137.5
N2905 X-91.183
N2910 G03 X-92.132 Y-137.724 I0.087 J-2.498
N2915 G01 X-92.309 Y-137.804 Z-4.993
N2920 X-92.485 Y-137.884 Z-4.971
N2925 X-92.659 Y-137.963 Z-4.935
N2930 X-92.83 Y-138.041 Z-4.884
N2935 X-92.997 Y-138.117 Z-4.82
N2940 X-93.159 Y-138.191 Z-4.743
N2945 X-93.315 Y-138.263 Z-4.652
N2950 X-93.465 Y-138.331 Z-4.548
N2955 X-93.607 Y-138.396 Z-4.433
N2960 X-93.741 Y-138.457 Z-4.306
N2965 X-93.867 Y-138.514 Z-4.168
N2970 X-93.982 Y-138.567 Z-4.021
N2975 X-94.087 Y-138.614 Z-3.865
N2980 X-94.181 Y-138.657 Z-3.7
N2985 X-94.264 Y-138.695 Z-3.528
N2990 X-94.335 Y-138.727 Z-3.35
N2995 X-94.393 Y-138.754 Z-3.166
N3000 X-94.439 Y-138.775 Z-2.979
N3005 X-94.472 Y-138.79 Z-2.788
N3010 X-94.492 Y-138.799 Z-2.594
N3015 X-94.498 Y-138.802 Z-2.4
N3020 G00 Z6.
N3025 X-95.665 Y139.105
N3030 Z0.2
N3035 G01 Z-2.4 F2328.
N3040 X-95.659 Y139.102 Z-2.594
N3045 X-95.64 Y139.091 Z-2.788
N3050 X-95.609 Y139.072 Z-2.979
N3055 X-95.566 Y139.046 Z-3.166
N3060 X-95.51 Y139.014 Z-3.35
N3065 X-95.444 Y138.974 Z-3.528
N3070 X-95.366 Y138.927 Z-3.7
N3075 X-95.277 Y138.875 Z-3.865
N3080 X-95.177 Y138.816 Z-4.021
N3085 X-95.068 Y138.751 Z-4.168
N3090 X-94.95 Y138.68 Z-4.306
N3095 X-94.823 Y138.605 Z-4.433
N3100 X-94.689 Y138.525 Z-4.548
N3105 X-94.548 Y138.441 Z-4.652
N3110 X-94.4 Y138.353 Z-4.743
N3115 X-94.247 Y138.262 Z-4.82
N3120 X-94.089 Y138.168 Z-4.884
N3125 X-93.927 Y138.072 Z-4.935
N3130 X-93.763 Y137.975 Z-4.971
N3135 X-93.597 Y137.876 Z-4.993
N3140 X-93.43 Y137.777 Z-5.
N3145 G03 X-92.488 Y137.5 I1.011 J1.7
N3150 G01 X-70.021 Y137.496
N3155 X-69.272 Y137.466
N3160 X-68.524 Y137.408
N3165 X-67.775 Y137.288
N3170 X-67.026 Y137.126
N3175 X-66.277 Y136.931
N3180 X-66.071 Y136.866
N3185 X-65.528 Y136.666
N3190 X-64.779 Y136.339
N3195 X-64.296 Y136.116
N3200 X-64.03 Y135.977
N3205 X-63.281 Y135.537
N3210 X-62.543 Y135.103
N3215 X-60.994 Y134.352
N3220 X-59.39 Y133.727
N3225 X-57.75 Y133.204
N3230 X-56.085 Y132.766
N3235 X-54.403 Y132.398
N3240 X-52.709 Y132.09
N3245 X-51.007 Y131.83
N3250 X-49.299 Y131.612
N3255 X-47.588 Y131.429
N3260 X-45.873 Y131.274
N3265 X-44.156 Y131.145
N3270 X-42.438 Y131.036
N3275 X-40.719 Y130.945
N3280 X-38.999 Y130.868
N3285 X-37.278 Y130.804
N3290 X-33.837 Y130.706
N3295 X-30.394 Y130.637
N3300 X-25.23 Y130.572
N3305 X-18.343 Y130.527
N3310 X-13.179 Y130.511
N3315 X5.759 Y130.497
N3320 X38.47 Y130.499
N3325 X50.521 Y130.5
N3330 X52.241 Y130.423
N3335 X53.939 Y130.139
N3340 X55.586 Y129.636
N3345 X57.156 Y128.93
N3350 X58.632 Y128.045
N3355 X60.006 Y127.007
N3360 X61.274 Y125.842
N3365 X62.435 Y124.571
N3370 X63.494 Y123.214
N3375 X64.454 Y121.785
N3380 X65.323 Y120.298
N3385 X66.106 Y118.765
N3390 X66.809 Y117.194
N3395 X67.441 Y115.592
N3400 X68.007 Y113.966
N3405 X68.512 Y112.32
N3410 X68.963 Y110.659
N3415 X69.365 Y108.985
N3420 X69.723 Y107.301
N3425 X70.042 Y105.609
N3430 X70.325 Y103.911
N3435 X70.576 Y102.208
N3440 X70.799 Y100.501
N3445 X70.997 Y98.79
N3450 X71.172 Y97.078
N3455 X71.327 Y95.363
N3460 X71.465 Y93.647
N3465 X71.586 Y91.93
N3470 X71.694 Y90.211
N3475 X71.789 Y88.493
N3480 X71.947 Y85.053
N3485 X72.071 Y81.612
N3490 X72.167 Y78.17
N3495 X72.273 Y73.006
N3500 X72.345 Y67.842
N3505 X72.407 Y60.956
N3510 X72.457 Y50.626
N3515 X72.463 Y48.905
N3520 X72.491 Y29.967
N3525 X72.499 Y-2.744
N3530 X72.5 Y-54.392
N3535 Y-106.041
N3540 X72.493 Y-109.484
N3545 X72.304 Y-111.195
N3550 X71.896 Y-112.868
N3555 X71.277 Y-114.474
N3560 X70.467 Y-115.993
N3565 X69.494 Y-117.413
N3570 X68.382 Y-118.727
N3575 X67.155 Y-119.936
N3580 X65.834 Y-121.039
N3585 X64.434 Y-122.042
N3590 X62.972 Y-122.95
N3595 X61.458 Y-123.77
N3600 X59.902 Y-124.508
N3605 X58.313 Y-125.171
N3610 X56.697 Y-125.764
N3615 X55.06 Y-126.296
N3620 X53.405 Y-126.77
N3625 X51.736 Y-127.193
N3630 X50.056 Y-127.57
N3635 X48.368 Y-127.906
N3640 X46.672 Y-128.204
N3645 X44.971 Y-128.469
N3650 X43.266 Y-128.704
N3655 X41.557 Y-128.913
N3660 X39.845 Y-129.097
N3665 X38.131 Y-129.261
N3670 X36.416 Y-129.406
N3675 X34.699 Y-129.535
N3680 X32.981 Y-129.648
N3685 X31.262 Y-129.749
N3690 X29.543 Y-129.837
N3695 X26.103 Y-129.985
N3700 X22.662 Y-130.1
N3705 X19.22 Y-130.19
N3710 X14.056 Y-130.288
N3715 X13.192 Y-130.301
N3720 X12.739 Y-130.339
N3725 X12.295 Y-130.439
N3730 X11.868 Y-130.6
N3735 X11.469 Y-130.817
N3740 X11.102 Y-131.087
N3745 X10.777 Y-131.406
N3750 X10.498 Y-131.765
N3755 X10.095 Y-132.366
N3760 X9.361 Y-133.265
N3765 X8.787 Y-133.866
N3770 X7.985 Y-134.616
N3775 X6.98 Y-135.366
N3780 X6.366 Y-135.755
N3785 X5.617 Y-136.15
N3790 X4.868 Y-136.511
N3795 X3.931 Y-136.866
N3800 X3.37 Y-137.022
N3805 X2.621 Y-137.216
N3810 X1.872 Y-137.348
N3815 X1.123 Y-137.435
N3820 X0.374 Y-137.489
N3825 X-1.872 Y-137.5
N3830 X-72.275
N3835 G03 X-73.225 Y-137.724 I0.087 J-2.498
N3840 G01 X-73.402 Y-137.804 Z-4.993
N3845 X-73.577 Y-137.884 Z-4.971
N3850 X-73.751 Y-137.963 Z-4.935
N3855 X-73.922 Y-138.041 Z-4.884
N3860 X-74.089 Y-138.117 Z-4.82
N3865 X-74.251 Y-138.191 Z-4.743
N3870 X-74.408 Y-138.263 Z-4.652
N3875 X-74.558 Y-138.331 Z-4.548
N3880 X-74.7 Y-138.396 Z-4.433
N3885 X-74.834 Y-138.457 Z-4.306
N3890 X-74.959 Y-138.514 Z-4.168
N3895 X-75.074 Y-138.567 Z-4.021
N3900 X-75.18 Y-138.614 Z-3.865
N3905 X-75.274 Y-138.657 Z-3.7
N3910 X-75.356 Y-138.695 Z-3.528
N3915 X-75.427 Y-138.727 Z-3.35
N3920 X-75.486 Y-138.754 Z-3.166
N3925 X-75.531 Y-138.775 Z-2.979
N3930 X-75.564 Y-138.79 Z-2.788
N3935 X-75.584 Y-138.799 Z-2.594
N3940 X-75.591 Y-138.802 Z-2.4
N3945 G00 Z6.
N3950 X-64.996 Y138.656
N3955 Z0.2
N3960 G01 Z-2.4 F2328.
N3965 X-64.993 Y138.649 Z-2.594
N3970 X-64.983 Y138.63 Z-2.788
N3975 X-64.968 Y138.597 Z-2.979
N3980 X-64.947 Y138.551 Z-3.166
N3985 X-64.92 Y138.493 Z-3.35
N3990 X-64.887 Y138.422 Z-3.528
N3995 X-64.849 Y138.34 Z-3.7
N4000 X-64.806 Y138.246 Z-3.865
N4005 X-64.757 Y138.141 Z-4.021
N4010 X-64.704 Y138.026 Z-4.168
N4015 X-64.646 Y137.902 Z-4.306
N4020 X-64.584 Y137.768 Z-4.433
N4025 X-64.518 Y137.626 Z-4.548
N4030 X-64.449 Y137.477 Z-4.652
N4035 X-64.377 Y137.321 Z-4.743
N4040 X-64.302 Y137.159 Z-4.82
N4045 X-64.225 Y136.992 Z-4.884
N4050 X-64.146 Y136.822 Z-4.935
N4055 X-64.065 Y136.649 Z-4.971
N4060 X-63.984 Y136.473 Z-4.993
N4065 X-63.902 Y136.297 Z-5.
N4070 G03 X-63.281 Y135.537 I1.795 J0.832
N4075 G01 X-63.032 Y135.366
N4080 X-62.017 Y134.616
N4085 X-61.784 Y134.412
N4090 X-61.035 Y133.706
N4095 X-60.497 Y133.116
N4100 X-60.286 Y132.858
N4105 X-59.903 Y132.366
N4110 X-59.407 Y131.616
N4115 X-59.169 Y131.203
N4120 X-58.91 Y130.802
N4125 X-58.396 Y130.132
N4130 X-57.736 Y129.4
N4135 X-56.906 Y128.615
N4140 X-55.866 Y127.781
N4145 X-54.564 Y126.898
N4150 X-53.066 Y126.049
N4155 X-51.51 Y125.313
N4160 X-49.911 Y124.674
N4165 X-48.281 Y124.12
N4170 X-46.628 Y123.638
N4175 X-44.958 Y123.221
N4180 X-43.275 Y122.858
N4185 X-41.582 Y122.543
N4190 X-39.883 Y122.269
N4195 X-38.177 Y122.032
N4200 X-36.468 Y121.825
N4205 X-34.756 Y121.646
N4210 X-33.041 Y121.491
N4215 X-31.325 Y121.356
N4220 X-29.607 Y121.24
N4225 X-27.889 Y121.138
N4230 X-26.169 Y121.051
N4235 X-24.449 Y120.975
N4240 X-21.008 Y120.852
N4245 X-17.566 Y120.761
N4250 X-12.402 Y120.665
N4255 X-10.681 Y120.642
N4260 X-3.795 Y120.576
N4265 X4.813 Y120.534
N4270 X20.308 Y120.507
N4275 X39.245 Y120.501
N4280 X40.967 Y120.47
N4285 X42.676 Y120.267
N4290 X44.349 Y119.859
N4295 X45.958 Y119.248
N4300 X47.486 Y118.453
N4305 X48.917 Y117.496
N4310 X50.247 Y116.403
N4315 X51.473 Y115.195
N4320 X52.597 Y113.89
N4325 X53.621 Y112.507
N4330 X54.552 Y111.058
N4335 X55.395 Y109.557
N4340 X56.156 Y108.013
N4345 X56.842 Y106.434
N4350 X57.457 Y104.826
N4355 X58.01 Y103.195
N4360 X58.505 Y101.547
N4365 X58.948 Y99.883
N4370 X59.343 Y98.207
N4375 X59.696 Y96.522
N4380 X60.011 Y94.83
N4385 X60.291 Y93.131
N4390 X60.541 Y91.428
N4395 X60.763 Y89.72
N4400 X60.961 Y88.01
N4405 X61.136 Y86.297
N4410 X61.292 Y84.583
N4415 X61.43 Y82.867
N4420 X61.553 Y81.15
N4425 X61.662 Y79.431
N4430 X61.758 Y77.713
N4435 X61.92 Y74.273
N4440 X62.047 Y70.832
N4445 X62.146 Y67.39
N4450 X62.256 Y62.227
N4455 X62.332 Y57.063
N4460 X62.398 Y50.176
N4465 X62.452 Y39.847
N4470 X62.483 Y26.074
N4475 X62.499 Y-10.08
N4480 X62.5 Y-25.574
N4485 Y-77.223
N4490 Y-97.882
N4495 X62.415 Y-99.602
N4500 X62.138 Y-101.301
N4505 X61.654 Y-102.953
N4510 X60.973 Y-104.534
N4515 X60.116 Y-106.027
N4520 X59.107 Y-107.422
N4525 X57.968 Y-108.714
N4530 X56.722 Y-109.902
N4535 X55.387 Y-110.988
N4540 X53.978 Y-111.978
N4545 X52.509 Y-112.875
N4550 X50.991 Y-113.687
N4555 X49.433 Y-114.419
N4560 X47.842 Y-115.078
N4565 X46.225 Y-115.67
N4570 X44.588 Y-116.201
N4575 X42.933 Y-116.676
N4580 X41.264 Y-117.1
N4585 X39.585 Y-117.48
N4590 X37.897 Y-117.818
N4595 X36.202 Y-118.119
N4600 X34.501 Y-118.388
N4605 X32.797 Y-118.627
N4610 X31.088 Y-118.84
N4615 X29.377 Y-119.029
N4620 X27.663 Y-119.197
N4625 X25.948 Y-119.346
N4630 X22.515 Y-119.603
N4635 X20.799 Y-119.745
N4640 X19.087 Y-119.93
N4645 X17.385 Y-120.183
N4650 X15.698 Y-120.529
N4655 X14.921 Y-120.743
N4660 X14.472 Y-120.903
N4665 X14.051 Y-121.126
N4670 X13.666 Y-121.407
N4675 X13.325 Y-121.741
N4680 X13.037 Y-122.12
N4685 X12.806 Y-122.537
N4690 X12.637 Y-122.983
N4695 X12.534 Y-123.449
N4700 X12.5 Y-123.924
N4705 Y-124.866
N4710 G03 X12.723 Y-125.816 I2.498 J0.087
N4715 G01 X12.804 Y-125.993 Z-4.993
N4720 X12.884 Y-126.168 Z-4.971
N4725 X12.963 Y-126.342 Z-4.935
N4730 X13.041 Y-126.513 Z-4.884
N4735 X13.117 Y-126.68 Z-4.82
N4740 X13.191 Y-126.842 Z-4.743
N4745 X13.262 Y-126.999 Z-4.652
N4750 X13.331 Y-127.149 Z-4.548
N4755 X13.396 Y-127.291 Z-4.433
N4760 X13.457 Y-127.425 Z-4.306
N4765 X13.514 Y-127.55 Z-4.168
N4770 X13.566 Y-127.666 Z-4.021
N4775 X13.614 Y-127.771 Z-3.865
N4780 X13.657 Y-127.865 Z-3.7
N4785 X13.695 Y-127.948 Z-3.528
N4790 X13.727 Y-128.018 Z-3.35
N4795 X13.753 Y-128.077 Z-3.166
N4800 X13.774 Y-128.123 Z-2.979
N4805 X13.789 Y-128.155 Z-2.788
N4810 X13.798 Y-128.175 Z-2.594
N4815 X13.801 Y-128.182 Z-2.4
N4820 G00 Z6.
N4825 X-59.365 Y134.757
N4830 Z0.2
N4835 G01 Z-2.4 F2328.
N4840 Y134.75 Z-2.594
N4845 Y134.728 Z-2.788
N4850 X-59.366 Y134.692 Z-2.979
N4855 Y134.642 Z-3.166
N4860 X-59.367 Y134.578 Z-3.35
N4865 X-59.368 Y134.5 Z-3.528
N4870 X-59.37 Y134.409 Z-3.7
N4875 X-59.371 Y134.306 Z-3.865
N4880 X-59.372 Y134.19 Z-4.021
N4885 X-59.374 Y134.063 Z-4.168
N4890 X-59.376 Y133.926 Z-4.306
N4895 X-59.378 Y133.779 Z-4.433
N4900 X-59.38 Y133.622 Z-4.548
N4905 X-59.382 Y133.458 Z-4.652
N4910 X-59.385 Y133.286 Z-4.743
N4915 X-59.387 Y133.107 Z-4.82
N4920 X-59.389 Y132.924 Z-4.884
N4925 X-59.392 Y132.736 Z-4.935
N4930 X-59.394 Y132.545 Z-4.971
N4935 X-59.397 Y132.352 Z-4.993
N4940 X-59.4 Y132.158 Z-5.
N4945 G03 X-59.169 Y131.203 I1.978 J-0.026
N4950 G01 X-58.788 Y130.525
N4955 X-58.608 Y130.116
N4960 X-58.295 Y129.366
N4965 X-58.039 Y128.581
N4970 X-57.841 Y127.866
N4975 X-57.682 Y127.116
N4980 X-57.653 Y126.889
N4985 X-57.589 Y126.526
N4990 X-57.437 Y125.942
N4995 X-57.207 Y125.281
N5000 X-56.895 Y124.574
N5005 X-56.468 Y123.784
N5010 X-55.928 Y122.954
N5015 X-55.241 Y122.062
N5020 X-54.377 Y121.11
N5025 X-53.31 Y120.109
N5030 X-52. Y119.065
N5035 X-50.573 Y118.103
N5040 X-49.08 Y117.245
N5045 X-47.537 Y116.48
N5050 X-45.956 Y115.8
N5055 X-44.345 Y115.194
N5060 X-42.709 Y114.655
N5065 X-41.056 Y114.177
N5070 X-39.387 Y113.752
N5075 X-37.708 Y113.374
N5080 X-36.019 Y113.039
N5085 X-34.323 Y112.742
N5090 X-32.622 Y112.479
N5095 X-30.916 Y112.245
N5100 X-29.207 Y112.039
N5105 X-27.495 Y111.856
N5110 X-25.781 Y111.694
N5115 X-24.065 Y111.551
N5120 X-22.348 Y111.425
N5125 X-20.63 Y111.313
N5130 X-18.912 Y111.215
N5135 X-17.192 Y111.128
N5140 X-13.752 Y110.984
N5145 X-12.031 Y110.924
N5150 X-8.59 Y110.826
N5155 X-3.426 Y110.718
N5160 X1.739 Y110.646
N5165 X8.625 Y110.584
N5170 X18.954 Y110.537
N5175 X29.284 Y110.514
N5180 X31.004 Y110.438
N5185 X32.707 Y110.185
N5190 X34.368 Y109.733
N5195 X35.964 Y109.087
N5200 X37.476 Y108.264
N5205 X38.893 Y107.287
N5210 X40.21 Y106.178
N5215 X41.425 Y104.958
N5220 X42.54 Y103.646
N5225 X43.557 Y102.257
N5230 X44.482 Y100.805
N5235 X45.321 Y99.302
N5240 X46.079 Y97.756
N5245 X46.763 Y96.176
N5250 X47.379 Y94.568
N5255 X47.932 Y92.938
N5260 X48.428 Y91.289
N5265 X48.873 Y89.626
N5270 X49.271 Y87.951
N5275 X49.626 Y86.267
N5280 X49.944 Y84.575
N5285 X50.228 Y82.877
N5290 X50.481 Y81.174
N5295 X50.706 Y79.467
N5300 X50.907 Y77.757
N5305 X51.086 Y76.045
N5310 X51.245 Y74.33
N5315 X51.386 Y72.615
N5320 X51.512 Y70.898
N5325 X51.624 Y69.18
N5330 X51.723 Y67.461
N5335 X51.889 Y64.022
N5340 X52.021 Y60.581
N5345 X52.075 Y58.86
N5350 X52.167 Y55.418
N5355 X52.269 Y50.254
N5360 X52.34 Y45.09
N5365 X52.402 Y38.204
N5370 X52.453 Y27.874
N5375 X52.487 Y10.658
N5380 X52.49 Y7.215
N5385 X52.5 Y-44.433
N5390 X52.497 Y-87.474
N5395 X52.407 Y-89.193
N5400 X52.133 Y-90.893
N5405 X51.66 Y-92.548
N5410 X50.994 Y-94.135
N5415 X50.153 Y-95.638
N5420 X49.161 Y-97.045
N5425 X48.039 Y-98.351
N5430 X46.808 Y-99.554
N5435 X45.487 Y-100.658
N5440 X44.091 Y-101.666
N5445 X42.633 Y-102.581
N5450 X41.124 Y-103.411
N5455 X39.575 Y-104.16
N5460 X37.991 Y-104.836
N5465 X36.381 Y-105.445
N5470 X34.748 Y-105.991
N5475 X33.098 Y-106.482
N5480 X31.434 Y-106.925
N5485 X29.761 Y-107.329
N5490 X28.081 Y-107.705
N5495 X23.028 Y-108.777
N5500 X21.349 Y-109.156
N5505 X19.68 Y-109.578
N5510 X18.029 Y-110.066
N5515 X16.407 Y-110.643
N5520 X14.83 Y-111.327
N5525 X14.248 Y-111.637
N5530 X13.87 Y-111.873
N5535 X13.527 Y-112.158
N5540 X13.225 Y-112.486
N5545 X12.971 Y-112.851
N5550 X12.768 Y-113.248
N5555 X12.62 Y-113.669
N5560 X12.53 Y-114.105
N5565 X12.5 Y-114.55
N5570 Y-123.924
N5575 G03 X12.724 Y-124.874 I2.498 J0.087
N5580 G01 X12.804 Y-125.051 Z-4.993
N5585 X12.884 Y-125.226 Z-4.971
N5590 X12.963 Y-125.4 Z-4.935
N5595 X13.041 Y-125.571 Z-4.884
N5600 X13.117 Y-125.738 Z-4.82
N5605 X13.191 Y-125.9 Z-4.743
N5610 X13.263 Y-126.057 Z-4.652
N5615 X13.331 Y-126.206 Z-4.548
N5620 X13.396 Y-126.349 Z-4.433
N5625 X13.457 Y-126.483 Z-4.306
N5630 X13.514 Y-126.608 Z-4.168
N5635 X13.567 Y-126.723 Z-4.021
N5640 X13.614 Y-126.829 Z-3.865
N5645 X13.657 Y-126.923 Z-3.7
N5650 X13.695 Y-127.005 Z-3.528
N5655 X13.727 Y-127.076 Z-3.35
N5660 X13.754 Y-127.135 Z-3.166
N5665 X13.775 Y-127.18 Z-2.979
N5670 X13.79 Y-127.213 Z-2.788
N5675 X13.799 Y-127.233 Z-2.594
N5680 X13.802 Y-127.24 Z-2.4
N5685 G00 Z6.
N5690 X-56.455 Y130.241
N5695 Z0.2
N5700 G01 Z-2.4 F2328.
N5705 X-56.458 Y130.234 Z-2.594
N5710 X-56.467 Y130.214 Z-2.788
N5715 X-56.481 Y130.181 Z-2.979
N5720 X-56.501 Y130.135 Z-3.166
N5725 X-56.527 Y130.076 Z-3.35
N5730 X-56.558 Y130.005 Z-3.528
N5735 X-56.594 Y129.922 Z-3.7
N5740 X-56.636 Y129.827 Z-3.865
N5745 X-56.682 Y129.721 Z-4.021
N5750 X-56.733 Y129.605 Z-4.168
N5755 X-56.788 Y129.479 Z-4.306
N5760 X-56.847 Y129.344 Z-4.433
N5765 X-56.909 Y129.2 Z-4.548
N5770 X-56.975 Y129.05 Z-4.652
N5775 X-57.044 Y128.892 Z-4.743
N5780 X-57.116 Y128.729 Z-4.82
N5785 X-57.189 Y128.561 Z-4.884
N5790 X-57.264 Y128.389 Z-4.935
N5795 X-57.341 Y128.213 Z-4.971
N5800 X-57.418 Y128.036 Z-4.993
N5805 X-57.496 Y127.858 Z-5.
N5810 G03 X-57.653 Y126.889 I1.813 J-0.792
N5815 G01 X-57.588 Y126.366
N5820 X-57.528 Y125.616
N5825 X-57.5 Y124.866
N5830 Y121.454
N5835 X-57.464 Y120.74
N5840 X-57.372 Y120.039
N5845 X-57.217 Y119.31
N5850 X-56.967 Y118.477
N5855 X-56.63 Y117.611
N5860 X-56.17 Y116.663
N5865 X-55.569 Y115.643
N5870 X-54.825 Y114.583
N5875 X-53.895 Y113.463
N5880 X-52.748 Y112.288
N5885 X-51.451 Y111.156
N5890 X-50.073 Y110.123
N5895 X-48.631 Y109.184
N5900 X-47.136 Y108.329
N5905 X-45.599 Y107.553
N5910 X-44.028 Y106.85
N5915 X-42.429 Y106.212
N5920 X-40.807 Y105.635
N5925 X-39.166 Y105.114
N5930 X-37.51 Y104.642
N5935 X-35.842 Y104.216
N5940 X-34.164 Y103.832
N5945 X-32.477 Y103.486
N5950 X-30.784 Y103.174
N5955 X-29.086 Y102.893
N5960 X-27.383 Y102.64
N5965 X-25.676 Y102.413
N5970 X-23.967 Y102.209
N5975 X-22.255 Y102.025
N5980 X-20.541 Y101.861
N5985 X-18.826 Y101.714
N5990 X-17.109 Y101.581
N5995 X-15.392 Y101.463
N6000 X-13.673 Y101.357
N6005 X-11.954 Y101.263
N6010 X-8.515 Y101.103
N6015 X-5.074 Y100.975
N6020 X-1.632 Y100.874
N6025 X3.531 Y100.76
N6030 X8.695 Y100.68
N6035 X15.581 Y100.609
N6040 X19.025 Y100.582
N6045 X20.744 Y100.493
N6050 X22.446 Y100.235
N6055 X24.107 Y99.783
N6060 X25.705 Y99.141
N6065 X27.221 Y98.326
N6070 X28.645 Y97.358
N6075 X29.969 Y96.258
N6080 X31.193 Y95.047
N6085 X32.318 Y93.744
N6090 X33.346 Y92.363
N6095 X34.283 Y90.918
N6100 X35.133 Y89.421
N6105 X35.902 Y87.881
N6110 X36.597 Y86.306
N6115 X37.223 Y84.702
N6120 X37.786 Y83.075
N6125 X38.292 Y81.43
N6130 X38.747 Y79.769
N6135 X39.154 Y78.096
N6140 X39.518 Y76.414
N6145 X39.844 Y74.723
N6150 X40.135 Y73.026
N6155 X40.395 Y71.325
N6160 X40.627 Y69.619
N6165 X40.834 Y67.91
N6170 X41.019 Y66.198
N6175 X41.183 Y64.484
N6180 X41.33 Y62.769
N6185 X41.46 Y61.052
N6190 X41.576 Y59.334
N6195 X41.68 Y57.616
N6200 X41.772 Y55.897
N6205 X41.926 Y52.457
N6210 X42.048 Y49.016
N6215 X42.144 Y45.574
N6220 X42.22 Y42.132
N6225 X42.305 Y36.968
N6230 X42.38 Y30.082
N6235 X42.439 Y21.199
N6240 X42.444 Y21.123
N6245 X42.481 Y20.624
N6250 X42.5 Y19.124
N6255 Y-67.12
N6260 X42.494 Y-67.87
N6265 X42.54 Y-69.591
N6270 X42.521 Y-76.478
N6275 X42.481 Y-78.199
N6280 X42.286 Y-79.909
N6285 X41.901 Y-81.587
N6290 X41.322 Y-83.209
N6295 X40.561 Y-84.753
N6300 X39.64 Y-86.208
N6305 X38.581 Y-87.565
N6310 X37.404 Y-88.822
N6315 X36.131 Y-89.98
N6320 X34.778 Y-91.045
N6325 X33.361 Y-92.023
N6330 X31.894 Y-92.924
N6335 X30.387 Y-93.756
N6340 X28.849 Y-94.53
N6345 X27.288 Y-95.257
N6350 X25.713 Y-95.951
N6355 X24.127 Y-96.622
N6360 X20.948 Y-97.943
N6365 X19.363 Y-98.616
N6370 X17.791 Y-99.318
N6375 X16.243 Y-100.071
N6380 X14.731 Y-100.894
N6385 X14.051 Y-101.319
N6390 X13.666 Y-101.6
N6395 X13.325 Y-101.934
N6400 X13.037 Y-102.314
N6405 X12.806 Y-102.731
N6410 X12.637 Y-103.176
N6415 X12.534 Y-103.642
N6420 X12.5 Y-104.117
N6425 Y-114.55
N6430 G03 X12.724 Y-115.499 I2.498 J0.087
N6435 G01 X12.804 Y-115.676 Z-4.993
N6440 X12.884 Y-115.852 Z-4.971
N6445 X12.963 Y-116.026 Z-4.935
N6450 X13.041 Y-116.196 Z-4.884
N6455 X13.117 Y-116.363 Z-4.82
N6460 X13.191 Y-116.526 Z-4.743
N6465 X13.263 Y-116.682 Z-4.652
N6470 X13.331 Y-116.832 Z-4.548
N6475 X13.396 Y-116.974 Z-4.433
N6480 X13.457 Y-117.108 Z-4.306
N6485 X13.514 Y-117.233 Z-4.168
N6490 X13.567 Y-117.349 Z-4.021
N6495 X13.614 Y-117.454 Z-3.865
N6500 X13.657 Y-117.548 Z-3.7
N6505 X13.695 Y-117.631 Z-3.528
N6510 X13.727 Y-117.701 Z-3.35
N6515 X13.754 Y-117.76 Z-3.166
N6520 X13.775 Y-117.806 Z-2.979
N6525 X13.79 Y-117.839 Z-2.788
N6530 X13.799 Y-117.858 Z-2.594
N6535 X13.802 Y-117.865 Z-2.4
N6540 G00 Z6.
N6545 X44.174 Y-64.732
N6550 Z0.2
N6555 G01 Z-2.4 F2328.
N6560 X44.171 Y-64.739 Z-2.594
N6565 X44.159 Y-64.757 Z-2.788
N6570 X44.14 Y-64.788 Z-2.979
N6575 X44.113 Y-64.83 Z-3.166
N6580 X44.079 Y-64.885 Z-3.35
N6585 X44.038 Y-64.951 Z-3.528
N6590 X43.989 Y-65.027 Z-3.7
N6595 X43.934 Y-65.115 Z-3.865
N6600 X43.873 Y-65.213 Z-4.021
N6605 X43.806 Y-65.32 Z-4.168
N6610 X43.733 Y-65.437 Z-4.306
N6615 X43.654 Y-65.562 Z-4.433
N6620 X43.571 Y-65.694 Z-4.548
N6625 X43.484 Y-65.834 Z-4.652
N6630 X43.392 Y-65.979 Z-4.743
N6635 X43.298 Y-66.13 Z-4.82
N6640 X43.2 Y-66.286 Z-4.884
N6645 X43.101 Y-66.445 Z-4.935
N6650 X42.999 Y-66.607 Z-4.971
N6655 X42.896 Y-66.771 Z-4.993
N6660 X42.793 Y-66.935 Z-5.
N6665 G03 X42.494 Y-67.87 I1.676 J-1.051
N6670 G01 X42.477 Y-68.62
N6675 X42.416 Y-69.37
N6680 X42.308 Y-70.12
N6685 X42.159 Y-70.87
N6690 X41.949 Y-71.62
N6695 X41.696 Y-72.37
N6700 X41.399 Y-73.12
N6705 X41.023 Y-73.87
N6710 X40.815 Y-74.259
N6715 X40.585 Y-74.62
N6720 X40.066 Y-75.395
N6725 X39.317 Y-76.321
N6730 X38.778 Y-76.87
N6735 X38.568 Y-77.072
N6740 X37.968 Y-77.62
N6745 X36.973 Y-78.37
N6750 X36.321 Y-78.772
N6755 X35.685 Y-79.12
N6760 X34.174 Y-79.945
N6765 X32.676 Y-80.793
N6770 X31.166 Y-81.62
N6775 X29.645 Y-82.426
N6780 X28.113 Y-83.212
N6785 X26.573 Y-83.981
N6790 X23.475 Y-85.485
N6795 X20.376 Y-86.985
N6800 X18.833 Y-87.749
N6805 X17.303 Y-88.538
N6810 X15.794 Y-89.368
N6815 X14.322 Y-90.26
N6820 X13.933 Y-90.527
N6825 X13.575 Y-90.811
N6830 X13.26 Y-91.142
N6835 X12.994 Y-91.512
N6840 X12.781 Y-91.917
N6845 X12.626 Y-92.346
N6850 X12.532 Y-92.793
N6855 X12.5 Y-93.249
N6860 Y-104.117
N6865 G03 X16.803 Y-105.76 I2.498 J0.087
N6870 G01 X38.48 Y-83.145
N6875 G03 X35.685 Y-79.12 I-1.805 J1.73
N6880 G01 X34.823 Y-79.527
N6885 X33.898 Y-79.869
N6890 X33.326 Y-80.035
N6895 X32.577 Y-80.227
N6900 X31.828 Y-80.354
N6905 X31.079 Y-80.439
N6910 X30.33 Y-80.491
N6915 X27.335 Y-80.5
N6920 X22.092
N6925 X20.373 Y-80.59
N6930 X18.663 Y-80.79
N6935 X17.712 Y-80.979
N6940 X17.481 Y-81.034
N6945 X17.255 Y-81.105
N6950 X17.035 Y-81.192
N6955 G03 X18.402 Y-85.93 I1.082 J-2.254
N6960 G01 X20.574 Y-85.68
N6965 X22.291 Y-85.482
N6970 G03 X22.092 Y-80.5 I-0.286 J2.484
N6975 G01 X21.343 Y-80.502
N6980 X20.595 Y-80.517
N6985 X19.846 Y-80.546
N6990 X18.348 Y-80.735
N6995 X17.599 Y-80.945
N7000 X16.632 Y-81.369
N7005 X16.101 Y-81.659
N7010 X15.426 Y-82.119
N7015 X14.595 Y-82.869
N7020 X14.258 Y-83.244
N7025 X13.515 Y-84.369
N7030 X13.287 Y-84.744
N7035 X13.106 Y-85.177
N7040 X12.851 Y-85.869
N7045 X12.673 Y-86.619
N7050 X12.579 Y-87.369
N7055 X12.519 Y-88.119
N7060 X12.5 Y-88.869
N7065 Y-93.249
N7070 X12.514 Y-93.363 Z-4.993
N7075 X12.528 Y-93.476 Z-4.973
N7080 X12.542 Y-93.586 Z-4.939
N7085 X12.555 Y-93.691 Z-4.892
N7090 X12.584 Y-93.782 Z-4.837
N7095 X12.61 Y-93.866 Z-4.771
N7100 X12.634 Y-93.942 Z-4.696
N7105 X12.655 Y-94.01 Z-4.613
N7110 X12.673 Y-94.069 Z-4.522
N7115 X12.688 Y-94.117 Z-4.425
N7120 X12.704 Y-94.152 Z-4.327
N7125 X12.715 Y-94.178 Z-4.226
N7130 X12.721 Y-94.193 Z-4.123
N7135 X12.724 Y-94.198 Z-4.018
N7140 G00 Z6.
N7145 X-114.224 Y121.752
N7150 Z-4.8
N7155 G01 Z-7.4 F2328.
N7160 X-114.22 Y121.758 Z-7.594
N7165 X-114.208 Y121.777 Z-7.788
N7170 X-114.188 Y121.807 Z-7.979
N7175 X-114.161 Y121.849 Z-8.166
N7180 X-114.126 Y121.903 Z-8.35
N7185 X-114.084 Y121.968 Z-8.528
N7190 X-114.034 Y122.045 Z-8.7
N7195 X-113.978 Y122.132 Z-8.865
N7200 X-113.915 Y122.228 Z-9.021
N7205 X-113.847 Y122.335 Z-9.168
N7210 X-113.772 Y122.45 Z-9.306
N7215 X-113.692 Y122.574 Z-9.433
N7220 X-113.607 Y122.706 Z-9.548
N7225 X-113.518 Y122.844 Z-9.652
N7230 X-113.424 Y122.988 Z-9.743
N7235 X-113.327 Y123.138 Z-9.82
N7240 X-113.228 Y123.292 Z-9.884
N7245 X-113.126 Y123.45 Z-9.935
N7250 X-113.022 Y123.61 Z-9.971
N7255 X-112.917 Y123.772 Z-9.993
N7260 X-112.812 Y123.935 Z-10.
N7265 G03 X-112.5 Y124.866 I-1.661 J1.074
N7270 G01 X-112.472 Y125.616
N7275 X-112.412 Y126.366
N7280 X-112.316 Y127.116
N7285 X-112.154 Y127.866
N7290 X-111.95 Y128.616
N7295 X-111.709 Y129.366
N7300 X-111.402 Y130.116
N7305 X-111.21 Y130.505
N7310 X-110.601 Y131.616
N7315 X-110.462 Y131.836
N7320 X-110.093 Y132.366
N7325 X-109.493 Y133.116
N7330 X-109.03 Y133.681
N7335 X-108.307 Y134.724
N7340 X-107.531 Y136.062
N7345 X-106.79 Y137.616
N7350 X-106.162 Y139.22
N7355 X-105.63 Y140.857
N7360 X-105.178 Y142.518
N7365 X-104.793 Y144.196
N7370 X-104.464 Y145.886
N7375 X-104.183 Y147.584
N7380 X-103.537 Y149.18
N7385 X-102.585 Y150.615
N7390 X-101.428 Y151.889
N7395 X-100.124 Y153.014
N7400 X-98.715 Y154.003
N7405 X-97.227 Y154.868
N7410 X-95.68 Y155.624
N7415 X-94.089 Y156.283
N7420 X-92.466 Y156.856
N7425 X-90.818 Y157.353
N7430 X-89.151 Y157.784
N7435 X-87.47 Y158.158
N7440 X-85.779 Y158.481
N7445 X-84.08 Y158.76
N7450 X-82.376 Y159.001
N7455 X-80.667 Y159.209
N7460 X-78.954 Y159.389
N7465 X-77.24 Y159.543
N7470 X-75.523 Y159.677
N7475 X-73.806 Y159.792
N7480 X-72.087 Y159.891
N7485 X-70.367 Y159.976
N7490 X-68.647 Y160.049
N7495 X-65.206 Y160.167
N7500 X-61.764 Y160.254
N7505 X-56.6 Y160.343
N7510 X-51.435 Y160.401
N7515 X-42.828 Y160.453
N7520 X-29.055 Y160.486
N7525 X-22.168 Y160.492
N7530 X29.48 Y160.5
N7535 X81.129
N7540 X88.015
N7545 X88.444 Y160.463
N7550 X88.869 Y160.394
N7555 X90.543 Y159.994
N7560 X92.045 Y159.152
N7565 X93.384 Y158.07
N7570 X94.569 Y156.821
N7575 X95.612 Y155.451
N7580 X96.526 Y153.993
N7585 X97.326 Y152.468
N7590 X98.023 Y150.894
N7595 X98.63 Y149.283
N7600 X99.157 Y147.644
N7605 X99.614 Y145.984
N7610 X100.01 Y144.308
N7615 X100.353 Y142.621
N7620 X100.65 Y140.925
N7625 X100.906 Y139.223
N7630 X101.127 Y137.516
N7635 X101.318 Y135.805
N7640 X101.483 Y134.091
N7645 X101.624 Y132.375
N7650 X101.747 Y130.658
N7655 X101.852 Y128.939
N7660 X101.942 Y127.22
N7665 X102.02 Y125.5
N7670 X102.145 Y122.059
N7675 X102.238 Y118.617
N7680 X102.333 Y113.454
N7685 X102.394 Y108.289
N7690 X102.442 Y101.403
N7695 X102.48 Y89.352
N7700 X102.496 Y70.414
N7705 X102.5 Y18.765
N7710 Y-32.883
N7715 Y-84.531
N7720 Y-136.18
N7725 Y-146.509
N7730 X102.152 Y-148.196
N7735 X101.376 Y-149.732
N7740 X100.339 Y-151.106
N7745 X99.122 Y-152.324
N7750 X97.775 Y-153.396
N7755 X96.334 Y-154.338
N7760 X94.822 Y-155.161
N7765 X93.257 Y-155.88
N7770 X91.653 Y-156.505
N7775 X90.019 Y-157.049
N7780 X88.364 Y-157.52
N7785 X86.691 Y-157.929
N7790 X85.007 Y-158.283
N7795 X83.312 Y-158.589
N7800 X81.611 Y-158.854
N7805 X79.905 Y-159.082
N7810 X78.194 Y-159.279
N7815 X76.481 Y-159.449
N7820 X74.766 Y-159.595
N7825 X73.049 Y-159.722
N7830 X71.331 Y-159.83
N7835 X69.612 Y-159.924
N7840 X67.892 Y-160.005
N7845 X66.172 Y-160.074
N7850 X62.73 Y-160.185
N7855 X59.288 Y-160.267
N7860 X54.124 Y-160.352
N7865 X48.959 Y-160.406
N7870 X40.351 Y-160.456
N7875 X26.579 Y-160.487
N7880 X14.527 Y-160.495
N7885 X-37.121 Y-160.5
N7890 X-88.77
N7895 X-90.436 Y-160.069
N7900 X-91.949 Y-159.246
N7905 X-93.298 Y-158.177
N7910 X-94.493 Y-156.938
N7915 X-95.546 Y-155.575
N7920 X-96.468 Y-154.122
N7925 X-97.275 Y-152.601
N7930 X-97.979 Y-151.03
N7935 X-98.592 Y-149.421
N7940 X-99.124 Y-147.784
N7945 X-99.585 Y-146.125
N7950 X-99.986 Y-144.451
N7955 X-100.332 Y-142.764
N7960 X-100.631 Y-141.069
N7965 X-100.89 Y-139.367
N7970 X-100.974 Y-138.969
N7975 X-101.119 Y-138.589
N7980 X-101.321 Y-138.235
N7985 X-101.574 Y-137.917
N7990 X-101.874 Y-137.642
N7995 X-102.212 Y-137.416
N8000 X-102.582 Y-137.245
N8005 X-102.973 Y-137.132
N8010 X-103.087 Y-137.115 Z-9.993
N8015 X-103.2 Y-137.099 Z-9.973
N8020 X-103.309 Y-137.082 Z-9.939
N8025 X-103.414 Y-137.067 Z-9.892
N8030 X-103.49 Y-137.064 Z-9.849
N8035 X-103.561 Y-137.062 Z-9.8
N8040 X-103.647 Y-137.069 Z-9.726
N8045 X-103.723 Y-137.075 Z-9.644
N8050 X-103.79 Y-137.08 Z-9.553
N8055 X-103.845 Y-137.084 Z-9.454
N8060 X-103.89 Y-137.088 Z-9.351
N8065 X-103.921 Y-137.09 Z-9.242
N8070 X-103.941 Y-137.092 Z-9.131
N8075 X-103.947 Z-9.018
N8080 G00 Z6.
N8085 X-55.895 Y124.631
N8090 Z0.2
N8095 G01 Z-2.4 F2328.
N8100 X-55.898 Y124.625 Z-2.594
N8105 X-55.909 Y124.606 Z-2.788
N8110 X-55.928 Y124.575 Z-2.979
N8115 X-55.954 Y124.532 Z-3.166
N8120 X-55.986 Y124.476 Z-3.35
N8125 X-56.026 Y124.41 Z-3.528
N8130 X-56.073 Y124.331 Z-3.7
N8135 X-56.125 Y124.243 Z-3.865
N8140 X-56.184 Y124.143 Z-4.021
N8145 X-56.249 Y124.034 Z-4.168
N8150 X-56.32 Y123.916 Z-4.306
N8155 X-56.395 Y123.789 Z-4.433
N8160 X-56.475 Y123.655 Z-4.548
N8165 X-56.559 Y123.513 Z-4.652
N8170 X-56.647 Y123.366 Z-4.743
N8175 X-56.738 Y123.213 Z-4.82
N8180 X-56.832 Y123.055 Z-4.884
N8185 X-56.928 Y122.893 Z-4.935
N8190 X-57.025 Y122.729 Z-4.971
N8195 X-57.124 Y122.563 Z-4.993
N8200 X-57.223 Y122.396 Z-5.
N8205 G03 X-57.5 Y121.454 I1.7 J-1.011
N8210 G01 Y113.617
N8215 X-57.478 Y113.186
N8220 X-57.375 Y112.394
N8225 X-57.198 Y111.566
N8230 X-56.918 Y110.633
N8235 X-56.532 Y109.642
N8240 X-56.019 Y108.584
N8245 X-55.348 Y107.445
N8250 X-54.5 Y106.237
N8255 X-53.449 Y104.971
N8260 X-52.247 Y103.739
N8265 X-50.956 Y102.6
N8270 X-49.592 Y101.55
N8275 X-48.167 Y100.583
N8280 X-46.693 Y99.693
N8285 X-45.178 Y98.876
N8290 X-43.628 Y98.126
N8295 X-42.05 Y97.439
N8300 X-40.447 Y96.81
N8305 X-38.825 Y96.233
N8310 X-37.186 Y95.706
N8315 X-35.533 Y95.224
N8320 X-33.869 Y94.784
N8325 X-32.195 Y94.382
N8330 X-30.513 Y94.016
N8335 X-28.824 Y93.682
N8340 X-27.129 Y93.378
N8345 X-25.43 Y93.102
N8350 X-23.727 Y92.85
N8355 X-22.02 Y92.621
N8360 X-20.311 Y92.414
N8365 X-18.6 Y92.225
N8370 X-16.887 Y92.055
N8375 X-15.172 Y91.9
N8380 X-13.456 Y91.76
N8385 X-11.739 Y91.633
N8390 X-10.022 Y91.518
N8395 X-8.303 Y91.415
N8400 X-4.864 Y91.237
N8405 X-1.424 Y91.092
N8410 X2.017 Y90.975
N8415 X7.18 Y90.84
N8420 X8.901 Y90.799
N8425 X10.619 Y90.682
N8430 X12.317 Y90.402
N8435 X13.975 Y89.936
N8440 X15.569 Y89.285
N8445 X17.083 Y88.466
N8450 X18.505 Y87.496
N8455 X19.831 Y86.397
N8460 X21.057 Y85.188
N8465 X22.184 Y83.887
N8470 X23.216 Y82.509
N8475 X24.157 Y81.068
N8480 X25.012 Y79.573
N8485 X25.787 Y78.036
N8490 X26.487 Y76.463
N8495 X27.119 Y74.862
N8500 X27.688 Y73.237
N8505 X28.2 Y71.593
N8510 X28.66 Y69.934
N8515 X29.073 Y68.263
N8520 X29.442 Y66.581
N8525 X29.773 Y64.892
N8530 X30.069 Y63.196
N8535 X30.334 Y61.495
N8540 X30.571 Y59.789
N8545 X30.782 Y58.081
N8550 X30.971 Y56.37
N8555 X31.139 Y54.656
N8560 X31.289 Y52.941
N8565 X31.422 Y51.225
N8570 X31.542 Y49.507
N8575 X31.648 Y47.789
N8580 X31.742 Y46.07
N8585 X31.901 Y42.63
N8590 X31.978 Y40.61
N8595 X32.033 Y40.122
N8600 X32.161 Y39.647
N8605 X32.359 Y39.198
N8610 X32.624 Y38.784
N8615 X32.949 Y38.415
N8620 X33.326 Y38.099
N8625 X34.075 Y37.494
N8630 X35.406 Y36.372
N8635 X35.572 Y36.219
N8640 X36.321 Y35.474
N8645 X36.855 Y34.873
N8650 X37.819 Y33.661
N8655 X38.603 Y32.623
N8660 X39.095 Y31.873
N8665 X39.317 Y31.501
N8670 X39.526 Y31.123
N8675 X40.288 Y29.623
N8680 X40.661 Y28.873
N8685 X40.967 Y28.123
N8690 X41.239 Y27.373
N8695 X41.563 Y26.252
N8700 X41.869 Y25.123
N8705 X42.057 Y24.373
N8710 G03 X42.504 Y23.506 I2.403 J0.691
N8715 G01 X42.625 Y23.355 Z-4.993
N8720 X42.746 Y23.203 Z-4.971
N8725 X42.865 Y23.054 Z-4.935
N8730 X42.982 Y22.907 Z-4.884
N8735 X43.096 Y22.764 Z-4.82
N8740 X43.207 Y22.624 Z-4.743
N8745 X43.314 Y22.49 Z-4.652
N8750 X43.417 Y22.361 Z-4.548
N8755 X43.514 Y22.239 Z-4.433
N8760 X43.606 Y22.123 Z-4.306
N8765 X43.692 Y22.016 Z-4.168
N8770 X43.771 Y21.917 Z-4.021
N8775 X43.843 Y21.826 Z-3.865
N8780 X43.907 Y21.745 Z-3.7
N8785 X43.964 Y21.674 Z-3.528
N8790 X44.012 Y21.614 Z-3.35
N8795 X44.052 Y21.563 Z-3.166
N8800 X44.084 Y21.524 Z-2.979
N8805 X44.106 Y21.496 Z-2.788
N8810 X44.12 Y21.479 Z-2.594
N8815 X44.124 Y21.473 Z-2.4
N8820 G00 Z6.
N8825 X-55.895 Y116.794
N8830 Z0.2
N8835 G01 Z-2.4 F2328.
N8840 X-55.898 Y116.788 Z-2.594
N8845 X-55.909 Y116.769 Z-2.788
N8850 X-55.928 Y116.738 Z-2.979
N8855 X-55.954 Y116.695 Z-3.166
N8860 X-55.986 Y116.639 Z-3.35
N8865 X-56.026 Y116.573 Z-3.528
N8870 X-56.073 Y116.494 Z-3.7
N8875 X-56.125 Y116.406 Z-3.865
N8880 X-56.184 Y116.306 Z-4.021
N8885 X-56.249 Y116.197 Z-4.168
N8890 X-56.32 Y116.079 Z-4.306
N8895 X-56.395 Y115.952 Z-4.433
N8900 X-56.475 Y115.818 Z-4.548
N8905 X-56.559 Y115.676 Z-4.652
N8910 X-56.647 Y115.529 Z-4.743
N8915 X-56.738 Y115.376 Z-4.82
N8920 X-56.832 Y115.218 Z-4.884
N8925 X-56.928 Y115.056 Z-4.935
N8930 X-57.025 Y114.892 Z-4.971
N8935 X-57.124 Y114.726 Z-4.993
N8940 X-57.223 Y114.559 Z-5.
N8945 G03 X-57.5 Y113.617 I1.7 J-1.011
N8950 G01 Y106.118
N8955 X-57.443 Y104.97
N8960 X-57.334 Y104.145
N8965 X-57.145 Y103.259
N8970 X-56.847 Y102.265
N8975 X-56.438 Y101.215
N8980 X-55.89 Y100.084
N8985 X-55.174 Y98.868
N8990 X-54.267 Y97.578
N8995 X-53.168 Y96.253
N9000 X-51.968 Y95.019
N9005 X-50.685 Y93.87
N9010 X-49.333 Y92.804
N9015 X-47.924 Y91.815
N9020 X-46.467 Y90.899
N9025 X-44.968 Y90.051
N9030 X-43.435 Y89.268
N9035 X-41.873 Y88.543
N9040 X-40.287 Y87.874
N9045 X-38.68 Y87.257
N9050 X-37.055 Y86.688
N9055 X-35.416 Y86.163
N9060 X-33.763 Y85.679
N9065 X-32.1 Y85.234
N9070 X-30.428 Y84.824
N9075 X-28.748 Y84.448
N9080 X-27.062 Y84.102
N9085 X-25.37 Y83.784
N9090 X-23.673 Y83.492
N9095 X-21.972 Y83.225
N9100 X-20.268 Y82.98
N9105 X-18.561 Y82.755
N9110 X-16.852 Y82.55
N9115 X-15.141 Y82.362
N9120 X-13.428 Y82.19
N9125 X-11.713 Y82.034
N9130 X-9.997 Y81.891
N9135 X-8.281 Y81.76
N9140 X-6.563 Y81.641
N9145 X-3.126 Y81.434
N9150 X-1.407 Y81.34
N9155 X0.308 Y81.189
N9160 X2.004 Y80.892
N9165 X3.66 Y80.422
N9170 X5.255 Y79.775
N9175 X6.774 Y78.964
N9180 X8.204 Y78.005
N9185 X9.539 Y76.918
N9190 X10.777 Y75.722
N9195 X11.917 Y74.432
N9200 X12.963 Y73.064
N9205 X13.918 Y71.632
N9210 X14.788 Y70.146
N9215 X15.577 Y68.616
N9220 X16.292 Y67.05
N9225 X16.938 Y65.454
N9230 X17.52 Y63.834
N9235 X18.045 Y62.194
N9240 X18.516 Y60.538
N9245 X18.94 Y58.87
N9250 X19.32 Y57.191
N9255 X19.661 Y55.503
N9260 X19.967 Y53.809
N9265 X20.24 Y52.109
N9270 X20.727 Y48.701
N9275 X20.992 Y46.999
N9280 X21.306 Y45.307
N9285 X21.466 Y44.613
N9290 X21.608 Y44.151
N9295 X21.816 Y43.715
N9300 X22.086 Y43.315
N9305 X22.412 Y42.957
N9310 X22.786 Y42.652
N9315 X23.201 Y42.404
N9320 X23.647 Y42.219
N9325 X24.116 Y42.102
N9330 X24.339 Y42.063
N9335 X25.088 Y41.905
N9340 X26.07 Y41.622
N9345 X27.335 Y41.227
N9350 X28.391 Y40.872
N9355 X28.832 Y40.691
N9360 X29.581 Y40.336
N9365 X31.079 Y39.529
N9370 G03 X32.02 Y39.273 I1.114 J2.238
N9375 G01 X32.214 Y39.26 Z-4.993
N9380 X32.407 Y39.247 Z-4.971
N9385 X32.598 Y39.233 Z-4.935
N9390 X32.785 Y39.22 Z-4.884
N9395 X32.968 Y39.208 Z-4.82
N9400 X33.146 Y39.196 Z-4.743
N9405 X33.317 Y39.184 Z-4.652
N9410 X33.481 Y39.172 Z-4.548
N9415 X33.638 Y39.162 Z-4.433
N9420 X33.785 Y39.151 Z-4.306
N9425 X33.922 Y39.142 Z-4.168
N9430 X34.048 Y39.133 Z-4.021
N9435 X34.163 Y39.125 Z-3.865
N9440 X34.267 Y39.118 Z-3.7
N9445 X34.357 Y39.112 Z-3.528
N9450 X34.435 Y39.106 Z-3.35
N9455 X34.499 Y39.102 Z-3.166
N9460 X34.549 Y39.099 Z-2.979
N9465 X34.585 Y39.096 Z-2.788
N9470 X34.607 Y39.095 Z-2.594
N9475 X34.614 Y39.094 Z-2.4
N9480 G00 Z6.
N9485 X-55.895 Y109.294
N9490 Z0.2
N9495 G01 Z-2.4 F2328.
N9500 X-55.898 Y109.288 Z-2.594
N9505 X-55.909 Y109.269 Z-2.788
N9510 X-55.928 Y109.238 Z-2.979
N9515 X-55.954 Y109.195 Z-3.166
N9520 X-55.986 Y109.14 Z-3.35
N9525 X-56.026 Y109.073 Z-3.528
N9530 X-56.073 Y108.995 Z-3.7
N9535 X-56.125 Y108.906 Z-3.865
N9540 X-56.184 Y108.807 Z-4.021
N9545 X-56.249 Y108.698 Z-4.168
N9550 X-56.32 Y108.58 Z-4.306
N9555 X-56.395 Y108.453 Z-4.433
N9560 X-56.475 Y108.319 Z-4.548
N9565 X-56.559 Y108.177 Z-4.652
N9570 X-56.647 Y108.029 Z-4.743
N9575 X-56.738 Y107.876 Z-4.82
N9580 X-56.832 Y107.718 Z-4.884
N9585 X-56.928 Y107.557 Z-4.935
N9590 X-57.025 Y107.393 Z-4.971
N9595 X-57.124 Y107.227 Z-4.993
N9600 X-57.223 Y107.06 Z-5.
N9605 G03 X-57.5 Y106.118 I1.7 J-1.011
N9610 G01 Y97.118
N9615 X-57.467 Y96.468
N9620 X-57.356 Y95.619
N9625 X-57.157 Y94.688
N9630 X-56.846 Y93.651
N9635 X-56.419 Y92.554
N9640 X-55.844 Y91.369
N9645 X-55.094 Y90.094
N9650 X-54.142 Y88.74
N9655 X-53.042 Y87.415
N9660 X-51.848 Y86.175
N9665 X-50.574 Y85.018
N9670 X-49.233 Y83.937
N9675 X-47.836 Y82.931
N9680 X-46.392 Y81.993
N9685 X-44.908 Y81.121
N9690 X-43.389 Y80.31
N9695 X-41.841 Y79.556
N9700 X-40.269 Y78.856
N9705 X-38.674 Y78.206
N9710 X-37.062 Y77.603
N9715 X-35.434 Y77.044
N9720 X-33.792 Y76.525
N9725 X-32.139 Y76.045
N9730 X-30.476 Y75.599
N9735 X-28.804 Y75.187
N9740 X-27.125 Y74.806
N9745 X-25.44 Y74.453
N9750 X-23.75 Y74.127
N9755 X-22.055 Y73.826
N9760 X-20.356 Y73.549
N9765 X-18.653 Y73.292
N9770 X-16.948 Y73.056
N9775 X-15.24 Y72.839
N9780 X-13.53 Y72.638
N9785 X-11.819 Y72.449
N9790 X-10.111 Y72.229
N9795 X-8.423 Y71.894
N9800 X-6.772 Y71.405
N9805 X-5.178 Y70.756
N9810 X-3.656 Y69.951
N9815 X-2.217 Y69.005
N9820 X-0.87 Y67.933
N9825 X0.382 Y66.751
N9830 X1.54 Y65.477
N9835 X2.605 Y64.125
N9840 X3.58 Y62.706
N9845 X4.47 Y61.232
N9850 X5.279 Y59.712
N9855 X6.016 Y58.156
N9860 X6.69 Y56.572
N9865 X7.313 Y54.967
N9870 X7.895 Y53.347
N9875 X9.016 Y50.091
N9880 X9.603 Y48.473
N9885 X10.242 Y46.874
N9890 X10.954 Y45.307
N9895 X11.508 Y44.259
N9900 X11.743 Y43.878
N9905 X12.028 Y43.533
N9910 X12.356 Y43.23
N9915 X12.723 Y42.974
N9920 X13.12 Y42.769
N9925 X13.542 Y42.621
N9930 X13.98 Y42.53
N9935 X14.426 Y42.5
N9940 X19.846 Y42.499
N9945 X20.595 Y42.472
N9950 X21.343 Y42.428
N9955 X23.59 Y42.193
N9960 X24.116 Y42.102
N9965 G03 X25.09 Y42.159 I0.342 J2.476
N9970 G01 X25.278 Y42.208 Z-4.993
N9975 X25.465 Y42.257 Z-4.971
N9980 X25.65 Y42.305 Z-4.935
N9985 X25.831 Y42.353 Z-4.884
N9990 X26.009 Y42.399 Z-4.82
N9995 X26.181 Y42.444 Z-4.743
N10000 X26.348 Y42.487 Z-4.652
N10005 X26.507 Y42.529 Z-4.548
N10010 X26.658 Y42.568 Z-4.433
N10015 X26.801 Y42.606 Z-4.306
N10020 X26.934 Y42.64 Z-4.168
N10025 X27.057 Y42.672 Z-4.021
N10030 X27.168 Y42.702 Z-3.865
N10035 X27.268 Y42.728 Z-3.7
N10040 X27.356 Y42.751 Z-3.528
N10045 X27.432 Y42.77 Z-3.35
N10050 X27.494 Y42.787 Z-3.166
N10055 X27.542 Y42.799 Z-2.979
N10060 X27.577 Y42.808 Z-2.788
N10065 X27.598 Y42.814 Z-2.594
N10070 X27.605 Y42.816 Z-2.4
N10075 G00 Z6.
N10080 X-55.895 Y100.295
N10085 Z0.2
N10090 G01 Z-2.4 F2328.
N10095 X-55.898 Y100.289 Z-2.594
N10100 X-55.909 Y100.27 Z-2.788
N10105 X-55.928 Y100.239 Z-2.979
N10110 X-55.954 Y100.196 Z-3.166
N10115 X-55.986 Y100.141 Z-3.35
N10120 X-56.026 Y100.074 Z-3.528
N10125 X-56.073 Y99.996 Z-3.7
N10130 X-56.125 Y99.907 Z-3.865
N10135 X-56.184 Y99.807 Z-4.021
N10140 X-56.249 Y99.698 Z-4.168
N10145 X-56.32 Y99.58 Z-4.306
N10150 X-56.395 Y99.454 Z-4.433
N10155 X-56.475 Y99.319 Z-4.548
N10160 X-56.559 Y99.178 Z-4.652
N10165 X-56.647 Y99.03 Z-4.743
N10170 X-56.738 Y98.877 Z-4.82
N10175 X-56.832 Y98.719 Z-4.884
N10180 X-56.928 Y98.558 Z-4.935
N10185 X-57.025 Y98.393 Z-4.971
N10190 X-57.124 Y98.227 Z-4.993
N10195 X-57.223 Y98.06 Z-5.
N10200 G03 X-57.5 Y97.118 I1.7 J-1.011
N10205 G01 Y96.368
N10210 X-57.441 Y95.618
N10215 X-57.357 Y94.868
N10220 X-56.22 Y86.619
N10225 X-55.961 Y85.251
N10230 X-55.703 Y84.312
N10235 X-55.323 Y83.267
N10240 X-54.804 Y82.13
N10245 X-54.129 Y80.92
N10250 X-53.259 Y79.62
N10255 X-52.191 Y78.27
N10260 X-51.02 Y77.008
N10265 X-49.765 Y75.829
N10270 X-48.441 Y74.729
N10275 X-47.058 Y73.704
N10280 X-45.626 Y72.748
N10285 X-44.152 Y71.858
N10290 X-42.643 Y71.029
N10295 X-41.104 Y70.257
N10300 X-39.54 Y69.538
N10305 X-37.954 Y68.869
N10310 X-36.349 Y68.246
N10315 X-34.727 Y67.667
N10320 X-33.092 Y67.128
N10325 X-31.445 Y66.627
N10330 X-29.788 Y66.161
N10335 X-28.122 Y65.728
N10340 X-26.448 Y65.326
N10345 X-24.767 Y64.952
N10350 X-23.081 Y64.605
N10355 X-21.392 Y64.27
N10360 X-19.712 Y63.894
N10365 X-18.059 Y63.415
N10370 X-16.449 Y62.805
N10375 X-14.898 Y62.056
N10380 X-13.421 Y61.173
N10385 X-12.024 Y60.167
N10390 X-10.711 Y59.053
N10395 X-9.482 Y57.847
N10400 X-8.332 Y56.565
N10405 X-7.253 Y55.224
N10410 X-6.234 Y53.837
N10415 X-5.264 Y52.415
N10420 X-4.329 Y50.969
N10425 X-3.42 Y49.507
N10430 X-1.616 Y46.574
N10435 X-0.679 Y45.13
N10440 X0.18 Y43.905
N10445 X0.464 Y43.554
N10450 X0.793 Y43.245
N10455 X1.162 Y42.983
N10460 X1.563 Y42.775
N10465 X1.988 Y42.623
N10470 X2.431 Y42.531
N10475 X2.881 Y42.5
N10480 X14.426
N10485 G03 X15.649 Y47.128 I-0.087 J2.498
N10490 G01 X-52.424 Y89.005
N10495 G03 X-56.22 Y86.619 I-1.31 J-2.129
N10500 G01 X-54.87 Y76.87
N10505 X-54.639 Y75.653
N10510 X-54.38 Y74.706
N10515 X-54.009 Y73.686
N10520 X-53.496 Y72.563
N10525 X-52.817 Y71.347
N10530 X-51.946 Y70.044
N10535 X-50.877 Y68.694
N10540 X-49.707 Y67.432
N10545 X-48.452 Y66.253
N10550 X-47.128 Y65.153
N10555 X-45.746 Y64.126
N10560 X-44.315 Y63.169
N10565 X-42.842 Y62.277
N10570 X-41.335 Y61.445
N10575 X-39.798 Y60.67
N10580 X-38.235 Y59.947
N10585 X-36.651 Y59.273
N10590 X-35.048 Y58.645
N10595 X-33.43 Y58.058
N10600 X-30.173 Y56.94
N10605 X-28.565 Y56.324
N10610 X-26.992 Y55.624
N10615 X-25.465 Y54.829
N10620 X-23.991 Y53.94
N10625 X-22.573 Y52.965
N10630 X-21.21 Y51.913
N10635 X-19.9 Y50.795
N10640 X-18.64 Y49.622
N10645 X-17.421 Y48.407
N10650 X-16.236 Y47.157
N10655 X-15.076 Y45.885
N10660 X-13.925 Y44.605
N10665 X-12.977 Y43.57
N10670 X-12.647 Y43.257
N10675 X-12.277 Y42.991
N10680 X-11.873 Y42.779
N10685 X-11.445 Y42.625
N10690 X-10.999 Y42.531
N10695 X-10.545 Y42.5
N10700 X2.881
N10705 G03 X4.052 Y47.159 I-0.087 J2.498
N10710 G01 X-51.126 Y79.286
N10715 G03 X-54.87 Y76.87 I-1.258 J-2.16
N10720 G01 X-53.546 Y67.303
N10725 X-53.311 Y66.064
N10730 X-53.05 Y65.115
N10735 X-52.679 Y64.094
N10740 X-52.166 Y62.969
N10745 X-51.486 Y61.751
N10750 X-50.612 Y60.444
N10755 X-49.543 Y59.094
N10760 X-48.373 Y57.831
N10765 X-47.119 Y56.651
N10770 X-45.796 Y55.55
N10775 X-44.415 Y54.521
N10780 X-42.987 Y53.56
N10785 X-41.524 Y52.652
N10790 X-38.558 Y50.904
N10795 X-37.085 Y50.013
N10800 X-35.631 Y49.09
N10805 X-34.203 Y48.129
N10810 X-32.803 Y47.127
N10815 X-31.432 Y46.086
N10820 X-30.088 Y45.01
N10825 X-28.767 Y43.906
N10830 X-28.052 Y43.294
N10835 X-27.676 Y43.016
N10840 X-27.266 Y42.794
N10845 X-26.828 Y42.632
N10850 X-26.371 Y42.533
N10855 X-25.905 Y42.5
N10860 X-11.608
N10865 G03 X-10.452 Y47.167 I-0.087 J2.498
N10870 G01 X-49.816 Y69.728
N10875 G03 X-53.546 Y67.303 I-1.243 J-2.169
N10880 G01 X-52.171 Y57.371
N10885 X-52. Y56.471
N10890 X-51.737 Y55.515
N10895 X-51.36 Y54.475
N10900 X-50.825 Y53.306
N10905 X-50.079 Y51.969
N10910 X-49.122 Y50.537
N10915 X-48.066 Y49.178
N10920 X-46.941 Y47.875
N10925 X-45.767 Y46.615
N10930 X-44.562 Y45.386
N10935 X-43.337 Y44.176
N10940 X-42.561 Y43.426
N10945 X-42.239 Y43.153
N10950 X-41.885 Y42.923
N10955 X-41.505 Y42.74
N10960 X-41.104 Y42.608
N10965 X-40.69 Y42.527
N10970 X-40.269 Y42.5
N10975 X-25.905
N10980 G03 X-24.816 Y47.205 I-0.087 J2.498
N10985 G01 X-48.508 Y59.833
N10990 G03 X-52.171 Y57.371 I-1.176 J-2.206
N10995 G01 X-50.717 Y46.872
N11000 X-50.465 Y45.547
N11005 X-50.207 Y44.606
N11010 X-50.006 Y44.162
N11015 X-49.739 Y43.753
N11020 X-49.414 Y43.389
N11025 X-49.037 Y43.079
N11030 X-48.617 Y42.83
N11035 X-48.164 Y42.648
N11040 X-47.688 Y42.537
N11045 X-47.201 Y42.5
N11050 G03 X-45.002 Y46.009 I-0.087 J2.498
N11055 G01 X-45.944 Y48.139
N11060 G03 X-50.717 Y46.872 I-2.287 J-1.011
N11065 G01 X-50.405 Y44.622
N11070 X-50.315 Y44.247
N11075 X-50.159 Y43.872
N11080 X-50.004 Y43.612
N11085 X-49.801 Y43.352
N11090 X-49.567 Y43.122
N11095 X-49.31 Y42.924
N11100 X-49.052 Y42.773
N11105 X-48.678 Y42.619
N11110 X-48.304 Y42.53
N11115 X-47.555 Y42.5
N11120 X-40.269
N11125 X-40.154 Y42.514 Z-4.993
N11130 X-40.041 Y42.528 Z-4.973
N11135 X-39.931 Y42.542 Z-4.939
N11140 X-39.826 Y42.555 Z-4.892
N11145 X-39.735 Y42.584 Z-4.837
N11150 X-39.652 Y42.61 Z-4.771
N11155 X-39.575 Y42.634 Z-4.696
N11160 X-39.507 Y42.655 Z-4.613
N11165 X-39.449 Y42.673 Z-4.522
N11170 X-39.4 Y42.688 Z-4.425
N11175 X-39.365 Y42.704 Z-4.327
N11180 X-39.34 Y42.715 Z-4.226
N11185 X-39.324 Y42.721 Z-4.123
N11190 X-39.319 Y42.724 Z-4.018
N11195 G00 Z6.
N11200 X-112.816 Y131.84
N11205 Z-4.8
N11210 G01 Z-7.4 F2328.
N11215 X-112.809 Y131.842 Z-7.594
N11220 X-112.788 Y131.849 Z-7.788
N11225 X-112.754 Y131.859 Z-7.979
N11230 X-112.705 Y131.874 Z-8.166
N11235 X-112.644 Y131.893 Z-8.35
N11240 X-112.57 Y131.916 Z-8.528
N11245 X-112.483 Y131.942 Z-8.7
N11250 X-112.384 Y131.973 Z-8.865
N11255 X-112.274 Y132.007 Z-9.021
N11260 X-112.152 Y132.044 Z-9.168
N11265 X-112.021 Y132.084 Z-9.306
N11270 X-111.88 Y132.128 Z-9.433
N11275 X-111.731 Y132.173 Z-9.548
N11280 X-111.573 Y132.222 Z-9.652
N11285 X-111.409 Y132.272 Z-9.743
N11290 X-111.239 Y132.325 Z-9.82
N11295 X-111.063 Y132.379 Z-9.884
N11300 X-110.884 Y132.434 Z-9.935
N11305 X-110.701 Y132.49 Z-9.971
N11310 X-110.516 Y132.547 Z-9.993
N11315 X-110.331 Y132.604 Z-10.
N11320 G03 X-109.493 Y133.116 I-0.581 J1.891
N11325 G01 X-108.964 Y133.7
N11330 X-108.215 Y134.42
N11335 X-107.984 Y134.616
N11340 X-107.466 Y135.012
N11345 X-106.971 Y135.366
N11350 X-106.717 Y135.529
N11355 X-105.968 Y135.974
N11360 X-105.219 Y136.344
N11365 X-104.993 Y136.439
N11370 X-104.631 Y136.613
N11375 X-103.981 Y136.991
N11380 X-102.567 Y137.974
N11385 X-101.23 Y139.059
N11390 X-99.858 Y140.099
N11395 X-98.444 Y141.081
N11400 X-96.988 Y141.999
N11405 X-95.491 Y142.85
N11410 X-93.958 Y143.633
N11415 X-92.393 Y144.35
N11420 X-90.8 Y145.003
N11425 X-89.183 Y145.596
N11430 X-87.548 Y146.132
N11435 X-85.895 Y146.616
N11440 X-84.229 Y147.051
N11445 X-82.553 Y147.441
N11450 X-80.867 Y147.79
N11455 X-79.174 Y148.102
N11460 X-77.475 Y148.38
N11465 X-75.771 Y148.627
N11470 X-74.063 Y148.848
N11475 X-72.353 Y149.043
N11480 X-70.64 Y149.216
N11485 X-68.925 Y149.37
N11490 X-67.209 Y149.505
N11495 X-65.492 Y149.625
N11500 X-63.773 Y149.731
N11505 X-62.054 Y149.825
N11510 X-58.614 Y149.98
N11515 X-56.894 Y150.044
N11520 X-53.452 Y150.15
N11525 X-50.01 Y150.231
N11530 X-44.846 Y150.32
N11535 X-37.96 Y150.395
N11540 X-29.352 Y150.447
N11545 X-15.579 Y150.482
N11550 X-5.25 Y150.492
N11555 X46.399 Y150.5
N11560 X73.945
N11565 X75.662 Y150.382
N11570 X77.33 Y149.954
N11575 X78.906 Y149.261
N11580 X80.369 Y148.353
N11585 X81.71 Y147.274
N11590 X82.928 Y146.057
N11595 X84.027 Y144.732
N11600 X85.015 Y143.322
N11605 X85.898 Y141.844
N11610 X86.685 Y140.313
N11615 X87.385 Y138.74
N11620 X88.005 Y137.134
N11625 X88.554 Y135.503
N11630 X89.039 Y133.851
N11635 X89.467 Y132.183
N11640 X89.844 Y130.503
N11645 X90.175 Y128.814
N11650 X90.466 Y127.117
N11655 X90.722 Y125.414
N11660 X90.946 Y123.707
N11665 X91.143 Y121.997
N11670 X91.315 Y120.284
N11675 X91.466 Y118.569
N11680 X91.598 Y116.853
N11685 X91.713 Y115.135
N11690 X91.814 Y113.416
N11695 X91.902 Y111.697
N11700 X92.046 Y108.257
N11705 X92.156 Y104.815
N11710 X92.239 Y101.373
N11715 X92.328 Y96.209
N11720 X92.387 Y91.044
N11725 X92.444 Y82.436
N11730 X92.479 Y70.385
N11735 X92.498 Y42.839
N11740 X92.499 Y30.788
N11745 X92.5 Y-20.86
N11750 Y-72.509
N11755 Y-124.157
N11760 Y-132.765
N11765 X92.23 Y-134.465
N11770 X91.67 Y-136.093
N11775 X90.869 Y-137.617
N11780 X89.874 Y-139.022
N11785 X88.725 Y-140.305
N11790 X87.454 Y-141.466
N11795 X86.086 Y-142.511
N11800 X84.642 Y-143.448
N11805 X83.137 Y-144.284
N11810 X81.585 Y-145.029
N11815 X79.995 Y-145.689
N11820 X78.376 Y-146.275
N11825 X76.734 Y-146.792
N11830 X75.074 Y-147.249
N11835 X73.4 Y-147.652
N11840 X71.715 Y-148.007
N11845 X70.022 Y-148.318
N11850 X68.323 Y-148.592
N11855 X66.618 Y-148.833
N11860 X64.909 Y-149.043
N11865 X63.197 Y-149.228
N11870 X61.483 Y-149.39
N11875 X59.768 Y-149.531
N11880 X58.051 Y-149.655
N11885 X56.332 Y-149.763
N11890 X54.613 Y-149.857
N11895 X52.894 Y-149.94
N11900 X49.453 Y-150.075
N11905 X46.011 Y-150.178
N11910 X42.569 Y-150.256
N11915 X37.405 Y-150.339
N11920 X30.519 Y-150.408
N11925 X21.911 Y-150.454
N11930 X8.138 Y-150.485
N11935 X4.695 Y-150.489
N11940 X-46.954 Y-150.5
N11945 X-74.499
N11950 X-76.207 Y-150.281
N11955 X-77.849 Y-149.764
N11960 X-79.391 Y-148.997
N11965 X-80.815 Y-148.03
N11970 X-82.116 Y-146.903
N11975 X-83.304 Y-145.657
N11980 X-84.409 Y-144.336
N11985 X-85.458 Y-142.971
N11990 X-87.498 Y-140.197
N11995 X-88.613 Y-138.73
N12000 X-88.948 Y-138.372
N12005 X-89.333 Y-138.067
N12010 X-89.758 Y-137.823
N12015 X-90.215 Y-137.645
N12020 X-90.694 Y-137.536
N12025 X-91.183 Y-137.5
N12030 X-99.228
N12035 X-99.977 Y-137.492
N12040 X-100.092 Y-137.505 Z-9.993
N12045 X-100.205 Y-137.518 Z-9.973
N12050 X-100.315 Y-137.53 Z-9.939
N12055 X-100.42 Y-137.542 Z-9.892
N12060 X-100.511 Y-137.57 Z-9.837
N12065 X-100.595 Y-137.595 Z-9.771
N12070 X-100.672 Y-137.618 Z-9.696
N12075 X-100.74 Y-137.639 Z-9.613
N12080 X-100.799 Y-137.656 Z-9.522
N12085 X-100.848 Y-137.671 Z-9.425
N12090 X-100.883 Y-137.686 Z-9.327
N12095 X-100.908 Y-137.697 Z-9.226
N12100 X-100.924 Y-137.703 Z-9.123
N12105 X-100.929 Y-137.705 Z-9.018
N12110 G00 Z6.
N12115 X-108.543 Y136.691
N12120 Z-4.8
N12125 G01 Z-7.4 F2328.
N12130 X-108.536 Y136.69 Z-7.594
N12135 X-108.514 Y136.687 Z-7.788
N12140 X-108.479 Y136.682 Z-7.979
N12145 X-108.429 Y136.675 Z-8.166
N12150 X-108.365 Y136.666 Z-8.35
N12155 X-108.288 Y136.655 Z-8.528
N12160 X-108.198 Y136.643 Z-8.7
N12165 X-108.096 Y136.628 Z-8.865
N12170 X-107.981 Y136.612 Z-9.021
N12175 X-107.856 Y136.595 Z-9.168
N12180 X-107.72 Y136.576 Z-9.306
N12185 X-107.574 Y136.555 Z-9.433
N12190 X-107.419 Y136.533 Z-9.548
N12195 X-107.256 Y136.511 Z-9.652
N12200 X-107.086 Y136.487 Z-9.743
N12205 X-106.909 Y136.462 Z-9.82
N12210 X-106.727 Y136.436 Z-9.884
N12215 X-106.541 Y136.41 Z-9.935
N12220 X-106.352 Y136.384 Z-9.971
N12225 X-106.161 Y136.357 Z-9.993
N12230 X-105.968 Y136.33 Z-10.
N12235 G03 X-104.993 Y136.439 I0.275 J1.959
N12240 G01 X-104.47 Y136.658
N12245 X-103.928 Y136.866
N12250 X-102.973 Y137.132
N12255 X-102.224 Y137.286
N12260 X-101.475 Y137.402
N12265 X-100.726 Y137.474
N12270 X-99.977 Y137.492
N12275 X-98.479 Y137.5
N12280 X-92.488
N12285 X-90.769 Y137.586
N12290 X-89.048 Y137.648
N12295 X-87.329 Y137.745
N12300 X-85.612 Y137.867
N12305 X-82.181 Y138.152
N12310 X-75.32 Y138.753
N12315 X-71.888 Y139.027
N12320 X-68.454 Y139.272
N12325 X-65.017 Y139.485
N12330 X-61.579 Y139.668
N12335 X-58.139 Y139.822
N12340 X-54.698 Y139.951
N12345 X-51.257 Y140.058
N12350 X-46.093 Y140.183
N12355 X-40.929 Y140.275
N12360 X-34.043 Y140.358
N12365 X-25.435 Y140.422
N12370 X-13.384 Y140.467
N12375 X7.275 Y140.493
N12380 X10.718 Y140.494
N12385 X62.367 Y140.5
N12390 X64.08 Y140.332
N12395 X65.752 Y139.92
N12400 X67.35 Y139.279
N12405 X68.852 Y138.438
N12410 X70.247 Y137.43
N12415 X71.531 Y136.283
N12420 X72.704 Y135.022
N12425 X73.769 Y133.669
N12430 X74.732 Y132.242
N12435 X75.599 Y130.755
N12440 X76.377 Y129.219
N12445 X77.074 Y127.645
N12450 X77.697 Y126.04
N12455 X78.252 Y124.41
N12460 X78.746 Y122.761
N12465 X79.185 Y121.096
N12470 X79.575 Y119.42
N12475 X79.92 Y117.733
N12480 X80.227 Y116.039
N12485 X80.497 Y114.339
N12490 X80.737 Y112.634
N12495 X80.948 Y110.925
N12500 X81.135 Y109.214
N12505 X81.3 Y107.5
N12510 X81.445 Y105.785
N12515 X81.573 Y104.068
N12520 X81.686 Y102.35
N12525 X81.785 Y100.631
N12530 X81.872 Y98.912
N12535 X81.949 Y97.192
N12540 X82.076 Y93.751
N12545 X82.174 Y90.309
N12550 X82.28 Y85.145
N12555 X82.352 Y79.981
N12560 X82.413 Y73.095
N12565 X82.461 Y62.765
N12570 X82.49 Y45.549
N12575 X82.5 Y-6.099
N12580 Y-57.748
N12585 Y-109.396
N12590 Y-119.726
N12595 X82.422 Y-121.446
N12600 X82.102 Y-123.137
N12605 X81.543 Y-124.766
N12610 X80.773 Y-126.305
N12615 X79.824 Y-127.742
N12620 X78.726 Y-129.068
N12625 X77.505 Y-130.281
N12630 X76.184 Y-131.386
N12635 X74.783 Y-132.386
N12640 X73.317 Y-133.288
N12645 X71.798 Y-134.099
N12650 X70.237 Y-134.825
N12655 X68.642 Y-135.474
N12660 X67.021 Y-136.054
N12665 X65.379 Y-136.57
N12670 X63.719 Y-137.029
N12675 X62.047 Y-137.436
N12680 X60.364 Y-137.798
N12685 X58.672 Y-138.118
N12690 X56.974 Y-138.401
N12695 X55.271 Y-138.652
N12700 X53.563 Y-138.873
N12705 X51.853 Y-139.069
N12710 X50.14 Y-139.241
N12715 X48.425 Y-139.394
N12720 X46.709 Y-139.528
N12725 X44.991 Y-139.646
N12730 X43.273 Y-139.75
N12735 X41.553 Y-139.841
N12740 X38.113 Y-139.993
N12745 X34.672 Y-140.11
N12750 X31.23 Y-140.2
N12755 X26.066 Y-140.298
N12760 X20.902 Y-140.364
N12765 X14.016 Y-140.42
N12770 X3.686 Y-140.464
N12775 X-1.479 Y-140.476
N12780 X-27.303 Y-140.497
N12785 X-53.127 Y-140.5
N12790 X-61.735
N12795 X-63.455 Y-140.422
N12800 X-65.153 Y-140.135
N12805 X-66.809 Y-139.666
N12810 X-68.415 Y-139.045
N12815 X-69.969 Y-138.304
N12820 X-70.68 Y-137.911
N12825 X-71.056 Y-137.734
N12830 X-71.451 Y-137.604
N12835 X-71.86 Y-137.526
N12840 X-72.275 Y-137.5
N12845 X-91.183
N12850 X-91.297 Y-137.514 Z-9.993
N12855 X-91.41 Y-137.528 Z-9.973
N12860 X-91.52 Y-137.542 Z-9.939
N12865 X-91.625 Y-137.555 Z-9.892
N12870 X-91.716 Y-137.584 Z-9.837
N12875 X-91.8 Y-137.61 Z-9.771
N12880 X-91.876 Y-137.634 Z-9.696
N12885 X-91.944 Y-137.655 Z-9.613
N12890 X-92.003 Y-137.673 Z-9.522
N12895 X-92.051 Y-137.688 Z-9.425
N12900 X-92.086 Y-137.704 Z-9.327
N12905 X-92.112 Y-137.715 Z-9.226
N12910 X-92.127 Y-137.721 Z-9.123
N12915 X-92.132 Y-137.724 Z-9.018
N12920 G00 Z6.
N12925 X-95.665 Y139.105
N12930 Z-4.8
N12935 G01 Z-7.4 F2328.
N12940 X-95.659 Y139.102 Z-7.594
N12945 X-95.64 Y139.091 Z-7.788
N12950 X-95.609 Y139.072 Z-7.979
N12955 X-95.566 Y139.046 Z-8.166
N12960 X-95.51 Y139.014 Z-8.35
N12965 X-95.444 Y138.974 Z-8.528
N12970 X-95.366 Y138.927 Z-8.7
N12975 X-95.277 Y138.875 Z-8.865
N12980 X-95.177 Y138.816 Z-9.021
N12985 X-95.068 Y138.751 Z-9.168
N12990 X-94.95 Y138.68 Z-9.306
N12995 X-94.823 Y138.605 Z-9.433
N13000 X-94.689 Y138.525 Z-9.548
N13005 X-94.548 Y138.441 Z-9.652
N13010 X-94.4 Y138.353 Z-9.743
N13015 X-94.247 Y138.262 Z-9.82
N13020 X-94.089 Y138.168 Z-9.884
N13025 X-93.927 Y138.072 Z-9.935
N13030 X-93.763 Y137.975 Z-9.971
N13035 X-93.597 Y137.876 Z-9.993
N13040 X-93.43 Y137.777 Z-10.
N13045 G03 X-92.488 Y137.5 I1.011 J1.7
N13050 G01 X-70.021 Y137.496
N13055 X-69.272 Y137.466
N13060 X-68.524 Y137.408
N13065 X-67.775 Y137.288
N13070 X-67.026 Y137.126
N13075 X-66.277 Y136.931
N13080 X-66.071 Y136.866
N13085 X-65.528 Y136.666
N13090 X-64.779 Y136.339
N13095 X-64.296 Y136.116
N13100 X-64.03 Y135.977
N13105 X-63.281 Y135.537
N13110 X-62.543 Y135.103
N13115 X-60.994 Y134.352
N13120 X-59.39 Y133.727
N13125 X-57.75 Y133.204
N13130 X-56.085 Y132.766
N13135 X-54.403 Y132.398
N13140 X-52.709 Y132.09
N13145 X-51.007 Y131.83
N13150 X-49.299 Y131.612
N13155 X-47.588 Y131.429
N13160 X-45.873 Y131.274
N13165 X-44.156 Y131.145
N13170 X-42.438 Y131.036
N13175 X-40.719 Y130.945
N13180 X-38.999 Y130.868
N13185 X-37.278 Y130.804
N13190 X-33.837 Y130.706
N13195 X-30.394 Y130.637
N13200 X-25.23 Y130.572
N13205 X-18.343 Y130.527
N13210 X-13.179 Y130.511
N13215 X5.759 Y130.497
N13220 X38.47 Y130.499
N13225 X50.521 Y130.5
N13230 X52.241 Y130.423
N13235 X53.939 Y130.139
N13240 X55.586 Y129.636
N13245 X57.156 Y128.93
N13250 X58.632 Y128.045
N13255 X60.006 Y127.007
N13260 X61.274 Y125.842
N13265 X62.435 Y124.571
N13270 X63.494 Y123.214
N13275 X64.454 Y121.785
N13280 X65.323 Y120.298
N13285 X66.106 Y118.765
N13290 X66.809 Y117.194
N13295 X67.441 Y115.592
N13300 X68.007 Y113.966
N13305 X68.512 Y112.32
N13310 X68.963 Y110.659
N13315 X69.365 Y108.985
N13320 X69.723 Y107.301
N13325 X70.042 Y105.609
N13330 X70.325 Y103.911
N13335 X70.576 Y102.208
N13340 X70.799 Y100.501
N13345 X70.997 Y98.79
N13350 X71.172 Y97.078
N13355 X71.327 Y95.363
N13360 X71.465 Y93.647
N13365 X71.586 Y91.93
N13370 X71.694 Y90.211
N13375 X71.789 Y88.493
N13380 X71.947 Y85.053
N13385 X72.071 Y81.612
N13390 X72.167 Y78.17
N13395 X72.273 Y73.006
N13400 X72.345 Y67.842
N13405 X72.407 Y60.956
N13410 X72.457 Y50.626
N13415 X72.463 Y48.905
N13420 X72.491 Y29.967
N13425 X72.499 Y-2.744
N13430 X72.5 Y-54.392
N13435 Y-106.041
N13440 X72.493 Y-109.484
N13445 X72.304 Y-111.195
N13450 X71.896 Y-112.868
N13455 X71.277 Y-114.474
N13460 X70.467 Y-115.993
N13465 X69.494 Y-117.413
N13470 X68.382 Y-118.727
N13475 X67.155 Y-119.936
N13480 X65.834 Y-121.039
N13485 X64.434 Y-122.042
N13490 X62.972 Y-122.95
N13495 X61.458 Y-123.77
N13500 X59.902 Y-124.508
N13505 X58.313 Y-125.171
N13510 X56.697 Y-125.764
N13515 X55.06 Y-126.296
N13520 X53.405 Y-126.77
N13525 X51.736 Y-127.193
N13530 X50.056 Y-127.57
N13535 X48.368 Y-127.906
N13540 X46.672 Y-128.204
N13545 X44.971 Y-128.469
N13550 X43.266 Y-128.704
N13555 X41.557 Y-128.913
N13560 X39.845 Y-129.097
N13565 X38.131 Y-129.261
N13570 X36.416 Y-129.406
N13575 X34.699 Y-129.535
N13580 X32.981 Y-129.648
N13585 X31.262 Y-129.749
N13590 X29.543 Y-129.837
N13595 X26.103 Y-129.985
N13600 X22.662 Y-130.1
N13605 X19.22 Y-130.19
N13610 X14.056 Y-130.288
N13615 X13.192 Y-130.301
N13620 X12.739 Y-130.339
N13625 X12.295 Y-130.439
N13630 X11.868 Y-130.6
N13635 X11.469 Y-130.817
N13640 X11.102 Y-131.087
N13645 X10.777 Y-131.406
N13650 X10.498 Y-131.765
N13655 X10.095 Y-132.366
N13660 X9.361 Y-133.265
N13665 X8.787 Y-133.866
N13670 X7.985 Y-134.616
N13675 X6.98 Y-135.366
N13680 X6.366 Y-135.755
N13685 X5.617 Y-136.15
N13690 X4.868 Y-136.511
N13695 X3.931 Y-136.866
N13700 X3.37 Y-137.022
N13705 X2.621 Y-137.216
N13710 X1.872 Y-137.348
N13715 X1.123 Y-137.435
N13720 X0.374 Y-137.489
N13725 X-1.872 Y-137.5
N13730 X-72.275
N13735 X-72.39 Y-137.514 Z-9.993
N13740 X-72.503 Y-137.528 Z-9.973
N13745 X-72.613 Y-137.542 Z-9.939
N13750 X-72.718 Y-137.555 Z-9.892
N13755 X-72.808 Y-137.584 Z-9.837
N13760 X-72.892 Y-137.61 Z-9.771
N13765 X-72.969 Y-137.634 Z-9.696
N13770 X-73.037 Y-137.655 Z-9.613
N13775 X-73.095 Y-137.673 Z-9.522
N13780 X-73.144 Y-137.688 Z-9.425
N13785 X-73.179 Y-137.704 Z-9.327
N13790 X-73.204 Y-137.715 Z-9.226
N13795 X-73.22 Y-137.721 Z-9.123
N13800 X-73.225 Y-137.724 Z-9.018
N13805 G00 Z6.
N13810 X-64.996 Y138.656
N13815 Z-4.8
N13820 G01 Z-7.4 F2328.
N13825 X-64.993 Y138.649 Z-7.594
N13830 X-64.983 Y138.63 Z-7.788
N13835 X-64.968 Y138.597 Z-7.979
N13840 X-64.947 Y138.551 Z-8.166
N13845 X-64.92 Y138.493 Z-8.35
N13850 X-64.887 Y138.422 Z-8.528
N13855 X-64.849 Y138.34 Z-8.7
N13860 X-64.806 Y138.246 Z-8.865
N13865 X-64.757 Y138.141 Z-9.021
N13870 X-64.704 Y138.026 Z-9.168
N13875 X-64.646 Y137.902 Z-9.306
N13880 X-64.584 Y137.768 Z-9.433
N13885 X-64.518 Y137.626 Z-9.548
N13890 X-64.449 Y137.477 Z-9.652
N13895 X-64.377 Y137.321 Z-9.743
N13900 X-64.302 Y137.159 Z-9.82
N13905 X-64.225 Y136.992 Z-9.884
N13910 X-64.146 Y136.822 Z-9.935
N13915 X-64.065 Y136.649 Z-9.971
N13920 X-63.984 Y136.473 Z-9.993
N13925 X-63.902 Y136.297 Z-10.
N13930 G03 X-63.281 Y135.537 I1.795 J0.832
N13935 G01 X-63.032 Y135.366
N13940 X-62.017 Y134.616
N13945 X-61.784 Y134.412
N13950 X-61.035 Y133.706
N13955 X-60.497 Y133.116
N13960 X-60.286 Y132.858
N13965 X-59.903 Y132.366
N13970 X-59.407 Y131.616
N13975 X-59.169 Y131.203
N13980 X-58.91 Y130.802
N13985 X-58.396 Y130.132
N13990 X-57.736 Y129.4
N13995 X-56.906 Y128.615
N14000 X-55.866 Y127.781
N14005 X-54.564 Y126.898
N14010 X-53.066 Y126.049
N14015 X-51.51 Y125.313
N14020 X-49.911 Y124.674
N14025 X-48.281 Y124.12
N14030 X-46.628 Y123.638
N14035 X-44.958 Y123.221
N14040 X-43.275 Y122.858
N14045 X-41.582 Y122.543
N14050 X-39.883 Y122.269
N14055 X-38.177 Y122.032
N14060 X-36.468 Y121.825
N14065 X-34.756 Y121.646
N14070 X-33.041 Y121.491
N14075 X-31.325 Y121.356
N14080 X-29.607 Y121.24
N14085 X-27.889 Y121.138
N14090 X-26.169 Y121.051
N14095 X-24.449 Y120.975
N14100 X-21.008 Y120.852
N14105 X-17.566 Y120.761
N14110 X-12.402 Y120.665
N14115 X-10.681 Y120.642
N14120 X-3.795 Y120.576
N14125 X4.813 Y120.534
N14130 X20.308 Y120.507
N14135 X39.245 Y120.501
N14140 X40.967 Y120.47
N14145 X42.676 Y120.267
N14150 X44.349 Y119.859
N14155 X45.958 Y119.248
N14160 X47.486 Y118.453
N14165 X48.917 Y117.496
N14170 X50.247 Y116.403
N14175 X51.473 Y115.195
N14180 X52.597 Y113.89
N14185 X53.621 Y112.507
N14190 X54.552 Y111.058
N14195 X55.395 Y109.557
N14200 X56.156 Y108.013
N14205 X56.842 Y106.434
N14210 X57.457 Y104.826
N14215 X58.01 Y103.195
N14220 X58.505 Y101.547
N14225 X58.948 Y99.883
N14230 X59.343 Y98.207
N14235 X59.696 Y96.522
N14240 X60.011 Y94.83
N14245 X60.291 Y93.131
N14250 X60.541 Y91.428
N14255 X60.763 Y89.72
N14260 X60.961 Y88.01
N14265 X61.136 Y86.297
N14270 X61.292 Y84.583
N14275 X61.43 Y82.867
N14280 X61.553 Y81.15
N14285 X61.662 Y79.431
N14290 X61.758 Y77.713
N14295 X61.92 Y74.273
N14300 X62.047 Y70.832
N14305 X62.146 Y67.39
N14310 X62.256 Y62.227
N14315 X62.332 Y57.063
N14320 X62.398 Y50.176
N14325 X62.452 Y39.847
N14330 X62.483 Y26.074
N14335 X62.499 Y-10.08
N14340 X62.5 Y-25.574
N14345 Y-77.223
N14350 Y-97.882
N14355 X62.415 Y-99.602
N14360 X62.138 Y-101.301
N14365 X61.654 Y-102.953
N14370 X60.973 Y-104.534
N14375 X60.116 Y-106.027
N14380 X59.107 Y-107.422
N14385 X57.968 Y-108.714
N14390 X56.722 Y-109.902
N14395 X55.387 Y-110.988
N14400 X53.978 Y-111.978
N14405 X52.509 Y-112.875
N14410 X50.991 Y-113.687
N14415 X49.433 Y-114.419
N14420 X47.842 Y-115.078
N14425 X46.225 Y-115.67
N14430 X44.588 Y-116.201
N14435 X42.933 Y-116.676
N14440 X41.264 Y-117.1
N14445 X39.585 Y-117.48
N14450 X37.897 Y-117.818
N14455 X36.202 Y-118.119
N14460 X34.501 Y-118.388
N14465 X32.797 Y-118.627
N14470 X31.088 Y-118.84
N14475 X29.377 Y-119.029
N14480 X27.663 Y-119.197
N14485 X25.948 Y-119.346
N14490 X22.515 Y-119.603
N14495 X20.799 Y-119.745
N14500 X19.087 Y-119.93
N14505 X17.385 Y-120.183
N14510 X15.698 Y-120.529
N14515 X14.921 Y-120.743
N14520 X14.472 Y-120.903
N14525 X14.051 Y-121.126
N14530 X13.666 Y-121.407
N14535 X13.325 Y-121.741
N14540 X13.037 Y-122.12
N14545 X12.806 Y-122.537
N14550 X12.637 Y-122.983
N14555 X12.534 Y-123.449
N14560 X12.5 Y-123.924
N14565 Y-124.866
N14570 X12.514 Y-124.981 Z-9.993
N14575 X12.528 Y-125.094 Z-9.973
N14580 X12.542 Y-125.204 Z-9.939
N14585 X12.555 Y-125.309 Z-9.892
N14590 X12.583 Y-125.399 Z-9.837
N14595 X12.61 Y-125.483 Z-9.771
N14600 X12.634 Y-125.56 Z-9.696
N14605 X12.655 Y-125.628 Z-9.613
N14610 X12.673 Y-125.686 Z-9.522
N14615 X12.688 Y-125.735 Z-9.425
N14620 X12.704 Y-125.77 Z-9.327
N14625 X12.715 Y-125.795 Z-9.226
N14630 X12.721 Y-125.811 Z-9.123
N14635 X12.723 Y-125.816 Z-9.018
N14640 G00 Z6.
N14645 X-59.365 Y134.757
N14650 Z-4.8
N14655 G01 Z-7.4 F2328.
N14660 Y134.75 Z-7.594
N14665 Y134.728 Z-7.788
N14670 X-59.366 Y134.692 Z-7.979
N14675 Y134.642 Z-8.166
N14680 X-59.367 Y134.578 Z-8.35
N14685 X-59.368 Y134.5 Z-8.528
N14690 X-59.37 Y134.409 Z-8.7
N14695 X-59.371 Y134.306 Z-8.865
N14700 X-59.372 Y134.19 Z-9.021
N14705 X-59.374 Y134.063 Z-9.168
N14710 X-59.376 Y133.926 Z-9.306
N14715 X-59.378 Y133.779 Z-9.433
N14720 X-59.38 Y133.622 Z-9.548
N14725 X-59.382 Y133.458 Z-9.652
N14730 X-59.385 Y133.286 Z-9.743
N14735 X-59.387 Y133.107 Z-9.82
N14740 X-59.389 Y132.924 Z-9.884
N14745 X-59.392 Y132.736 Z-9.935
N14750 X-59.394 Y132.545 Z-9.971
N14755 X-59.397 Y132.352 Z-9.993
N14760 X-59.4 Y132.158 Z-10.
N14765 G03 X-59.169 Y131.203 I1.978 J-0.026
N14770 G01 X-58.788 Y130.525
N14775 X-58.608 Y130.116
N14780 X-58.295 Y129.366
N14785 X-58.039 Y128.581
N14790 X-57.841 Y127.866
N14795 X-57.682 Y127.116
N14800 X-57.653 Y126.889
N14805 X-57.589 Y126.526
N14810 X-57.437 Y125.942
N14815 X-57.207 Y125.281
N14820 X-56.895 Y124.574
N14825 X-56.468 Y123.784
N14830 X-55.928 Y122.954
N14835 X-55.241 Y122.062
N14840 X-54.377 Y121.11
N14845 X-53.31 Y120.109
N14850 X-52. Y119.065
N14855 X-50.573 Y118.103
N14860 X-49.08 Y117.245
N14865 X-47.537 Y116.48
N14870 X-45.956 Y115.8
N14875 X-44.345 Y115.194
N14880 X-42.709 Y114.655
N14885 X-41.056 Y114.177
N14890 X-39.387 Y113.752
N14895 X-37.708 Y113.374
N14900 X-36.019 Y113.039
N14905 X-34.323 Y112.742
N14910 X-32.622 Y112.479
N14915 X-30.916 Y112.245
N14920 X-29.207 Y112.039
N14925 X-27.495 Y111.856
N14930 X-25.781 Y111.694
N14935 X-24.065 Y111.551
N14940 X-22.348 Y111.425
N14945 X-20.63 Y111.313
N14950 X-18.912 Y111.215
N14955 X-17.192 Y111.128
N14960 X-13.752 Y110.984
N14965 X-12.031 Y110.924
N14970 X-8.59 Y110.826
N14975 X-3.426 Y110.718
N14980 X1.739 Y110.646
N14985 X8.625 Y110.584
N14990 X18.954 Y110.537
N14995 X29.284 Y110.514
N15000 X31.004 Y110.438
N15005 X32.707 Y110.185
N15010 X34.368 Y109.733
N15015 X35.964 Y109.087
N15020 X37.476 Y108.264
N15025 X38.893 Y107.287
N15030 X40.21 Y106.178
N15035 X41.425 Y104.958
N15040 X42.54 Y103.646
N15045 X43.557 Y102.257
N15050 X44.482 Y100.805
N15055 X45.321 Y99.302
N15060 X46.079 Y97.756
N15065 X46.763 Y96.176
N15070 X47.379 Y94.568
N15075 X47.932 Y92.938
N15080 X48.428 Y91.289
N15085 X48.873 Y89.626
N15090 X49.271 Y87.951
N15095 X49.626 Y86.267
N15100 X49.944 Y84.575
N15105 X50.228 Y82.877
N15110 X50.481 Y81.174
N15115 X50.706 Y79.467
N15120 X50.907 Y77.757
N15125 X51.086 Y76.045
N15130 X51.245 Y74.33
N15135 X51.386 Y72.615
N15140 X51.512 Y70.898
N15145 X51.624 Y69.18
N15150 X51.723 Y67.461
N15155 X51.889 Y64.022
N15160 X52.021 Y60.581
N15165 X52.075 Y58.86
N15170 X52.167 Y55.418
N15175 X52.269 Y50.254
N15180 X52.34 Y45.09
N15185 X52.402 Y38.204
N15190 X52.453 Y27.874
N15195 X52.487 Y10.658
N15200 X52.49 Y7.215
N15205 X52.5 Y-44.433
N15210 X52.497 Y-87.474
N15215 X52.407 Y-89.193
N15220 X52.133 Y-90.893
N15225 X51.66 Y-92.548
N15230 X50.994 Y-94.135
N15235 X50.153 Y-95.638
N15240 X49.161 Y-97.045
N15245 X48.039 Y-98.351
N15250 X46.808 Y-99.554
N15255 X45.487 Y-100.658
N15260 X44.091 Y-101.666
N15265 X42.633 Y-102.581
N15270 X41.124 Y-103.411
N15275 X39.575 Y-104.16
N15280 X37.991 Y-104.836
N15285 X36.381 Y-105.445
N15290 X34.748 Y-105.991
N15295 X33.098 Y-106.482
N15300 X31.434 Y-106.925
N15305 X29.761 Y-107.329
N15310 X28.081 Y-107.705
N15315 X23.028 Y-108.777
N15320 X21.349 Y-109.156
N15325 X19.68 Y-109.578
N15330 X18.029 Y-110.066
N15335 X16.407 Y-110.643
N15340 X14.83 Y-111.327
N15345 X14.248 Y-111.637
N15350 X13.87 Y-111.873
N15355 X13.527 Y-112.158
N15360 X13.225 Y-112.486
N15365 X12.971 Y-112.851
N15370 X12.768 Y-113.248
N15375 X12.62 Y-113.669
N15380 X12.53 Y-114.105
N15385 X12.5 Y-114.55
N15390 Y-123.924
N15395 X12.514 Y-124.039 Z-9.993
N15400 X12.528 Y-124.152 Z-9.973
N15405 X12.542 Y-124.262 Z-9.939
N15410 X12.555 Y-124.367 Z-9.892
N15415 X12.584 Y-124.457 Z-9.837
N15420 X12.61 Y-124.541 Z-9.771
N15425 X12.634 Y-124.618 Z-9.696
N15430 X12.655 Y-124.686 Z-9.613
N15435 X12.673 Y-124.744 Z-9.522
N15440 X12.688 Y-124.793 Z-9.425
N15445 X12.704 Y-124.828 Z-9.327
N15450 X12.715 Y-124.853 Z-9.226
N15455 X12.721 Y-124.869 Z-9.123
N15460 X12.724 Y-124.874 Z-9.018
N15465 G00 Z6.
N15470 X-56.455 Y130.241
N15475 Z-4.8
N15480 G01 Z-7.4 F2328.
N15485 X-56.458 Y130.234 Z-7.594
N15490 X-56.467 Y130.214 Z-7.788
N15495 X-56.481 Y130.181 Z-7.979
N15500 X-56.501 Y130.135 Z-8.166
N15505 X-56.527 Y130.076 Z-8.35
N15510 X-56.558 Y130.005 Z-8.528
N15515 X-56.594 Y129.922 Z-8.7
N15520 X-56.636 Y129.827 Z-8.865
N15525 X-56.682 Y129.721 Z-9.021
N15530 X-56.733 Y129.605 Z-9.168
N15535 X-56.788 Y129.479 Z-9.306
N15540 X-56.847 Y129.344 Z-9.433
N15545 X-56.909 Y129.2 Z-9.548
N15550 X-56.975 Y129.05 Z-9.652
N15555 X-57.044 Y128.892 Z-9.743
N15560 X-57.116 Y128.729 Z-9.82
N15565 X-57.189 Y128.561 Z-9.884
N15570 X-57.264 Y128.389 Z-9.935
N15575 X-57.341 Y128.213 Z-9.971
N15580 X-57.418 Y128.036 Z-9.993
N15585 X-57.496 Y127.858 Z-10.
N15590 G03 X-57.653 Y126.889 I1.813 J-0.792
N15595 G01 X-57.588 Y126.366
N15600 X-57.528 Y125.616
N15605 X-57.5 Y124.866
N15610 Y121.454
N15615 X-57.464 Y120.74
N15620 X-57.372 Y120.039
N15625 X-57.217 Y119.31
N15630 X-56.967 Y118.477
N15635 X-56.63 Y117.611
N15640 X-56.17 Y116.663
N15645 X-55.569 Y115.643
N15650 X-54.825 Y114.583
N15655 X-53.895 Y113.463
N15660 X-52.748 Y112.288
N15665 X-51.451 Y111.156
N15670 X-50.073 Y110.123
N15675 X-48.631 Y109.184
N15680 X-47.136 Y108.329
N15685 X-45.599 Y107.553
N15690 X-44.028 Y106.85
N15695 X-42.429 Y106.212
N15700 X-40.807 Y105.635
N15705 X-39.166 Y105.114
N15710 X-37.51 Y104.642
N15715 X-35.842 Y104.216
N15720 X-34.164 Y103.832
N15725 X-32.477 Y103.486
N15730 X-30.784 Y103.174
N15735 X-29.086 Y102.893
N15740 X-27.383 Y102.64
N15745 X-25.676 Y102.413
N15750 X-23.967 Y102.209
N15755 X-22.255 Y102.025
N15760 X-20.541 Y101.861
N15765 X-18.826 Y101.714
N15770 X-17.109 Y101.581
N15775 X-15.392 Y101.463
N15780 X-13.673 Y101.357
N15785 X-11.954 Y101.263
N15790 X-8.515 Y101.103
N15795 X-5.074 Y100.975
N15800 X-1.632 Y100.874
N15805 X3.531 Y100.76
N15810 X8.695 Y100.68
N15815 X15.581 Y100.609
N15820 X19.025 Y100.582
N15825 X20.744 Y100.493
N15830 X22.446 Y100.235
N15835 X24.107 Y99.783
N15840 X25.705 Y99.141
N15845 X27.221 Y98.326
N15850 X28.645 Y97.358
N15855 X29.969 Y96.258
N15860 X31.193 Y95.047
N15865 X32.318 Y93.744
N15870 X33.346 Y92.363
N15875 X34.283 Y90.918
N15880 X35.133 Y89.421
N15885 X35.902 Y87.881
N15890 X36.597 Y86.306
N15895 X37.223 Y84.702
N15900 X37.786 Y83.075
N15905 X38.292 Y81.43
N15910 X38.747 Y79.769
N15915 X39.154 Y78.096
N15920 X39.518 Y76.414
N15925 X39.844 Y74.723
N15930 X40.135 Y73.026
N15935 X40.395 Y71.325
N15940 X40.627 Y69.619
N15945 X40.834 Y67.91
N15950 X41.019 Y66.198
N15955 X41.183 Y64.484
N15960 X41.33 Y62.769
N15965 X41.46 Y61.052
N15970 X41.576 Y59.334
N15975 X41.68 Y57.616
N15980 X41.772 Y55.897
N15985 X41.926 Y52.457
N15990 X42.048 Y49.016
N15995 X42.144 Y45.574
N16000 X42.22 Y42.132
N16005 X42.305 Y36.968
N16010 X42.38 Y30.082
N16015 X42.439 Y21.199
N16020 X42.444 Y21.123
N16025 X42.481 Y20.624
N16030 X42.5 Y19.124
N16035 Y-67.12
N16040 X42.494 Y-67.87
N16045 X42.54 Y-69.591
N16050 X42.521 Y-76.478
N16055 X42.481 Y-78.199
N16060 X42.286 Y-79.909
N16065 X41.901 Y-81.587
N16070 X41.322 Y-83.209
N16075 X40.561 Y-84.753
N16080 X39.64 Y-86.208
N16085 X38.581 Y-87.565
N16090 X37.404 Y-88.822
N16095 X36.131 Y-89.98
N16100 X34.778 Y-91.045
N16105 X33.361 Y-92.023
N16110 X31.894 Y-92.924
N16115 X30.387 Y-93.756
N16120 X28.849 Y-94.53
N16125 X27.288 Y-95.257
N16130 X25.713 Y-95.951
N16135 X24.127 Y-96.622
N16140 X20.948 Y-97.943
N16145 X19.363 Y-98.616
N16150 X17.791 Y-99.318
N16155 X16.243 Y-100.071
N16160 X14.731 Y-100.894
N16165 X14.051 Y-101.319
N16170 X13.666 Y-101.6
N16175 X13.325 Y-101.934
N16180 X13.037 Y-102.314
N16185 X12.806 Y-102.731
N16190 X12.637 Y-103.176
N16195 X12.534 Y-103.642
N16200 X12.5 Y-104.117
N16205 Y-114.55
N16210 X12.514 Y-114.664 Z-9.993
N16215 X12.528 Y-114.777 Z-9.973
N16220 X12.542 Y-114.887 Z-9.939
N16225 X12.555 Y-114.992 Z-9.892
N16230 X12.584 Y-115.083 Z-9.837
N16235 X12.61 Y-115.167 Z-9.771
N16240 X12.634 Y-115.243 Z-9.696
N16245 X12.655 Y-115.311 Z-9.613
N16250 X12.673 Y-115.37 Z-9.522
N16255 X12.688 Y-115.418 Z-9.425
N16260 X12.704 Y-115.453 Z-9.327
N16265 X12.715 Y-115.479 Z-9.226
N16270 X12.721 Y-115.494 Z-9.123
N16275 X12.724 Y-115.499 Z-9.018
N16280 G00 Z6.
N16285 X44.174 Y-64.732
N16290 Z-4.8
N16295 G01 Z-7.4 F2328.
N16300 X44.171 Y-64.739 Z-7.594
N16305 X44.159 Y-64.757 Z-7.788
N16310 X44.14 Y-64.788 Z-7.979
N16315 X44.113 Y-64.83 Z-8.166
N16320 X44.079 Y-64.885 Z-8.35
N16325 X44.038 Y-64.951 Z-8.528
N16330 X43.989 Y-65.027 Z-8.7
N16335 X43.934 Y-65.115 Z-8.865
N16340 X43.873 Y-65.213 Z-9.021
N16345 X43.806 Y-65.32 Z-9.168
N16350 X43.733 Y-65.437 Z-9.306
N16355 X43.654 Y-65.562 Z-9.433
N16360 X43.571 Y-65.694 Z-9.548
N16365 X43.484 Y-65.834 Z-9.652
N16370 X43.392 Y-65.979 Z-9.743
N16375 X43.298 Y-66.13 Z-9.82
N16380 X43.2 Y-66.286 Z-9.884
N16385 X43.101 Y-66.445 Z-9.935
N16390 X42.999 Y-66.607 Z-9.971
N16395 X42.896 Y-66.771 Z-9.993
N16400 X42.793 Y-66.935 Z-10.
N16405 G03 X42.494 Y-67.87 I1.676 J-1.051
N16410 G01 X42.477 Y-68.62
N16415 X42.416 Y-69.37
N16420 X42.308 Y-70.12
N16425 X42.159 Y-70.87
N16430 X41.949 Y-71.62
N16435 X41.696 Y-72.37
N16440 X41.399 Y-73.12
N16445 X41.023 Y-73.87
N16450 X40.815 Y-74.259
N16455 X40.585 Y-74.62
N16460 X40.066 Y-75.395
N16465 X39.317 Y-76.321
N16470 X38.778 Y-76.87
N16475 X38.568 Y-77.072
N16480 X37.968 Y-77.62
N16485 X36.973 Y-78.37
N16490 X36.321 Y-78.772
N16495 X35.685 Y-79.12
N16500 X34.174 Y-79.945
N16505 X32.676 Y-80.793
N16510 X31.166 Y-81.62
N16515 X29.645 Y-82.426
N16520 X28.113 Y-83.212
N16525 X26.573 Y-83.981
N16530 X23.475 Y-85.485
N16535 X20.376 Y-86.985
N16540 X18.833 Y-87.749
N16545 X17.303 Y-88.538
N16550 X15.794 Y-89.368
N16555 X14.322 Y-90.26
N16560 X13.933 Y-90.527
N16565 X13.575 Y-90.811
N16570 X13.26 Y-91.142
N16575 X12.994 Y-91.512
N16580 X12.781 Y-91.917
N16585 X12.626 Y-92.346
N16590 X12.532 Y-92.793
N16595 X12.5 Y-93.249
N16600 Y-104.117
N16605 G03 X16.803 Y-105.76 I2.498 J0.087
N16610 G01 X38.48 Y-83.145
N16615 G03 X35.685 Y-79.12 I-1.805 J1.73
N16620 G01 X34.823 Y-79.527
N16625 X33.898 Y-79.869
N16630 X33.326 Y-80.035
N16635 X32.577 Y-80.227
N16640 X31.828 Y-80.354
N16645 X31.079 Y-80.439
N16650 X30.33 Y-80.491
N16655 X27.335 Y-80.5
N16660 X22.092
N16665 X20.373 Y-80.59
N16670 X18.663 Y-80.79
N16675 X17.712 Y-80.979
N16680 X17.481 Y-81.034
N16685 X17.255 Y-81.105
N16690 X17.035 Y-81.192
N16695 G03 X18.402 Y-85.93 I1.082 J-2.254
N16700 G01 X20.574 Y-85.68
N16705 X22.291 Y-85.482
N16710 G03 X22.092 Y-80.5 I-0.286 J2.484
N16715 G01 X21.343 Y-80.502
N16720 X20.595 Y-80.517
N16725 X19.846 Y-80.546
N16730 X18.348 Y-80.735
N16735 X17.599 Y-80.945
N16740 X16.632 Y-81.369
N16745 X16.101 Y-81.659
N16750 X15.426 Y-82.119
N16755 X14.595 Y-82.869
N16760 X14.258 Y-83.244
N16765 X13.515 Y-84.369
N16770 X13.287 Y-84.744
N16775 X13.106 Y-85.177
N16780 X12.851 Y-85.869
N16785 X12.673 Y-86.619
N16790 X12.579 Y-87.369
N16795 X12.519 Y-88.119
N16800 X12.5 Y-88.869
N16805 Y-93.249
N16810 X12.514 Y-93.363 Z-9.993
N16815 X12.528 Y-93.476 Z-9.973
N16820 X12.542 Y-93.586 Z-9.939
N16825 X12.555 Y-93.691 Z-9.892
N16830 X12.584 Y-93.782 Z-9.837
N16835 X12.61 Y-93.866 Z-9.771
N16840 X12.634 Y-93.942 Z-9.696
N16845 X12.655 Y-94.01 Z-9.613
N16850 X12.673 Y-94.069 Z-9.522
N16855 X12.688 Y-94.117 Z-9.425
N16860 X12.704 Y-94.152 Z-9.327
N16865 X12.715 Y-94.178 Z-9.226
N16870 X12.721 Y-94.193 Z-9.123
N16875 X12.724 Y-94.198 Z-9.018
N16880 G00 Z6.
N16885 X-55.895 Y124.631
N16890 Z-4.8
N16895 G01 Z-7.4 F2328.
N16900 X-55.898 Y124.625 Z-7.594
N16905 X-55.909 Y124.606 Z-7.788
N16910 X-55.928 Y124.575 Z-7.979
N16915 X-55.954 Y124.532 Z-8.166
N16920 X-55.986 Y124.476 Z-8.35
N16925 X-56.026 Y124.41 Z-8.528
N16930 X-56.073 Y124.331 Z-8.7
N16935 X-56.125 Y124.243 Z-8.865
N16940 X-56.184 Y124.143 Z-9.021
N16945 X-56.249 Y124.034 Z-9.168
N16950 X-56.32 Y123.916 Z-9.306
N16955 X-56.395 Y123.789 Z-9.433
N16960 X-56.475 Y123.655 Z-9.548
N16965 X-56.559 Y123.513 Z-9.652
N16970 X-56.647 Y123.366 Z-9.743
N16975 X-56.738 Y123.213 Z-9.82
N16980 X-56.832 Y123.055 Z-9.884
N16985 X-56.928 Y122.893 Z-9.935
N16990 X-57.025 Y122.729 Z-9.971
N16995 X-57.124 Y122.563 Z-9.993
N17000 X-57.223 Y122.396 Z-10.
N17005 G03 X-57.5 Y121.454 I1.7 J-1.011
N17010 G01 Y113.617
N17015 X-57.478 Y113.186
N17020 X-57.375 Y112.394
N17025 X-57.198 Y111.566
N17030 X-56.918 Y110.633
N17035 X-56.532 Y109.642
N17040 X-56.019 Y108.584
N17045 X-55.348 Y107.445
N17050 X-54.5 Y106.237
N17055 X-53.449 Y104.971
N17060 X-52.247 Y103.739
N17065 X-50.956 Y102.6
N17070 X-49.592 Y101.55
N17075 X-48.167 Y100.583
N17080 X-46.693 Y99.693
N17085 X-45.178 Y98.876
N17090 X-43.628 Y98.126
N17095 X-42.05 Y97.439
N17100 X-40.447 Y96.81
N17105 X-38.825 Y96.233
N17110 X-37.186 Y95.706
N17115 X-35.533 Y95.224
N17120 X-33.869 Y94.784
N17125 X-32.195 Y94.382
N17130 X-30.513 Y94.016
N17135 X-28.824 Y93.682
N17140 X-27.129 Y93.378
N17145 X-25.43 Y93.102
N17150 X-23.727 Y92.85
N17155 X-22.02 Y92.621
N17160 X-20.311 Y92.414
N17165 X-18.6 Y92.225
N17170 X-16.887 Y92.055
N17175 X-15.172 Y91.9
N17180 X-13.456 Y91.76
N17185 X-11.739 Y91.633
N17190 X-10.022 Y91.518
N17195 X-8.303 Y91.415
N17200 X-4.864 Y91.237
N17205 X-1.424 Y91.092
N17210 X2.017 Y90.975
N17215 X7.18 Y90.84
N17220 X8.901 Y90.799
N17225 X10.619 Y90.682
N17230 X12.317 Y90.402
N17235 X13.975 Y89.936
N17240 X15.569 Y89.285
N17245 X17.083 Y88.466
N17250 X18.505 Y87.496
N17255 X19.831 Y86.397
N17260 X21.057 Y85.188
N17265 X22.184 Y83.887
N17270 X23.216 Y82.509
N17275 X24.157 Y81.068
N17280 X25.012 Y79.573
N17285 X25.787 Y78.036
N17290 X26.487 Y76.463
N17295 X27.119 Y74.862
N17300 X27.688 Y73.237
N17305 X28.2 Y71.593
N17310 X28.66 Y69.934
N17315 X29.073 Y68.263
N17320 X29.442 Y66.581
N17325 X29.773 Y64.892
N17330 X30.069 Y63.196
N17335 X30.334 Y61.495
N17340 X30.571 Y59.789
N17345 X30.782 Y58.081
N17350 X30.971 Y56.37
N17355 X31.139 Y54.656
N17360 X31.289 Y52.941
N17365 X31.422 Y51.225
N17370 X31.542 Y49.507
N17375 X31.648 Y47.789
N17380 X31.742 Y46.07
N17385 X31.901 Y42.63
N17390 X31.978 Y40.61
N17395 X32.033 Y40.122
N17400 X32.161 Y39.647
N17405 X32.359 Y39.198
N17410 X32.624 Y38.784
N17415 X32.949 Y38.415
N17420 X33.326 Y38.099
N17425 X34.075 Y37.494
N17430 X35.406 Y36.372
N17435 X35.572 Y36.219
N17440 X36.321 Y35.474
N17445 X36.855 Y34.873
N17450 X37.819 Y33.661
N17455 X38.603 Y32.623
N17460 X39.095 Y31.873
N17465 X39.317 Y31.501
N17470 X39.526 Y31.123
N17475 X40.288 Y29.623
N17480 X40.661 Y28.873
N17485 X40.967 Y28.123
N17490 X41.239 Y27.373
N17495 X41.563 Y26.252
N17500 X41.869 Y25.123
N17505 X42.057 Y24.373
N17510 X42.099 Y24.266 Z-9.993
N17515 X42.14 Y24.159 Z-9.973
N17520 X42.18 Y24.056 Z-9.939
N17525 X42.218 Y23.957 Z-9.892
N17530 X42.267 Y23.876 Z-9.837
N17535 X42.313 Y23.801 Z-9.771
N17540 X42.355 Y23.733 Z-9.696
N17545 X42.392 Y23.672 Z-9.613
N17550 X42.424 Y23.62 Z-9.522
N17555 X42.45 Y23.576 Z-9.425
N17560 X42.474 Y23.546 Z-9.327
N17565 X42.491 Y23.524 Z-9.226
N17570 X42.501 Y23.511 Z-9.123
N17575 X42.504 Y23.506 Z-9.018
N17580 G00 Z6.
N17585 X-55.895 Y116.794
N17590 Z-4.8
N17595 G01 Z-7.4 F2328.
N17600 X-55.898 Y116.788 Z-7.594
N17605 X-55.909 Y116.769 Z-7.788
N17610 X-55.928 Y116.738 Z-7.979
N17615 X-55.954 Y116.695 Z-8.166
N17620 X-55.986 Y116.639 Z-8.35
N17625 X-56.026 Y116.573 Z-8.528
N17630 X-56.073 Y116.494 Z-8.7
N17635 X-56.125 Y116.406 Z-8.865
N17640 X-56.184 Y116.306 Z-9.021
N17645 X-56.249 Y116.197 Z-9.168
N17650 X-56.32 Y116.079 Z-9.306
N17655 X-56.395 Y115.952 Z-9.433
N17660 X-56.475 Y115.818 Z-9.548
N17665 X-56.559 Y115.676 Z-9.652
N17670 X-56.647 Y115.529 Z-9.743
N17675 X-56.738 Y115.376 Z-9.82
N17680 X-56.832 Y115.218 Z-9.884
N17685 X-56.928 Y115.056 Z-9.935
N17690 X-57.025 Y114.892 Z-9.971
N17695 X-57.124 Y114.726 Z-9.993
N17700 X-57.223 Y114.559 Z-10.
N17705 G03 X-57.5 Y113.617 I1.7 J-1.011
N17710 G01 Y106.118
N17715 X-57.443 Y104.97
N17720 X-57.334 Y104.145
N17725 X-57.145 Y103.259
N17730 X-56.847 Y102.265
N17735 X-56.438 Y101.215
N17740 X-55.89 Y100.084
N17745 X-55.174 Y98.868
N17750 X-54.267 Y97.578
N17755 X-53.168 Y96.253
N17760 X-51.968 Y95.019
N17765 X-50.685 Y93.87
N17770 X-49.333 Y92.804
N17775 X-47.924 Y91.815
N17780 X-46.467 Y90.899
N17785 X-44.968 Y90.051
N17790 X-43.435 Y89.268
N17795 X-41.873 Y88.543
N17800 X-40.287 Y87.874
N17805 X-38.68 Y87.257
N17810 X-37.055 Y86.688
N17815 X-35.416 Y86.163
N17820 X-33.763 Y85.679
N17825 X-32.1 Y85.234
N17830 X-30.428 Y84.824
N17835 X-28.748 Y84.448
N17840 X-27.062 Y84.102
N17845 X-25.37 Y83.784
N17850 X-23.673 Y83.492
N17855 X-21.972 Y83.225
N17860 X-20.268 Y82.98
N17865 X-18.561 Y82.755
N17870 X-16.852 Y82.55
N17875 X-15.141 Y82.362
N17880 X-13.428 Y82.19
N17885 X-11.713 Y82.034
N17890 X-9.997 Y81.891
N17895 X-8.281 Y81.76
N17900 X-6.563 Y81.641
N17905 X-3.126 Y81.434
N17910 X-1.407 Y81.34
N17915 X0.308 Y81.189
N17920 X2.004 Y80.892
N17925 X3.66 Y80.422
N17930 X5.255 Y79.775
N17935 X6.774 Y78.964
N17940 X8.204 Y78.005
N17945 X9.539 Y76.918
N17950 X10.777 Y75.722
N17955 X11.917 Y74.432
N17960 X12.963 Y73.064
N17965 X13.918 Y71.632
N17970 X14.788 Y70.146
N17975 X15.577 Y68.616
N17980 X16.292 Y67.05
N17985 X16.938 Y65.454
N17990 X17.52 Y63.834
N17995 X18.045 Y62.194
N18000 X18.516 Y60.538
N18005 X18.94 Y58.87
N18010 X19.32 Y57.191
N18015 X19.661 Y55.503
N18020 X19.967 Y53.809
N18025 X20.24 Y52.109
N18030 X20.727 Y48.701
N18035 X20.992 Y46.999
N18040 X21.306 Y45.307
N18045 X21.466 Y44.613
N18050 X21.608 Y44.151
N18055 X21.816 Y43.715
N18060 X22.086 Y43.315
N18065 X22.412 Y42.957
N18070 X22.786 Y42.652
N18075 X23.201 Y42.404
N18080 X23.647 Y42.219
N18085 X24.116 Y42.102
N18090 X24.339 Y42.063
N18095 X25.088 Y41.905
N18100 X26.07 Y41.622
N18105 X27.335 Y41.227
N18110 X28.391 Y40.872
N18115 X28.832 Y40.691
N18120 X29.581 Y40.336
N18125 X31.079 Y39.529
N18130 X31.187 Y39.487 Z-9.993
N18135 X31.293 Y39.446 Z-9.973
N18140 X31.396 Y39.405 Z-9.939
N18145 X31.495 Y39.367 Z-9.892
N18150 X31.588 Y39.349 Z-9.837
N18155 X31.674 Y39.332 Z-9.771
N18160 X31.752 Y39.316 Z-9.696
N18165 X31.822 Y39.303 Z-9.613
N18170 X31.882 Y39.291 Z-9.522
N18175 X31.932 Y39.281 Z-9.425
N18180 X31.971 Y39.278 Z-9.327
N18185 X31.998 Y39.275 Z-9.226
N18190 X32.015 Y39.274 Z-9.123
N18195 X32.02 Y39.273 Z-9.018
N18200 G00 Z6.
N18205 X-55.895 Y109.294
N18210 Z-4.8
N18215 G01 Z-7.4 F2328.
N18220 X-55.898 Y109.288 Z-7.594
N18225 X-55.909 Y109.269 Z-7.788
N18230 X-55.928 Y109.238 Z-7.979
N18235 X-55.954 Y109.195 Z-8.166
N18240 X-55.986 Y109.14 Z-8.35
N18245 X-56.026 Y109.073 Z-8.528
N18250 X-56.073 Y108.995 Z-8.7
N18255 X-56.125 Y108.906 Z-8.865
N18260 X-56.184 Y108.807 Z-9.021
N18265 X-56.249 Y108.698 Z-9.168
N18270 X-56.32 Y108.58 Z-9.306
N18275 X-56.395 Y108.453 Z-9.433
N18280 X-56.475 Y108.319 Z-9.548
N18285 X-56.559 Y108.177 Z-9.652
N18290 X-56.647 Y108.029 Z-9.743
N18295 X-56.738 Y107.876 Z-9.82
N18300 X-56.832 Y107.718 Z-9.884
N18305 X-56.928 Y107.557 Z-9.935
N18310 X-57.025 Y107.393 Z-9.971
N18315 X-57.124 Y107.227 Z-9.993
N18320 X-57.223 Y107.06 Z-10.
N18325 G03 X-57.5 Y106.118 I1.7 J-1.011
N18330 G01 Y97.118
N18335 X-57.467 Y96.468
N18340 X-57.356 Y95.619
N18345 X-57.157 Y94.688
N18350 X-56.846 Y93.651
N18355 X-56.419 Y92.554
N18360 X-55.844 Y91.369
N18365 X-55.094 Y90.094
N18370 X-54.142 Y88.74
N18375 X-53.042 Y87.415
N18380 X-51.848 Y86.175
N18385 X-50.574 Y85.018
N18390 X-49.233 Y83.937
N18395 X-47.836 Y82.931
N18400 X-46.392 Y81.993
N18405 X-44.908 Y81.121
N18410 X-43.389 Y80.31
N18415 X-41.841 Y79.556
N18420 X-40.269 Y78.856
N18425 X-38.674 Y78.206
N18430 X-37.062 Y77.603
N18435 X-35.434 Y77.044
N18440 X-33.792 Y76.525
N18445 X-32.139 Y76.045
N18450 X-30.476 Y75.599
N18455 X-28.804 Y75.187
N18460 X-27.125 Y74.806
N18465 X-25.44 Y74.453
N18470 X-23.75 Y74.127
N18475 X-22.055 Y73.826
N18480 X-20.356 Y73.549
N18485 X-18.653 Y73.292
N18490 X-16.948 Y73.056
N18495 X-15.24 Y72.839
N18500 X-13.53 Y72.638
N18505 X-11.819 Y72.449
N18510 X-10.111 Y72.229
N18515 X-8.423 Y71.894
N18520 X-6.772 Y71.405
N18525 X-5.178 Y70.756
N18530 X-3.656 Y69.951
N18535 X-2.217 Y69.005
N18540 X-0.87 Y67.933
N18545 X0.382 Y66.751
N18550 X1.54 Y65.477
N18555 X2.605 Y64.125
N18560 X3.58 Y62.706
N18565 X4.47 Y61.232
N18570 X5.279 Y59.712
N18575 X6.016 Y58.156
N18580 X6.69 Y56.572
N18585 X7.313 Y54.967
N18590 X7.895 Y53.347
N18595 X9.016 Y50.091
N18600 X9.603 Y48.473
N18605 X10.242 Y46.874
N18610 X10.954 Y45.307
N18615 X11.508 Y44.259
N18620 X11.743 Y43.878
N18625 X12.028 Y43.533
N18630 X12.356 Y43.23
N18635 X12.723 Y42.974
N18640 X13.12 Y42.769
N18645 X13.542 Y42.621
N18650 X13.98 Y42.53
N18655 X14.426 Y42.5
N18660 X19.846 Y42.499
N18665 X20.595 Y42.472
N18670 X21.343 Y42.428
N18675 X23.59 Y42.193
N18680 X24.116 Y42.102
N18685 X24.232 Y42.094 Z-9.993
N18690 X24.347 Y42.086 Z-9.972
N18695 X24.458 Y42.078 Z-9.938
N18700 X24.562 Y42.087 Z-9.892
N18705 X24.659 Y42.096 Z-9.835
N18710 X24.749 Y42.104 Z-9.766
N18715 X24.831 Y42.111 Z-9.688
N18720 X24.903 Y42.118 Z-9.601
N18725 X24.969 Y42.132 Z-9.496
N18730 X25.021 Y42.144 Z-9.383
N18735 X25.059 Y42.152 Z-9.265
N18740 X25.082 Y42.157 Z-9.143
N18745 X25.09 Y42.159 Z-9.018
N18750 G00 Z6.
N18755 X-55.895 Y100.295
N18760 Z-4.8
N18765 G01 Z-7.4 F2328.
N18770 X-55.898 Y100.289 Z-7.594
N18775 X-55.909 Y100.27 Z-7.788
N18780 X-55.928 Y100.239 Z-7.979
N18785 X-55.954 Y100.196 Z-8.166
N18790 X-55.986 Y100.141 Z-8.35
N18795 X-56.026 Y100.074 Z-8.528
N18800 X-56.073 Y99.996 Z-8.7
N18805 X-56.125 Y99.907 Z-8.865
N18810 X-56.184 Y99.807 Z-9.021
N18815 X-56.249 Y99.698 Z-9.168
N18820 X-56.32 Y99.58 Z-9.306
N18825 X-56.395 Y99.454 Z-9.433
N18830 X-56.475 Y99.319 Z-9.548
N18835 X-56.559 Y99.178 Z-9.652
N18840 X-56.647 Y99.03 Z-9.743
N18845 X-56.738 Y98.877 Z-9.82
N18850 X-56.832 Y98.719 Z-9.884
N18855 X-56.928 Y98.558 Z-9.935
N18860 X-57.025 Y98.393 Z-9.971
N18865 X-57.124 Y98.227 Z-9.993
N18870 X-57.223 Y98.06 Z-10.
N18875 G03 X-57.5 Y97.118 I1.7 J-1.011
N18880 G01 Y96.368
N18885 X-57.441 Y95.618
N18890 X-57.357 Y94.868
N18895 X-56.22 Y86.619
N18900 X-55.961 Y85.251
N18905 X-55.703 Y84.312
N18910 X-55.323 Y83.267
N18915 X-54.804 Y82.13
N18920 X-54.129 Y80.92
N18925 X-53.259 Y79.62
N18930 X-52.191 Y78.27
N18935 X-51.02 Y77.008
N18940 X-49.765 Y75.829
N18945 X-48.441 Y74.729
N18950 X-47.058 Y73.704
N18955 X-45.626 Y72.748
N18960 X-44.152 Y71.858
N18965 X-42.643 Y71.029
N18970 X-41.104 Y70.257
N18975 X-39.54 Y69.538
N18980 X-37.954 Y68.869
N18985 X-36.349 Y68.246
N18990 X-34.727 Y67.667
N18995 X-33.092 Y67.128
N19000 X-31.445 Y66.627
N19005 X-29.788 Y66.161
N19010 X-28.122 Y65.728
N19015 X-26.448 Y65.326
N19020 X-24.767 Y64.952
N19025 X-23.081 Y64.605
N19030 X-21.392 Y64.27
N19035 X-19.712 Y63.894
N19040 X-18.059 Y63.415
N19045 X-16.449 Y62.805
N19050 X-14.898 Y62.056
N19055 X-13.421 Y61.173
N19060 X-12.024 Y60.167
N19065 X-10.711 Y59.053
N19070 X-9.482 Y57.847
N19075 X-8.332 Y56.565
N19080 X-7.253 Y55.224
N19085 X-6.234 Y53.837
N19090 X-5.264 Y52.415
N19095 X-4.329 Y50.969
N19100 X-3.42 Y49.507
N19105 X-1.616 Y46.574
N19110 X-0.679 Y45.13
N19115 X0.18 Y43.905
N19120 X0.464 Y43.554
N19125 X0.793 Y43.245
N19130 X1.162 Y42.983
N19135 X1.563 Y42.775
N19140 X1.988 Y42.623
N19145 X2.431 Y42.531
N19150 X2.881 Y42.5
N19155 X14.426
N19160 G03 X15.649 Y47.128 I-0.087 J2.498
N19165 G01 X-52.424 Y89.005
N19170 G03 X-56.22 Y86.619 I-1.31 J-2.129
N19175 G01 X-54.87 Y76.87
N19180 X-54.639 Y75.653
N19185 X-54.38 Y74.706
N19190 X-54.009 Y73.686
N19195 X-53.496 Y72.563
N19200 X-52.817 Y71.347
N19205 X-51.946 Y70.044
N19210 X-50.877 Y68.694
N19215 X-49.707 Y67.432
N19220 X-48.452 Y66.253
N19225 X-47.128 Y65.153
N19230 X-45.746 Y64.126
N19235 X-44.315 Y63.169
N19240 X-42.842 Y62.277
N19245 X-41.335 Y61.445
N19250 X-39.798 Y60.67
N19255 X-38.235 Y59.947
N19260 X-36.651 Y59.273
N19265 X-35.048 Y58.645
N19270 X-33.43 Y58.058
N19275 X-30.173 Y56.94
N19280 X-28.565 Y56.324
N19285 X-26.992 Y55.624
N19290 X-25.465 Y54.829
N19295 X-23.991 Y53.94
N19300 X-22.573 Y52.965
N19305 X-21.21 Y51.913
N19310 X-19.9 Y50.795
N19315 X-18.64 Y49.622
N19320 X-17.421 Y48.407
N19325 X-16.236 Y47.157
N19330 X-15.076 Y45.885
N19335 X-13.925 Y44.605
N19340 X-12.977 Y43.57
N19345 X-12.647 Y43.257
N19350 X-12.277 Y42.991
N19355 X-11.873 Y42.779
N19360 X-11.445 Y42.625
N19365 X-10.999 Y42.531
N19370 X-10.545 Y42.5
N19375 X2.881
N19380 G03 X4.052 Y47.159 I-0.087 J2.498
N19385 G01 X-51.126 Y79.286
N19390 G03 X-54.87 Y76.87 I-1.258 J-2.16
N19395 G01 X-53.546 Y67.303
N19400 X-53.311 Y66.064
N19405 X-53.05 Y65.115
N19410 X-52.679 Y64.094
N19415 X-52.166 Y62.969
N19420 X-51.486 Y61.751
N19425 X-50.612 Y60.444
N19430 X-49.543 Y59.094
N19435 X-48.373 Y57.831
N19440 X-47.119 Y56.651
N19445 X-45.796 Y55.55
N19450 X-44.415 Y54.521
N19455 X-42.987 Y53.56
N19460 X-41.524 Y52.652
N19465 X-38.558 Y50.904
N19470 X-37.085 Y50.013
N19475 X-35.631 Y49.09
N19480 X-34.203 Y48.129
N19485 X-32.803 Y47.127
N19490 X-31.432 Y46.086
N19495 X-30.088 Y45.01
N19500 X-28.767 Y43.906
N19505 X-28.052 Y43.294
N19510 X-27.676 Y43.016
N19515 X-27.266 Y42.794
N19520 X-26.828 Y42.632
N19525 X-26.371 Y42.533
N19530 X-25.905 Y42.5
N19535 X-11.608
N19540 G03 X-10.452 Y47.167 I-0.087 J2.498
N19545 G01 X-49.816 Y69.728
N19550 G03 X-53.546 Y67.303 I-1.243 J-2.169
N19555 G01 X-52.171 Y57.371
N19560 X-52. Y56.471
N19565 X-51.737 Y55.515
N19570 X-51.36 Y54.475
N19575 X-50.825 Y53.306
N19580 X-50.079 Y51.969
N19585 X-49.122 Y50.537
N19590 X-48.066 Y49.178
N19595 X-46.941 Y47.875
N19600 X-45.767 Y46.615
N19605 X-44.562 Y45.386
N19610 X-43.337 Y44.176
N19615 X-42.561 Y43.426
N19620 X-42.239 Y43.153
N19625 X-41.885 Y42.923
N19630 X-41.505 Y42.74
N19635 X-41.104 Y42.608
N19640 X-40.69 Y42.527
N19645 X-40.269 Y42.5
N19650 X-25.905
