%
O0001
(T1 D=50. CR=0. - ZMIN=0. - FACE MILL)
(T2 D=25. CR=0. - ZMIN=-5. - FLAT END MILL)
(T4 D=5. CR=0. - ZMIN=-4.9 - FLAT END MILL)
N10 G90 G94 G17 G49 G40 G80
N15 G21
N20 G28 G91 Z0.
N25 G90

(FACEJAR)
N30 T1 M06
N35 T2
N40 S955 M03
N45 G54
N50 M08
N55 G00 X132.5 Y-137.339
N60 G43 Z16. H01
N65 G00 Z6.
N70 G01 Z5. F460.
N75 G18 G03 X127.5 Z0. I-5.
N80 G01 X100.
N85 X85.
N90 X5.
N95 X-5.
N100 X-85.
N105 X-100.
N110 G17 G02 Y-92.154 J22.593
N115 G01 X100.
N120 G03 Y-46.968 J22.593
N125 G01 X-100.
N130 G02 Y-1.782 J22.593
N135 G01 X100.
N140 G03 Y43.404 J22.593
N145 G01 X-100.
N150 G02 Y88.589 J22.593
N155 G01 X100.
N160 G03 Y133.775 J22.593
N165 G01 X85.
N170 X5.
N175 X-5.
N180 X-85.
N185 X-100.
N190 G18 G03 X-105. Z5. K5.
N195 G00 Z16.
N200 G17
N205 M05
N210 G28 G91 Z0.
N215 G90
N220 G49

(CAVIDADES INFERIORES)
N225 M09
N230 M01
N235 T2 M06
N240 T4
N245 S3880 M03
N250 G54
N255 M08
N260 G00 X-83.988 Y172.888
N265 G43 Z16. H02
N270 G00 Z6.
N275 Z0.5
N280 G01 Z-2. F2328.
N285 X-83.983 Y172.882 Z-2.196
N290 X-83.967 Y172.865 Z-2.391
N295 X-83.941 Y172.837 Z-2.584
N300 X-83.905 Y172.797 Z-2.773
N305 X-83.86 Y172.747 Z-2.957
N310 X-83.804 Y172.686 Z-3.135
N315 X-83.74 Y172.616 Z-3.306
N320 X-83.666 Y172.535 Z-3.469
N325 X-83.584 Y172.445 Z-3.624
N330 X-83.494 Y172.347 Z-3.768
N335 X-83.397 Y172.24 Z-3.901
N340 X-83.293 Y172.127 Z-4.023
N345 X-83.183 Y172.006 Z-4.132
N350 X-83.068 Y171.88 Z-4.228
N355 X-82.947 Y171.748 Z-4.31
N360 X-82.823 Y171.612 Z-4.378
N365 X-82.696 Y171.472 Z-4.431
N370 X-82.566 Y171.33 Z-4.469
N375 X-82.435 Y171.186 Z-4.492
N380 X-82.302 Y171.041 Z-4.5
N385 G03 X-81.481 Y170.503 I1.461 J1.334
N390 G01 X-80.96 Y170.341
N395 X-80.21 Y170.076
N400 X-79.461 Y169.758
N405 X-78.711 Y169.358
N410 X-77.961 Y168.923
N415 X-77.212 Y168.405
N420 X-76.462 Y167.79
N425 X-76.103 Y167.474
N430 X-75.931 Y167.323
N435 X-74.994 Y166.625
N440 X-73.792 Y165.871
N445 X-72.245 Y165.066
N450 X-70.627 Y164.383
N455 X-68.969 Y163.807
N460 X-67.282 Y163.319
N465 X-65.576 Y162.904
N470 X-63.856 Y162.552
N475 X-62.126 Y162.253
N480 X-60.389 Y161.998
N485 X-58.647 Y161.78
N490 X-56.901 Y161.595
N495 X-55.152 Y161.436
N500 X-53.402 Y161.301
N505 X-51.65 Y161.185
N510 X-49.897 Y161.087
N515 X-48.143 Y161.002
N520 X-46.389 Y160.93
N525 X-42.879 Y160.815
N530 X-39.368 Y160.731
N535 X-34.102 Y160.645
N540 X-28.835 Y160.591
N545 X-27.079 Y160.578
N550 X-20.056 Y160.542
N555 X-19.593 Y160.575
N560 X-19.14 Y160.678
N565 X-18.708 Y160.848
N570 X-18.307 Y161.081
N575 X-17.945 Y161.371
N580 X-17.631 Y161.713
N585 X-17.371 Y162.098
N590 X-17.173 Y162.518
N595 G03 X-19.273 Y165.816 I-2.364 J0.812
N600 G01 X-73.98 Y171.632
N605 G03 X-76.103 Y167.474 I-0.264 J-2.486
N610 G01 X-75.38 Y166.725
N615 X-74.963 Y166.256
N620 X-74.202 Y165.226
N625 X-73.731 Y164.477
N630 X-73.35 Y163.728
N635 X-72.999 Y162.978
N640 X-72.894 Y162.753
N645 X-72.526 Y162.108
N650 X-72.043 Y161.398
N655 X-71.432 Y160.641
N660 X-70.655 Y159.821
N665 X-69.681 Y158.947
N670 X-68.472 Y158.025
N675 X-66.995 Y157.076
N680 X-65.447 Y156.247
N685 X-63.848 Y155.522
N690 X-62.211 Y154.888
N695 X-60.545 Y154.334
N700 X-58.857 Y153.849
N705 X-57.153 Y153.426
N710 X-55.437 Y153.055
N715 X-53.711 Y152.731
N720 X-51.978 Y152.448
N725 X-50.24 Y152.201
N730 X-48.498 Y151.984
N735 X-46.752 Y151.795
N740 X-45.004 Y151.63
N745 X-43.255 Y151.486
N750 X-41.503 Y151.359
N755 X-39.751 Y151.249
N760 X-37.998 Y151.153
N765 X-36.244 Y151.069
N770 X-32.735 Y150.932
N775 X-30.98 Y150.876
N780 X-29.225 Y150.837
N785 X-27.469 Y150.839
N790 X-25.715 Y150.91
N795 X-23.967 Y151.077
N800 X-22.281 Y151.356
N805 X-20.828 Y151.719
N810 X-19.957 Y152.012
N815 X-19.545 Y152.188
N820 X-19.166 Y152.425
N825 X-18.828 Y152.717
N830 X-18.54 Y153.059
N835 X-18.308 Y153.441
N840 X-18.138 Y153.855
N845 X-18.035 Y154.29
N850 X-18. Y154.736
N855 X-17.996 Y157.733
N860 G03 X-20.191 Y160.14 I-2.499 J-0.074
N865 G01 X-70.335 Y166.285
N870 G03 X-72.999 Y162.978 I-0.304 J-2.481
N875 G01 X-72.708 Y162.229
N880 X-72.49 Y161.48
N885 X-72.301 Y160.73
N890 X-72.159 Y159.981
N895 X-72.073 Y159.232
N900 X-72.018 Y158.482
N905 X-72.008 Y158.348
N910 X-71.913 Y157.76
N915 X-71.756 Y157.119
N920 X-71.518 Y156.403
N925 X-71.194 Y155.638
N930 X-70.75 Y154.788
N935 X-70.193 Y153.902
N940 X-69.481 Y152.95
N945 X-68.589 Y151.937
N950 X-67.489 Y150.875
N955 X-66.144 Y149.77
N960 X-64.702 Y148.768
N965 X-63.194 Y147.869
N970 X-61.633 Y147.064
N975 X-60.032 Y146.344
N980 X-58.399 Y145.7
N985 X-56.74 Y145.124
N990 X-55.061 Y144.611
N995 X-53.366 Y144.152
N1000 X-51.659 Y143.743
N1005 X-49.941 Y143.379
N1010 X-48.216 Y143.054
N1015 X-46.484 Y142.765
N1020 X-44.747 Y142.507
N1025 X-43.006 Y142.278
N1030 X-41.262 Y142.075
N1035 X-39.516 Y141.896
N1040 X-37.767 Y141.743
N1045 X-36.015 Y141.621
N1050 X-34.261 Y141.535
N1055 X-32.506 Y141.49
N1060 X-30.751 Y141.495
N1065 X-28.996 Y141.558
N1070 X-27.245 Y141.685
N1075 X-25.501 Y141.889
N1080 X-23.771 Y142.192
N1085 X-22.153 Y142.594
N1090 X-20.763 Y143.062
N1095 X-20.001 Y143.388
N1100 X-19.574 Y143.609
N1105 X-19.184 Y143.889
N1110 X-18.838 Y144.224
N1115 X-18.545 Y144.605
N1120 X-18.311 Y145.024
N1125 X-18.139 Y145.473
N1130 X-18.035 Y145.942
N1135 X-18. Y146.422
N1140 Y154.736
N1145 G03 X-20.306 Y157.141 I-2.498 J-0.087
N1150 G01 X-69.325 Y160.935
N1155 G03 X-72.018 Y158.482 I-0.193 J-2.493
N1160 G01 X-72.004 Y157.733
N1165 X-72. Y152.488
N1170 X-71.959 Y151.674
N1175 X-71.863 Y150.941
N1180 X-71.698 Y150.168
N1185 X-71.436 Y149.293
N1190 X-71.082 Y148.386
N1195 X-70.598 Y147.387
N1200 X-69.971 Y146.322
N1205 X-69.193 Y145.215
N1210 X-68.219 Y144.041
N1215 X-67.019 Y142.812
N1220 X-65.696 Y141.658
N1225 X-64.293 Y140.602
N1230 X-62.825 Y139.639
N1235 X-61.305 Y138.761
N1240 X-59.742 Y137.961
N1245 X-58.143 Y137.235
N1250 X-56.516 Y136.575
N1255 X-54.866 Y135.976
N1260 X-53.196 Y135.432
N1265 X-51.511 Y134.94
N1270 X-49.812 Y134.495
N1275 X-48.103 Y134.094
N1280 X-46.385 Y133.734
N1285 X-44.658 Y133.414
N1290 X-42.925 Y133.135
N1295 X-41.185 Y132.896
N1300 X-39.441 Y132.699
N1305 X-37.692 Y132.546
N1310 X-35.939 Y132.437
N1315 X-34.185 Y132.375
N1320 X-32.429 Y132.367
N1325 X-30.674 Y132.418
N1330 X-28.922 Y132.53
N1335 X-27.175 Y132.713
N1340 X-25.439 Y132.975
N1345 X-23.72 Y133.332
N1350 X-22.059 Y133.797
N1355 X-20.637 Y134.322
N1360 X-19.777 Y134.72
N1365 X-19.396 Y134.931
N1370 X-19.048 Y135.193
N1375 X-18.742 Y135.502
N1380 X-18.482 Y135.851
N1385 X-18.274 Y136.234
N1390 X-18.123 Y136.642
N1395 X-18.031 Y137.067
N1400 X-18. Y137.501
N1405 Y146.422
N1410 G03 X-20.191 Y148.815 I-2.498 J-0.087
N1415 G01 X-69.194 Y154.882
N1420 G03 X-72. Y152.488 I-0.307 J-2.481
N1425 G01 Y144.995
N1430 X-71.943 Y143.85
N1435 X-71.837 Y143.048
N1440 X-71.656 Y142.197
N1445 X-71.368 Y141.238
N1450 X-70.977 Y140.233
N1455 X-70.448 Y139.144
N1460 X-69.759 Y137.972
N1465 X-68.888 Y136.734
N1470 X-67.813 Y135.437
N1475 X-66.586 Y134.181
N1480 X-65.27 Y133.019
N1485 X-63.88 Y131.946
N1490 X-62.429 Y130.958
N1495 X-60.927 Y130.048
N1500 X-59.383 Y129.212
N1505 X-57.805 Y128.444
N1510 X-56.196 Y127.74
N1515 X-54.563 Y127.096
N1520 X-52.908 Y126.509
N1525 X-51.235 Y125.976
N1530 X-49.546 Y125.494
N1535 X-47.845 Y125.063
N1540 X-46.131 Y124.679
N1545 X-44.408 Y124.343
N1550 X-42.676 Y124.055
N1555 X-40.937 Y123.815
N1560 X-39.191 Y123.624
N1565 X-37.441 Y123.482
N1570 X-35.688 Y123.391
N1575 X-33.933 Y123.353
N1580 X-32.177 Y123.373
N1585 X-30.423 Y123.454
N1590 X-28.673 Y123.599
N1595 X-26.931 Y123.816
N1600 X-25.2 Y124.112
N1605 X-23.488 Y124.499
N1610 X-21.817 Y124.996
N1615 X-20.398 Y125.547
N1620 X-19.864 Y125.805
N1625 X-19.463 Y126.034
N1630 X-19.099 Y126.317
N1635 X-18.777 Y126.649
N1640 X-18.505 Y127.022
N1645 X-18.287 Y127.429
N1650 X-18.129 Y127.863
N1655 X-18.032 Y128.315
N1660 X-18. Y128.776
N1665 Y137.501
N1670 G03 X-20.121 Y139.885 I-2.498 J-0.087
N1675 G01 X-69.124 Y147.379
N1680 G03 X-72. Y144.995 I-0.378 J-2.471
N1685 G01 Y136.34
N1690 X-71.96 Y135.545
N1695 X-71.852 Y134.718
N1700 X-71.657 Y133.806
N1705 X-71.354 Y132.795
N1710 X-70.94 Y131.733
N1715 X-70.379 Y130.575
N1720 X-69.647 Y129.333
N1725 X-68.723 Y128.017
N1730 X-67.601 Y126.666
N1735 X-66.377 Y125.407
N1740 X-65.069 Y124.236
N1745 X-63.689 Y123.15
N1750 X-62.25 Y122.144
N1755 X-60.761 Y121.214
N1760 X-59.995 Y120.784
N1765 X-57.951 Y119.722
N1770 X-56.359 Y118.981
N1775 X-54.74 Y118.302
N1780 X-53.097 Y117.683
N1785 X-51.434 Y117.12
N1790 X-49.753 Y116.612
N1795 X-48.057 Y116.159
N1800 X-46.347 Y115.758
N1805 X-44.627 Y115.408
N1810 X-42.896 Y115.11
N1815 X-41.158 Y114.862
N1820 X-39.413 Y114.666
N1825 X-37.664 Y114.521
N1830 X-35.91 Y114.43
N1835 X-34.155 Y114.394
N1840 X-32.399 Y114.416
N1845 X-30.645 Y114.497
N1850 X-28.896 Y114.643
N1855 X-27.153 Y114.86
N1860 X-25.422 Y115.152
N1865 X-23.709 Y115.535
N1870 X-22.024 Y116.03
N1875 X-20.576 Y116.583
N1880 X-19.879 Y116.915
N1885 X-19.475 Y117.144
N1890 X-19.108 Y117.427
N1895 X-18.783 Y117.759
N1900 X-18.509 Y118.133
N1905 X-18.29 Y118.542
N1910 X-18.13 Y118.977
N1915 X-18.033 Y119.431
N1920 X-18. Y119.894
N1925 Y128.776
N1930 G03 X-20.117 Y131.159 I-2.498 J-0.087
N1935 G01 X-69.12 Y138.723
N1940 G03 X-72. Y136.34 I-0.381 J-2.471
N1945 G01 Y127.76
N1950 X-71.958 Y126.918
N1955 X-71.847 Y126.071
N1960 X-71.645 Y125.127
N1965 X-71.333 Y124.086
N1970 X-70.905 Y122.988
N1975 X-70.325 Y121.792
N1980 X-69.59 Y120.543
N1985 X-68.634 Y119.182
N1990 X-67.512 Y117.831
N1995 X-66.292 Y116.568
N2000 X-64.989 Y115.392
N2005 X-63.616 Y114.297
N2010 X-62.185 Y113.279
N2015 X-60.704 Y112.337
N2020 X-59.18 Y111.466
N2025 X-57.618 Y110.663
N2030 X-56.025 Y109.925
N2035 X-54.404 Y109.25
N2040 X-52.76 Y108.634
N2045 X-51.095 Y108.076
N2050 X-49.413 Y107.574
N2055 X-47.715 Y107.126
N2060 X-46.004 Y106.731
N2065 X-44.282 Y106.39
N2070 X-42.55 Y106.102
N2075 X-40.81 Y105.866
N2080 X-39.064 Y105.682
N2085 X-37.313 Y105.552
N2090 X-35.559 Y105.474
N2095 X-33.803 Y105.453
N2100 X-32.048 Y105.491
N2105 X-30.295 Y105.591
N2110 X-28.547 Y105.754
N2115 X-26.807 Y105.99
N2120 X-25.08 Y106.304
N2125 X-23.372 Y106.712
N2130 X-21.714 Y107.228
N2135 X-20.3 Y107.797
N2140 X-19.827 Y108.033
N2145 X-19.433 Y108.265
N2150 X-19.075 Y108.549
N2155 X-18.76 Y108.879
N2160 X-18.494 Y109.25
N2165 X-18.281 Y109.654
N2170 X-18.126 Y110.084
N2175 X-18.032 Y110.531
N2180 X-18. Y110.986
N2185 Y119.894
N2190 G03 X-20.102 Y122.275 I-2.498 J-0.087
N2195 G01 X-69.105 Y130.141
N2200 G03 X-72. Y127.76 I-0.396 J-2.468
N2205 G01 Y118.768
N2210 X-71.969 Y118.146
N2215 X-71.856 Y117.286
N2220 X-71.651 Y116.325
N2225 X-71.333 Y115.265
N2230 X-70.897 Y114.147
N2235 X-70.308 Y112.931
N2240 X-69.541 Y111.628
N2245 X-68.572 Y110.25
N2250 X-67.451 Y108.899
N2255 X-66.232 Y107.635
N2260 X-64.93 Y106.457
N2265 X-63.56 Y105.359
N2270 X-62.13 Y104.34
N2275 X-60.65 Y103.396
N2280 X-59.127 Y102.522
N2285 X-57.567 Y101.717
N2290 X-55.974 Y100.977
N2295 X-54.355 Y100.3
N2300 X-52.711 Y99.682
N2305 X-51.047 Y99.123
N2310 X-49.365 Y98.62
N2315 X-47.667 Y98.172
N2320 X-45.956 Y97.779
N2325 X-44.233 Y97.44
N2330 X-42.501 Y97.154
N2335 X-41.426 Y97.013
N2340 X-41.133 Y97.
N2345 X-32.234
N2350 X-28.727 Y97.183
N2355 X-26.981 Y97.361
N2360 X-25.245 Y97.624
N2365 X-23.527 Y97.986
N2370 X-21.907 Y98.45
N2375 X-20.514 Y98.973
N2380 X-19.896 Y99.264
N2385 X-19.489 Y99.491
N2390 X-19.118 Y99.774
N2395 X-18.791 Y100.106
N2400 X-18.514 Y100.481
N2405 X-18.293 Y100.892
N2410 X-18.131 Y101.329
N2415 X-18.033 Y101.785
N2420 X-18. Y102.25
N2425 Y110.986
N2430 G03 X-22.247 Y112.686 I-2.498 J-0.087
N2435 G01 X-33.895 Y101.285
N2440 G03 X-32.234 Y97. I1.749 J-1.787
N2445 G01 X-20.99
N2450 X-20.24 Y97.015
N2455 X-20.079 Y97.038
N2460 X-19.785 Y97.108
N2465 X-19.49 Y97.218
N2470 X-19.116 Y97.426
N2475 X-18.928 Y97.566
N2480 X-18.691 Y97.787
N2485 X-18.53 Y97.974
N2490 X-18.397 Y98.162
N2495 X-18.199 Y98.536
N2500 X-18.074 Y98.911
N2505 X-18.01 Y99.286
N2510 X-18. Y100.035
N2515 Y102.25
N2520 G03 X-19.7 Y104.532 I-2.498 J-0.087
N2525 G01 X-68.703 Y121.05
N2530 G03 X-72. Y118.768 I-0.799 J-2.369
N2535 G01 Y109.776
N2540 X-71.974 Y109.263
N2545 X-71.861 Y108.399
N2550 X-71.654 Y107.43
N2555 X-71.335 Y106.365
N2560 X-70.897 Y105.24
N2565 X-70.303 Y104.017
N2570 X-69.532 Y102.707
N2575 X-68.559 Y101.321
N2580 X-67.437 Y99.97
N2585 X-66.219 Y98.707
N2590 X-65.28 Y97.856
N2595 X-64.898 Y97.557
N2600 X-64.475 Y97.317
N2605 X-64.022 Y97.142
N2610 X-63.548 Y97.036
N2615 X-63.063 Y97.
N2620 X-41.133
N2625 G03 X-40.372 Y101.85 I-0.087 J2.498
N2630 G01 X-68.654 Y112.041
N2635 G03 X-72. Y109.776 I-0.847 J-2.352
N2640 G01 Y101.534
N2645 X-71.941 Y100.358
N2650 X-71.84 Y99.584
N2655 X-71.781 Y99.309
N2660 X-71.658 Y98.891
N2665 X-71.474 Y98.495
N2670 X-71.233 Y98.131
N2675 X-70.941 Y97.807
N2680 X-70.603 Y97.53
N2685 X-70.229 Y97.307
N2690 X-69.825 Y97.142
N2695 X-69.4 Y97.039
N2700 X-68.966 Y97.
N2705 G03 X-66.617 Y100.059 I-0.087 J2.498
N2710 G01 X-67.065 Y102.007
N2715 G03 X-72. Y101.534 I-2.436 J-0.561
N2720 G01 Y100.035
N2725 X-71.99 Y99.286
N2730 X-71.964 Y99.093
N2735 X-71.9 Y98.814
N2740 X-71.801 Y98.536
N2745 X-71.603 Y98.162
N2750 X-71.47 Y97.974
N2755 X-71.308 Y97.787
N2760 X-71.215 Y97.693
N2765 X-71.027 Y97.531
N2770 X-70.84 Y97.398
N2775 X-70.465 Y97.199
N2780 X-70.192 Y97.102
N2785 X-69.919 Y97.038
N2790 X-69.715 Y97.01
N2795 X-68.966 Y97.
N2800 X-63.063
N2805 G03 X-62.114 Y97.224 I-0.087 J2.498
N2810 G01 X-61.935 Y97.305 Z-4.492
N2815 X-61.758 Y97.386 Z-4.469
N2820 X-61.583 Y97.466 Z-4.431
N2825 X-61.411 Y97.544 Z-4.378
N2830 X-61.243 Y97.62 Z-4.31
N2835 X-61.081 Y97.694 Z-4.228
N2840 X-60.925 Y97.765 Z-4.132
N2845 X-60.777 Y97.833 Z-4.023
N2850 X-60.636 Y97.897 Z-3.901
N2855 X-60.505 Y97.957 Z-3.768
N2860 X-60.384 Y98.012 Z-3.624
N2865 X-60.273 Y98.062 Z-3.469
N2870 X-60.174 Y98.108 Z-3.306
N2875 X-60.087 Y98.147 Z-3.135
N2880 X-60.012 Y98.181 Z-2.957
N2885 X-59.95 Y98.21 Z-2.773
N2890 X-59.902 Y98.232 Z-2.584
N2895 X-59.867 Y98.248 Z-2.391
N2900 X-59.846 Y98.257 Z-2.196
N2905 X-59.839 Y98.26 Z-2.
N2910 G00 Z6.
N2915 X5.909 Y172.769
N2920 Z0.5
N2925 G01 Z-2. F2328.
N2930 X5.915 Y172.763 Z-2.196
N2935 X5.931 Y172.747 Z-2.391
N2940 X5.958 Y172.72 Z-2.584
N2945 X5.996 Y172.682 Z-2.773
N2950 X6.044 Y172.635 Z-2.957
N2955 X6.102 Y172.576 Z-3.135
N2960 X6.17 Y172.509 Z-3.306
N2965 X6.247 Y172.432 Z-3.469
N2970 X6.333 Y172.346 Z-3.624
N2975 X6.428 Y172.252 Z-3.768
N2980 X6.53 Y172.15 Z-3.901
N2985 X6.639 Y172.041 Z-4.023
N2990 X6.754 Y171.926 Z-4.132
N2995 X6.876 Y171.805 Z-4.228
N3000 X7.002 Y171.679 Z-4.31
N3005 X7.132 Y171.549 Z-4.378
N3010 X7.266 Y171.415 Z-4.431
N3015 X7.402 Y171.279 Z-4.469
N3020 X7.54 Y171.142 Z-4.492
N3025 X7.679 Y171.003 Z-4.5
N3030 G03 X8.524 Y170.504 I1.397 J1.4
N3035 G01 X8.652 Y170.472
N3040 X9.745 Y170.102
N3045 X10.61 Y169.722
N3050 X11.244 Y169.382
N3055 X11.994 Y168.957
N3060 X13.024 Y168.224
N3065 X13.493 Y167.833
N3070 X13.894 Y167.474
N3075 X14.055 Y167.332
N3080 X14.989 Y166.635
N3085 X16.187 Y165.882
N3090 X17.728 Y165.078
N3095 X19.345 Y164.393
N3100 X21.003 Y163.815
N3105 X22.689 Y163.326
N3110 X24.395 Y162.91
N3115 X26.115 Y162.557
N3120 X27.845 Y162.257
N3125 X29.582 Y162.001
N3130 X31.324 Y161.783
N3135 X33.07 Y161.597
N3140 X34.819 Y161.439
N3145 X36.569 Y161.303
N3150 X38.321 Y161.187
N3155 X40.074 Y161.088
N3160 X41.828 Y161.003
N3165 X43.582 Y160.931
N3170 X47.092 Y160.816
N3175 X50.602 Y160.732
N3180 X55.869 Y160.645
N3185 X61.136 Y160.591
N3190 X62.892 Y160.578
N3195 X69.915 Y160.542
N3200 X70.381 Y160.576
N3205 X70.836 Y160.678
N3210 X71.271 Y160.848
N3215 X71.676 Y161.082
N3220 X72.041 Y161.373
N3225 X72.358 Y161.715
N3230 X72.62 Y162.102
N3235 X72.822 Y162.523
N3240 G03 X70.728 Y165.834 I-2.36 J0.825
N3245 G01 X15.965 Y171.69
N3250 G03 X13.894 Y167.474 I-0.266 J-2.486
N3255 G01 X14.243 Y167.135
N3260 X14.627 Y166.725
N3265 X14.993 Y166.305
N3270 X15.263 Y165.976
N3275 X15.742 Y165.304
N3280 X16.258 Y164.477
N3285 X16.492 Y164.056
N3290 X16.653 Y163.728
N3295 X16.997 Y162.978
N3300 X17.073 Y162.812
N3305 X17.431 Y162.171
N3310 X17.902 Y161.47
N3315 X18.499 Y160.717
N3320 X19.261 Y159.901
N3325 X20.214 Y159.032
N3330 X21.399 Y158.114
N3335 X22.869 Y157.154
N3340 X24.412 Y156.315
N3345 X26.007 Y155.581
N3350 X27.641 Y154.94
N3355 X29.305 Y154.379
N3360 X30.991 Y153.889
N3365 X32.694 Y153.46
N3370 X34.409 Y153.086
N3375 X36.134 Y152.758
N3380 X37.866 Y152.471
N3385 X39.604 Y152.221
N3390 X41.346 Y152.002
N3395 X43.091 Y151.811
N3400 X44.839 Y151.644
N3405 X46.589 Y151.497
N3410 X48.34 Y151.37
N3415 X50.092 Y151.258
N3420 X51.845 Y151.161
N3425 X53.599 Y151.076
N3430 X57.108 Y150.937
N3435 X58.863 Y150.881
N3440 X60.618 Y150.839
N3445 X62.374 Y150.837
N3450 X64.128 Y150.902
N3455 X65.877 Y151.061
N3460 X67.587 Y151.334
N3465 X69.056 Y151.691
N3470 X70.032 Y152.013
N3475 X70.445 Y152.187
N3480 X70.827 Y152.422
N3485 X71.166 Y152.715
N3490 X71.456 Y153.056
N3495 X71.69 Y153.439
N3500 X71.861 Y153.853
N3505 X71.965 Y154.289
N3510 X72. Y154.736
N3515 X72.004 Y157.733
N3520 G03 X69.808 Y160.14 I-2.499 J-0.074
N3525 G01 X19.664 Y166.272
N3530 G03 X16.997 Y162.978 I-0.303 J-2.482
N3535 G01 X17.284 Y162.229
N3540 X17.524 Y161.48
N3545 X17.699 Y160.73
N3550 X17.841 Y159.981
N3555 X17.927 Y159.232
N3560 X17.982 Y158.482
N3565 X17.992 Y158.348
N3570 X18.088 Y157.751
N3575 X18.243 Y157.12
N3580 X18.483 Y156.396
N3585 X18.805 Y155.637
N3590 X19.248 Y154.79
N3595 X19.809 Y153.897
N3600 X20.519 Y152.948
N3605 X21.409 Y151.938
N3610 X22.508 Y150.876
N3615 X23.854 Y149.77
N3620 X25.296 Y148.768
N3625 X26.804 Y147.87
N3630 X28.365 Y147.065
N3635 X29.966 Y146.344
N3640 X31.599 Y145.7
N3645 X33.258 Y145.125
N3650 X34.937 Y144.611
N3655 X36.632 Y144.153
N3660 X38.339 Y143.744
N3665 X40.057 Y143.379
N3670 X41.782 Y143.054
N3675 X43.514 Y142.765
N3680 X45.251 Y142.508
N3685 X46.992 Y142.279
N3690 X48.736 Y142.075
N3695 X50.482 Y141.896
N3700 X52.231 Y141.743
N3705 X53.983 Y141.621
N3710 X55.737 Y141.536
N3715 X57.492 Y141.492
N3720 X59.248 Y141.496
N3725 X61.002 Y141.559
N3730 X62.753 Y141.688
N3735 X64.497 Y141.892
N3740 X66.227 Y142.194
N3745 X67.847 Y142.597
N3750 X69.238 Y143.065
N3755 X69.999 Y143.391
N3760 X70.426 Y143.612
N3765 X70.816 Y143.893
N3770 X71.162 Y144.227
N3775 X71.455 Y144.608
N3780 X71.689 Y145.027
N3785 X71.861 Y145.476
N3790 X71.965 Y145.945
N3795 X72. Y146.425
N3800 Y154.736
N3805 G03 X69.694 Y157.141 I-2.498 J-0.087
N3810 G01 X20.675 Y160.935
N3815 G03 X17.982 Y158.482 I-0.193 J-2.493
N3820 G01 X17.996 Y157.733
N3825 X18. Y152.488
N3830 X18.041 Y151.673
N3835 X18.137 Y150.94
N3840 X18.302 Y150.168
N3845 X18.564 Y149.293
N3850 X18.918 Y148.386
N3855 X19.402 Y147.387
N3860 X20.029 Y146.322
N3865 X20.807 Y145.214
N3870 X21.781 Y144.041
N3875 X22.98 Y142.812
N3880 X24.303 Y141.658
N3885 X25.707 Y140.602
N3890 X27.174 Y139.639
N3895 X28.695 Y138.761
N3900 X30.258 Y137.962
N3905 X31.856 Y137.235
N3910 X33.483 Y136.575
N3915 X35.134 Y135.976
N3920 X36.803 Y135.432
N3925 X38.489 Y134.94
N3930 X40.187 Y134.495
N3935 X41.897 Y134.094
N3940 X43.615 Y133.734
N3945 X45.341 Y133.414
N3950 X47.075 Y133.135
N3955 X48.814 Y132.897
N3960 X50.559 Y132.7
N3965 X52.308 Y132.547
N3970 X54.061 Y132.438
N3975 X55.815 Y132.376
N3980 X57.571 Y132.369
N3985 X59.326 Y132.419
N3990 X61.078 Y132.532
N3995 X62.824 Y132.715
N4000 X64.56 Y132.977
N4005 X66.28 Y133.334
N4010 X67.941 Y133.799
N4015 X69.363 Y134.324
N4020 X70.226 Y134.724
N4025 X70.606 Y134.934
N4030 X70.953 Y135.196
N4035 X71.259 Y135.505
N4040 X71.519 Y135.854
N4045 X71.726 Y136.236
N4050 X71.877 Y136.643
N4055 X71.969 Y137.068
N4060 X72. Y137.501
N4065 Y146.425
N4070 G03 X69.809 Y148.818 I-2.498 J-0.087
N4075 G01 X20.805 Y154.882
N4080 G03 X18. Y152.488 I-0.307 J-2.481
N4085 G01 Y144.995
N4090 X18.057 Y143.85
N4095 X18.163 Y143.047
N4100 X18.344 Y142.197
N4105 X18.632 Y141.238
N4110 X19.023 Y140.233
N4115 X19.552 Y139.144
N4120 X20.241 Y137.972
N4125 X21.111 Y136.734
N4130 X22.187 Y135.437
N4135 X23.414 Y134.181
N4140 X24.73 Y133.019
N4145 X26.12 Y131.946
N4150 X27.571 Y130.958
N4155 X29.073 Y130.048
N4160 X30.616 Y129.212
N4165 X32.195 Y128.444
N4170 X33.804 Y127.74
N4175 X35.437 Y127.096
N4180 X37.092 Y126.509
N4185 X38.765 Y125.976
N4190 X40.454 Y125.495
N4195 X42.155 Y125.063
N4200 X43.869 Y124.679
N4205 X45.592 Y124.344
N4210 X47.324 Y124.056
N4215 X49.063 Y123.816
N4220 X50.809 Y123.625
N4225 X52.559 Y123.484
N4230 X54.312 Y123.392
N4235 X56.068 Y123.355
N4240 X57.823 Y123.375
N4245 X59.577 Y123.456
N4250 X61.327 Y123.601
N4255 X63.069 Y123.818
N4260 X64.8 Y124.114
N4265 X66.512 Y124.501
N4270 X68.183 Y124.999
N4275 X69.602 Y125.549
N4280 X70.136 Y125.807
N4285 X70.537 Y126.036
N4290 X70.901 Y126.319
N4295 X71.223 Y126.651
N4300 X71.495 Y127.024
N4305 X71.713 Y127.431
N4310 X71.871 Y127.865
N4315 X71.968 Y128.317
N4320 X72. Y128.778
N4325 Y137.501
N4330 G03 X69.879 Y139.885 I-2.498 J-0.087
N4335 G01 X20.876 Y147.379
N4340 G03 X18. Y144.995 I-0.378 J-2.471
N4345 G01 Y136.34
N4350 X18.04 Y135.545
N4355 X18.148 Y134.718
N4360 X18.343 Y133.806
N4365 X18.646 Y132.795
N4370 X19.06 Y131.733
N4375 X19.621 Y130.575
N4380 X20.353 Y129.333
N4385 X21.277 Y128.017
N4390 X22.399 Y126.666
N4395 X23.623 Y125.407
N4400 X24.931 Y124.236
N4405 X26.311 Y123.15
N4410 X27.75 Y122.144
N4415 X29.239 Y121.214
N4420 X30.005 Y120.785
N4425 X32.049 Y119.722
N4430 X33.641 Y118.981
N4435 X35.261 Y118.303
N4440 X36.903 Y117.683
N4445 X38.567 Y117.121
N4450 X40.247 Y116.613
N4455 X41.944 Y116.159
N4460 X43.653 Y115.758
N4465 X45.374 Y115.409
N4470 X47.104 Y115.111
N4475 X48.842 Y114.863
N4480 X50.587 Y114.667
N4485 X52.337 Y114.522
N4490 X54.09 Y114.431
N4495 X55.845 Y114.396
N4500 X57.601 Y114.418
N4505 X59.355 Y114.499
N4510 X61.105 Y114.644
N4515 X62.847 Y114.862
N4520 X64.578 Y115.154
N4525 X66.292 Y115.537
N4530 X67.976 Y116.032
N4535 X69.424 Y116.585
N4540 X70.121 Y116.917
N4545 X70.525 Y117.146
N4550 X70.892 Y117.429
N4555 X71.217 Y117.761
N4560 X71.491 Y118.135
N4565 X71.71 Y118.544
N4570 X71.87 Y118.979
N4575 X71.967 Y119.433
N4580 X72. Y119.896
N4585 Y128.778
N4590 G03 X69.883 Y131.161 I-2.498 J-0.087
N4595 G01 X20.88 Y138.723
N4600 G03 X18. Y136.34 I-0.381 J-2.471
N4605 G01 Y127.76
N4610 X18.042 Y126.918
N4615 X18.153 Y126.071
N4620 X18.355 Y125.127
N4625 X18.667 Y124.086
N4630 X19.095 Y122.988
N4635 X19.675 Y121.792
N4640 X20.41 Y120.544
N4645 X21.366 Y119.182
N4650 X22.488 Y117.831
N4655 X23.708 Y116.569
N4660 X25.011 Y115.392
N4665 X26.383 Y114.297
N4670 X27.815 Y113.28
N4675 X29.296 Y112.337
N4680 X30.82 Y111.466
N4685 X32.382 Y110.663
N4690 X33.975 Y109.926
N4695 X35.596 Y109.25
N4700 X37.24 Y108.635
N4705 X38.905 Y108.077
N4710 X40.587 Y107.575
N4715 X42.285 Y107.127
N4720 X43.996 Y106.732
N4725 X45.718 Y106.391
N4730 X47.45 Y106.103
N4735 X49.19 Y105.867
N4740 X50.936 Y105.684
N4745 X52.687 Y105.553
N4750 X54.441 Y105.476
N4755 X56.197 Y105.455
N4760 X57.952 Y105.493
N4765 X59.705 Y105.593
N4770 X61.453 Y105.756
N4775 X63.193 Y105.992
N4780 X64.92 Y106.306
N4785 X66.628 Y106.714
N4790 X68.286 Y107.23
N4795 X69.7 Y107.799
N4800 X70.173 Y108.035
N4805 X70.567 Y108.267
N4810 X70.925 Y108.551
N4815 X71.24 Y108.881
N4820 X71.506 Y109.252
N4825 X71.719 Y109.656
N4830 X71.874 Y110.086
N4835 X71.968 Y110.532
N4840 X72. Y110.988
N4845 Y119.896
N4850 G03 X69.898 Y122.277 I-2.498 J-0.087
N4855 G01 X20.895 Y130.141
N4860 G03 X18. Y127.76 I-0.396 J-2.468
N4865 G01 Y118.768
N4870 X18.031 Y118.146
N4875 X18.144 Y117.286
N4880 X18.349 Y116.325
N4885 X18.667 Y115.265
N4890 X19.102 Y114.147
N4895 X19.692 Y112.931
N4900 X20.459 Y111.629
N4905 X21.427 Y110.25
N4910 X22.549 Y108.899
N4915 X23.768 Y107.636
N4920 X25.069 Y106.457
N4925 X26.44 Y105.36
N4930 X27.87 Y104.341
N4935 X29.35 Y103.396
N4940 X30.873 Y102.523
N4945 X32.433 Y101.718
N4950 X34.026 Y100.978
N4955 X35.645 Y100.3
N4960 X37.289 Y99.683
N4965 X38.953 Y99.124
N4970 X40.636 Y98.621
N4975 X42.333 Y98.173
N4980 X44.045 Y97.781
N4985 X45.767 Y97.441
N4990 X47.5 Y97.155
N4995 X48.584 Y97.013
N5000 X48.877 Y97.
N5005 X57.721
N5010 X61.228 Y97.181
N5015 X62.975 Y97.357
N5020 X64.711 Y97.618
N5025 X66.43 Y97.977
N5030 X68.056 Y98.439
N5035 X69.454 Y98.961
N5040 X70.098 Y99.263
N5045 X70.506 Y99.49
N5050 X70.878 Y99.773
N5055 X71.206 Y100.105
N5060 X71.484 Y100.481
N5065 X71.706 Y100.891
N5070 X71.868 Y101.329
N5075 X71.967 Y101.786
N5080 X72. Y102.252
N5085 Y110.988
N5090 G03 X67.756 Y112.691 I-2.498 J-0.087
N5095 G01 X56.063 Y101.288
N5100 G03 X57.721 Y97. I1.745 J-1.79
N5105 G01 X68.966
N5110 X69.715 Y97.01
N5115 X69.919 Y97.038
N5120 X70.192 Y97.102
N5125 X70.465 Y97.199
N5130 X70.84 Y97.398
N5135 X71.027 Y97.531
N5140 X71.215 Y97.693
N5145 X71.308 Y97.787
N5150 X71.47 Y97.974
N5155 X71.603 Y98.162
N5160 X71.801 Y98.536
N5165 X71.9 Y98.814
N5170 X71.964 Y99.093
N5175 X71.99 Y99.286
N5180 X72. Y100.035
N5185 Y102.252
N5190 G03 X70.3 Y104.534 I-2.498 J-0.087
N5195 G01 X21.297 Y121.05
N5200 G03 X18. Y118.768 I-0.798 J-2.369
N5205 G01 Y109.776
N5210 X18.026 Y109.264
N5215 X18.139 Y108.399
N5220 X18.346 Y107.43
N5225 X18.665 Y106.365
N5230 X19.103 Y105.241
N5235 X19.697 Y104.018
N5240 X20.468 Y102.708
N5245 X21.441 Y101.322
N5250 X22.563 Y99.971
N5255 X23.781 Y98.707
N5260 X24.72 Y97.856
N5265 X25.103 Y97.557
N5270 X25.526 Y97.317
N5275 X25.979 Y97.142
N5280 X26.453 Y97.036
N5285 X26.937 Y97.
N5290 X48.877
N5295 G03 X49.637 Y101.851 I-0.087 J2.498
N5300 G01 X21.346 Y112.041
N5305 G03 X18. Y109.776 I-0.847 J-2.352
N5310 G01 Y101.534
N5315 X18.059 Y100.359
N5320 X18.16 Y99.584
N5325 X18.225 Y99.281
N5330 X18.346 Y98.869
N5335 X18.527 Y98.48
N5340 X18.763 Y98.121
N5345 X19.05 Y97.802
N5350 X19.381 Y97.529
N5355 X19.749 Y97.308
N5360 X20.146 Y97.144
N5365 X20.562 Y97.04
N5370 X20.99 Y97.
N5375 G03 X23.35 Y100.006 I-0.087 J2.498
N5380 G01 X22.946 Y101.954
N5385 G03 X18. Y101.534 I-2.448 J-0.508
N5390 G01 Y100.035
N5395 X18.01 Y99.286
N5400 X18.074 Y98.911
N5405 X18.199 Y98.536
N5410 X18.397 Y98.162
N5415 X18.53 Y97.974
N5420 X18.741 Y97.736
N5425 X18.928 Y97.566
N5430 X19.116 Y97.426
N5435 X19.49 Y97.218
N5440 X19.785 Y97.108
N5445 X20.079 Y97.038
N5450 X20.24 Y97.015
N5455 X20.99 Y97.
N5460 X26.937
N5465 X27.052 Y97.014 Z-4.493
N5470 X27.165 Y97.028 Z-4.473
N5475 X27.275 Y97.042 Z-4.439
N5480 X27.38 Y97.055 Z-4.392
N5485 X27.471 Y97.084 Z-4.337
N5490 X27.554 Y97.11 Z-4.271
N5495 X27.631 Y97.134 Z-4.196
N5500 X27.699 Y97.155 Z-4.113
N5505 X27.757 Y97.173 Z-4.022
N5510 X27.806 Y97.188 Z-3.925
N5515 X27.841 Y97.204 Z-3.827
N5520 X27.866 Y97.215 Z-3.726
N5525 X27.882 Y97.221 Z-3.623
N5530 X27.887 Y97.224 Z-3.518
N5535 G00 Z6.
N5540 X-5.909 Y-172.769
N5545 Z0.5
N5550 G01 Z-2. F2328.
N5555 X-5.915 Y-172.763 Z-2.196
N5560 X-5.931 Y-172.747 Z-2.391
N5565 X-5.958 Y-172.72 Z-2.584
N5570 X-5.996 Y-172.682 Z-2.773
N5575 X-6.044 Y-172.635 Z-2.957
N5580 X-6.102 Y-172.576 Z-3.135
N5585 X-6.17 Y-172.509 Z-3.306
N5590 X-6.247 Y-172.432 Z-3.469
N5595 X-6.333 Y-172.346 Z-3.624
N5600 X-6.428 Y-172.252 Z-3.768
N5605 X-6.53 Y-172.15 Z-3.901
N5610 X-6.639 Y-172.041 Z-4.023
N5615 X-6.754 Y-171.926 Z-4.132
N5620 X-6.876 Y-171.805 Z-4.228
N5625 X-7.002 Y-171.679 Z-4.31
N5630 X-7.132 Y-171.549 Z-4.378
N5635 X-7.266 Y-171.415 Z-4.431
N5640 X-7.402 Y-171.279 Z-4.469
N5645 X-7.54 Y-171.142 Z-4.492
N5650 X-7.679 Y-171.003 Z-4.5
N5655 G03 X-8.524 Y-170.504 I-1.397 J-1.4
N5660 G01 X-8.652 Y-170.472
N5665 X-9.745 Y-170.102
N5670 X-10.61 Y-169.722
N5675 X-11.244 Y-169.382
N5680 X-11.994 Y-168.957
N5685 X-13.024 Y-168.224
N5690 X-13.493 Y-167.833
N5695 X-13.894 Y-167.474
N5700 X-14.055 Y-167.332
N5705 X-14.989 Y-166.635
N5710 X-16.187 Y-165.882
N5715 X-17.728 Y-165.078
N5720 X-19.345 Y-164.393
N5725 X-21.003 Y-163.815
N5730 X-22.689 Y-163.326
N5735 X-24.395 Y-162.91
N5740 X-26.115 Y-162.557
N5745 X-27.845 Y-162.257
N5750 X-29.582 Y-162.001
N5755 X-31.324 Y-161.783
N5760 X-33.07 Y-161.597
N5765 X-34.819 Y-161.439
N5770 X-36.569 Y-161.303
N5775 X-38.321 Y-161.187
N5780 X-40.074 Y-161.088
N5785 X-41.828 Y-161.003
N5790 X-43.582 Y-160.931
N5795 X-47.092 Y-160.816
N5800 X-50.602 Y-160.732
N5805 X-55.869 Y-160.645
N5810 X-61.136 Y-160.591
N5815 X-62.892 Y-160.578
N5820 X-69.915 Y-160.542
N5825 X-70.381 Y-160.576
N5830 X-70.836 Y-160.678
N5835 X-71.271 Y-160.848
N5840 X-71.676 Y-161.082
N5845 X-72.041 Y-161.373
N5850 X-72.358 Y-161.715
N5855 X-72.62 Y-162.102
N5860 X-72.822 Y-162.523
N5865 G03 X-70.728 Y-165.834 I2.36 J-0.825
N5870 G01 X-15.965 Y-171.69
N5875 G03 X-13.894 Y-167.474 I0.266 J2.486
N5880 G01 X-14.243 Y-167.135
N5885 X-14.627 Y-166.725
N5890 X-14.993 Y-166.305
N5895 X-15.263 Y-165.976
N5900 X-15.742 Y-165.304
N5905 X-16.258 Y-164.477
N5910 X-16.492 Y-164.056
N5915 X-16.653 Y-163.728
N5920 X-16.997 Y-162.978
N5925 X-17.073 Y-162.812
N5930 X-17.431 Y-162.171
N5935 X-17.902 Y-161.47
N5940 X-18.499 Y-160.717
N5945 X-19.261 Y-159.901
N5950 X-20.214 Y-159.032
N5955 X-21.399 Y-158.114
N5960 X-22.869 Y-157.154
N5965 X-24.412 Y-156.315
N5970 X-26.007 Y-155.581
N5975 X-27.641 Y-154.94
N5980 X-29.305 Y-154.379
N5985 X-30.991 Y-153.889
N5990 X-32.694 Y-153.46
N5995 X-34.409 Y-153.086
N6000 X-36.134 Y-152.758
N6005 X-37.866 Y-152.471
N6010 X-39.604 Y-152.221
N6015 X-41.346 Y-152.002
N6020 X-43.091 Y-151.811
N6025 X-44.839 Y-151.644
N6030 X-46.589 Y-151.497
N6035 X-48.34 Y-151.37
N6040 X-50.092 Y-151.258
N6045 X-51.845 Y-151.161
N6050 X-53.599 Y-151.076
N6055 X-57.108 Y-150.937
N6060 X-58.863 Y-150.881
N6065 X-60.618 Y-150.839
N6070 X-62.374 Y-150.837
N6075 X-64.128 Y-150.902
N6080 X-65.877 Y-151.061
N6085 X-67.587 Y-151.334
N6090 X-69.056 Y-151.691
N6095 X-70.032 Y-152.013
N6100 X-70.445 Y-152.187
N6105 X-70.827 Y-152.422
N6110 X-71.166 Y-152.715
N6115 X-71.456 Y-153.056
N6120 X-71.69 Y-153.439
N6125 X-71.861 Y-153.853
N6130 X-71.965 Y-154.289
N6135 X-72. Y-154.736
N6140 X-72.004 Y-157.733
N6145 G03 X-69.808 Y-160.14 I2.499 J0.074
N6150 G01 X-19.664 Y-166.272
N6155 G03 X-16.997 Y-162.978 I0.303 J2.482
N6160 G01 X-17.284 Y-162.229
N6165 X-17.524 Y-161.48
N6170 X-17.699 Y-160.73
N6175 X-17.841 Y-159.981
N6180 X-17.927 Y-159.232
N6185 X-17.982 Y-158.482
N6190 X-17.992 Y-158.348
N6195 X-18.088 Y-157.751
N6200 X-18.243 Y-157.12
N6205 X-18.483 Y-156.396
N6210 X-18.805 Y-155.637
N6215 X-19.248 Y-154.79
N6220 X-19.809 Y-153.897
N6225 X-20.519 Y-152.948
N6230 X-21.409 Y-151.938
N6235 X-22.508 Y-150.876
N6240 X-23.854 Y-149.77
N6245 X-25.296 Y-148.768
N6250 X-26.804 Y-147.87
N6255 X-28.365 Y-147.065
N6260 X-29.966 Y-146.344
N6265 X-31.599 Y-145.7
N6270 X-33.258 Y-145.125
N6275 X-34.937 Y-144.611
N6280 X-36.632 Y-144.153
N6285 X-38.339 Y-143.744
N6290 X-40.057 Y-143.379
N6295 X-41.782 Y-143.054
N6300 X-43.514 Y-142.765
N6305 X-45.251 Y-142.508
N6310 X-46.992 Y-142.279
N6315 X-48.736 Y-142.075
N6320 X-50.482 Y-141.896
N6325 X-52.231 Y-141.743
N6330 X-53.983 Y-141.621
N6335 X-55.737 Y-141.536
N6340 X-57.492 Y-141.492
N6345 X-59.248 Y-141.496
N6350 X-61.002 Y-141.559
N6355 X-62.753 Y-141.688
N6360 X-64.497 Y-141.892
N6365 X-66.227 Y-142.194
N6370 X-67.847 Y-142.597
N6375 X-69.238 Y-143.065
N6380 X-69.999 Y-143.391
N6385 X-70.426 Y-143.612
N6390 X-70.816 Y-143.893
N6395 X-71.162 Y-144.227
N6400 X-71.455 Y-144.608
N6405 X-71.689 Y-145.027
N6410 X-71.861 Y-145.476
N6415 X-71.965 Y-145.945
N6420 X-72. Y-146.425
N6425 Y-154.736
N6430 G03 X-69.694 Y-157.141 I2.498 J0.087
N6435 G01 X-20.675 Y-160.935
N6440 G03 X-17.982 Y-158.482 I0.193 J2.493
N6445 G01 X-17.996 Y-157.733
N6450 X-18. Y-152.488
N6455 X-18.041 Y-151.673
N6460 X-18.137 Y-150.94
N6465 X-18.302 Y-150.168
N6470 X-18.564 Y-149.293
N6475 X-18.918 Y-148.386
N6480 X-19.402 Y-147.387
N6485 X-20.029 Y-146.322
N6490 X-20.807 Y-145.214
N6495 X-21.781 Y-144.041
N6500 X-22.98 Y-142.812
N6505 X-24.303 Y-141.658
N6510 X-25.707 Y-140.602
N6515 X-27.174 Y-139.639
N6520 X-28.695 Y-138.761
N6525 X-30.258 Y-137.962
N6530 X-31.856 Y-137.235
N6535 X-33.483 Y-136.575
N6540 X-35.134 Y-135.976
N6545 X-36.803 Y-135.432
N6550 X-38.489 Y-134.94
N6555 X-40.187 Y-134.495
N6560 X-41.897 Y-134.094
N6565 X-43.615 Y-133.734
N6570 X-45.341 Y-133.414
N6575 X-47.075 Y-133.135
N6580 X-48.814 Y-132.897
N6585 X-50.559 Y-132.7
N6590 X-52.308 Y-132.547
N6595 X-54.061 Y-132.438
N6600 X-55.815 Y-132.376
N6605 X-57.571 Y-132.369
N6610 X-59.326 Y-132.419
N6615 X-61.078 Y-132.532
N6620 X-62.824 Y-132.715
N6625 X-64.56 Y-132.977
N6630 X-66.28 Y-133.334
N6635 X-67.941 Y-133.799
N6640 X-69.363 Y-134.324
N6645 X-70.226 Y-134.724
N6650 X-70.606 Y-134.934
N6655 X-70.953 Y-135.196
N6660 X-71.259 Y-135.505
N6665 X-71.519 Y-135.854
N6670 X-71.726 Y-136.236
N6675 X-71.877 Y-136.643
N6680 X-71.969 Y-137.068
N6685 X-72. Y-137.501
N6690 Y-146.425
N6695 G03 X-69.809 Y-148.818 I2.498 J0.087
N6700 G01 X-20.805 Y-154.882
N6705 G03 X-18. Y-152.488 I0.307 J2.481
N6710 G01 Y-144.995
N6715 X-18.057 Y-143.85
N6720 X-18.163 Y-143.047
N6725 X-18.344 Y-142.197
N6730 X-18.632 Y-141.238
N6735 X-19.023 Y-140.233
N6740 X-19.552 Y-139.144
N6745 X-20.241 Y-137.972
N6750 X-21.111 Y-136.734
N6755 X-22.187 Y-135.437
N6760 X-23.414 Y-134.181
N6765 X-24.73 Y-133.019
N6770 X-26.12 Y-131.946
N6775 X-27.571 Y-130.958
N6780 X-29.073 Y-130.048
N6785 X-30.616 Y-129.212
N6790 X-32.195 Y-128.444
N6795 X-33.804 Y-127.74
N6800 X-35.437 Y-127.096
N6805 X-37.092 Y-126.509
N6810 X-38.765 Y-125.976
N6815 X-40.454 Y-125.495
N6820 X-42.155 Y-125.063
N6825 X-43.869 Y-124.679
N6830 X-45.592 Y-124.344
N6835 X-47.324 Y-124.056
N6840 X-49.063 Y-123.816
N6845 X-51.246 Y-123.59
N6850 X-52.997 Y-123.46
N6855 X-54.752 Y-123.382
N6860 X-56.507 Y-123.358
N6865 X-58.263 Y-123.391
N6870 X-60.016 Y-123.488
N6875 X-61.764 Y-123.651
N6880 X-63.504 Y-123.886
N6885 X-65.231 Y-124.203
N6890 X-66.937 Y-124.617
N6895 X-68.541 Y-125.127
N6900 X-69.914 Y-125.69
N6905 X-70.192 Y-125.83
N6910 X-70.582 Y-126.063
N6915 X-70.936 Y-126.347
N6920 X-71.248 Y-126.677
N6925 X-71.512 Y-127.047
N6930 X-71.722 Y-127.449
N6935 X-71.876 Y-127.876
N6940 X-71.969 Y-128.321
N6945 X-72. Y-128.774
N6950 Y-137.501
N6955 G03 X-69.879 Y-139.885 I2.498 J0.087
N6960 G01 X-20.876 Y-147.379
N6965 G03 X-18. Y-144.995 I0.378 J2.471
N6970 G01 Y-136.34
N6975 X-18.04 Y-135.545
N6980 X-18.148 Y-134.718
N6985 X-18.343 Y-133.806
N6990 X-18.646 Y-132.795
N6995 X-19.06 Y-131.733
N7000 X-19.621 Y-130.575
N7005 X-20.353 Y-129.333
N7010 X-21.277 Y-128.017
N7015 X-22.399 Y-126.666
N7020 X-23.623 Y-125.407
N7025 X-24.931 Y-124.236
N7030 X-26.311 Y-123.15
N7035 X-27.75 Y-122.144
N7040 X-29.239 Y-121.214
N7045 X-30.77 Y-120.355
N7050 X-32.338 Y-119.564
N7055 X-33.936 Y-118.838
N7060 X-35.561 Y-118.172
N7065 X-37.313 Y-117.531
N7070 X-38.671 Y-117.096
N7075 X-39.08 Y-116.936
N7080 X-39.475 Y-116.745
N7085 X-39.855 Y-116.525
N7090 X-39.946 Y-116.463
N7095 X-41.649 Y-116.036
N7100 X-43.363 Y-115.656
N7105 X-45.087 Y-115.323
N7110 X-46.819 Y-115.037
N7115 X-48.559 Y-114.798
N7120 X-50.304 Y-114.609
N7125 X-52.055 Y-114.47
N7130 X-53.808 Y-114.383
N7135 X-55.564 Y-114.347
N7140 X-57.319 Y-114.366
N7145 X-59.073 Y-114.445
N7150 X-60.823 Y-114.587
N7155 X-62.567 Y-114.796
N7160 X-64.299 Y-115.078
N7165 X-66.016 Y-115.448
N7170 X-67.705 Y-115.926
N7175 X-69.203 Y-116.476
N7180 X-70.084 Y-116.883
N7185 X-70.494 Y-117.11
N7190 X-70.869 Y-117.392
N7195 X-71.2 Y-117.725
N7200 X-71.48 Y-118.101
N7205 X-71.704 Y-118.513
N7210 X-71.867 Y-118.953
N7215 X-71.967 Y-119.411
N7220 X-72. Y-119.879
N7225 Y-128.774
N7230 G03 X-69.883 Y-131.157 I2.498 J0.087
N7235 G01 X-20.88 Y-138.723
N7240 G03 X-18. Y-136.34 I0.381 J2.471
N7245 G01 Y-127.76
N7250 X-18.042 Y-126.918
N7255 X-18.153 Y-126.071
N7260 X-18.355 Y-125.127
N7265 X-18.667 Y-124.086
N7270 X-19.095 Y-122.988
N7275 X-19.675 Y-121.792
N7280 X-20.429 Y-120.51
N7285 X-21.383 Y-119.153
N7290 X-22.504 Y-117.802
N7295 X-23.725 Y-116.54
N7300 X-25.029 Y-115.364
N7305 X-26.402 Y-114.27
N7310 X-27.823 Y-113.238
N7315 X-29.288 Y-112.271
N7320 X-30.802 Y-111.382
N7325 X-32.358 Y-110.568
N7330 X-33.948 Y-109.824
N7335 X-35.568 Y-109.146
N7340 X-37.212 Y-108.53
N7345 X-38.877 Y-107.974
N7350 X-40.561 Y-107.476
N7355 X-42.26 Y-107.033
N7360 X-43.972 Y-106.645
N7365 X-45.696 Y-106.309
N7370 X-47.428 Y-106.025
N7375 X-49.169 Y-105.795
N7380 X-50.916 Y-105.617
N7385 X-52.667 Y-105.492
N7390 X-54.421 Y-105.421
N7395 X-56.177 Y-105.403
N7400 X-57.932 Y-105.445
N7405 X-59.685 Y-105.548
N7410 X-61.433 Y-105.716
N7415 X-63.172 Y-105.953
N7420 X-64.899 Y-106.27
N7425 X-66.607 Y-106.678
N7430 X-68.272 Y-107.197
N7435 X-69.691 Y-107.768
N7440 X-70.173 Y-108.008
N7445 X-70.567 Y-108.24
N7450 X-70.925 Y-108.524
N7455 X-71.24 Y-108.854
N7460 X-71.506 Y-109.225
N7465 X-71.719 Y-109.629
N7470 X-71.874 Y-110.059
N7475 X-71.968 Y-110.506
N7480 X-72. Y-110.961
N7485 Y-119.879
N7490 G03 X-69.898 Y-122.26 I2.498 J0.087
N7495 G01 X-20.895 Y-130.141
N7500 G03 X-18. Y-127.76 I0.397 J2.468
N7505 G01 Y-118.768
N7510 X-18.032 Y-118.132
N7515 X-18.144 Y-117.273
N7520 X-18.352 Y-116.304
N7525 X-18.675 Y-115.224
N7530 X-19.126 Y-114.067
N7535 X-19.727 Y-112.829
N7540 X-20.504 Y-111.508
N7545 X-21.481 Y-110.118
N7550 X-22.602 Y-108.767
N7555 X-23.821 Y-107.503
N7560 X-25.122 Y-106.324
N7565 X-26.493 Y-105.227
N7570 X-27.923 Y-104.208
N7575 X-29.404 Y-103.265
N7580 X-30.928 Y-102.394
N7585 X-32.49 Y-101.592
N7590 X-34.084 Y-100.855
N7595 X-35.705 Y-100.182
N7600 X-37.351 Y-99.569
N7605 X-39.017 Y-99.015
N7610 X-40.7 Y-98.517
N7615 X-42.4 Y-98.075
N7620 X-44.112 Y-97.688
N7625 X-45.836 Y-97.355
N7630 X-47.569 Y-97.074
N7635 X-48.068 Y-97.012
N7640 X-48.353 Y-97.
N7645 X-57.721
N7650 X-61.228 Y-97.177
N7655 X-62.976 Y-97.349
N7660 X-64.712 Y-97.607
N7665 X-66.431 Y-97.965
N7670 X-68.053 Y-98.424
N7675 X-69.448 Y-98.943
N7680 X-70.095 Y-99.245
N7685 X-70.504 Y-99.472
N7690 X-70.876 Y-99.755
N7695 X-71.205 Y-100.087
N7700 X-71.483 Y-100.463
N7705 X-71.706 Y-100.874
N7710 X-71.868 Y-101.312
N7715 X-71.967 Y-101.769
N7720 X-72. Y-102.235
N7725 Y-110.961
N7730 G03 X-67.758 Y-112.666 I2.498 J0.087
N7735 G01 X-56.065 Y-101.29
N7740 G03 X-57.721 Y-97. I-1.743 J1.792
N7745 G01 X-68.966
N7750 X-69.715 Y-97.01
N7755 X-69.919 Y-97.038
N7760 X-70.192 Y-97.102
N7765 X-70.465 Y-97.199
N7770 X-70.84 Y-97.398
N7775 X-71.027 Y-97.531
N7780 X-71.215 Y-97.693
N7785 X-71.308 Y-97.787
N7790 X-71.47 Y-97.974
N7795 X-71.603 Y-98.162
N7800 X-71.801 Y-98.536
N7805 X-71.9 Y-98.814
N7810 X-71.964 Y-99.093
N7815 X-71.99 Y-99.286
N7820 X-72. Y-100.035
N7825 Y-102.235
N7830 G03 X-70.301 Y-104.517 I2.498 J0.087
N7835 G01 X-21.298 Y-121.05
N7840 G03 X-18. Y-118.768 I0.799 J2.369
N7845 G01 Y-109.776
N7850 X-18.03 Y-109.17
N7855 X-18.144 Y-108.305
N7860 X-18.352 Y-107.331
N7865 X-18.671 Y-106.265
N7870 X-19.11 Y-105.139
N7875 X-19.704 Y-103.914
N7880 X-20.476 Y-102.604
N7885 X-21.448 Y-101.219
N7890 X-22.57 Y-99.868
N7895 X-23.789 Y-98.605
N7900 X-24.616 Y-97.855
N7905 X-24.999 Y-97.556
N7910 X-25.421 Y-97.317
N7915 X-25.874 Y-97.142
N7920 X-26.348 Y-97.036
N7925 X-26.832 Y-97.
N7930 X-47.227
N7935 G03 X-48.032 Y-101.833 I0.087 J-2.498
N7940 G01 X-21.392 Y-112.024
N7945 G03 X-18. Y-109.776 I0.893 J2.335
N7950 G01 Y-100.784
N7955 X-18.024 Y-100.304
N7960 X-18.124 Y-99.54
N7965 X-18.17 Y-99.327
N7970 X-18.293 Y-98.907
N7975 X-18.477 Y-98.509
N7980 X-18.718 Y-98.144
N7985 X-19.011 Y-97.818
N7990 X-19.349 Y-97.539
N7995 X-19.724 Y-97.314
N8000 X-20.129 Y-97.147
N8005 X-20.554 Y-97.041
N8010 X-20.99 Y-97.
N8015 G03 X-23.591 Y-97.955 I0.155 J-4.444
N8020 X-19.31 Y-103.373 I2.14 J-2.709
N8025 X-18. Y-100.784 I-2.14 J2.709
N8030 G01 Y-100.035
N8035 X-18.01 Y-99.286
N8040 X-18.074 Y-98.911
N8045 X-18.199 Y-98.536
N8050 X-18.397 Y-98.162
N8055 X-18.53 Y-97.974
N8060 X-18.741 Y-97.736
N8065 X-18.928 Y-97.566
N8070 X-19.116 Y-97.426
N8075 X-19.49 Y-97.218
N8080 X-19.785 Y-97.108
N8085 X-20.079 Y-97.038
N8090 X-20.24 Y-97.015
N8095 X-20.99 Y-97.
N8100 X-26.832
N8105 X-26.947 Y-97.014 Z-4.493
N8110 X-27.06 Y-97.028 Z-4.473
N8115 X-27.17 Y-97.042 Z-4.439
N8120 X-27.275 Y-97.055 Z-4.392
N8125 X-27.365 Y-97.084 Z-4.337
N8130 X-27.449 Y-97.11 Z-4.271
N8135 X-27.525 Y-97.134 Z-4.196
N8140 X-27.593 Y-97.155 Z-4.113
N8145 X-27.652 Y-97.173 Z-4.022
N8150 X-27.701 Y-97.188 Z-3.925
N8155 X-27.736 Y-97.204 Z-3.827
N8160 X-27.761 Y-97.215 Z-3.726
N8165 X-27.776 Y-97.221 Z-3.623
N8170 X-27.782 Y-97.224 Z-3.518
N8175 G00 Z6.
N8180 X83.988 Y-172.888
N8185 Z0.5
N8190 G01 Z-2. F2328.
N8195 X83.983 Y-172.882 Z-2.196
N8200 X83.967 Y-172.865 Z-2.391
N8205 X83.941 Y-172.837 Z-2.584
N8210 X83.905 Y-172.797 Z-2.773
N8215 X83.86 Y-172.747 Z-2.957
N8220 X83.804 Y-172.686 Z-3.135
N8225 X83.74 Y-172.616 Z-3.306
N8230 X83.666 Y-172.535 Z-3.469
N8235 X83.584 Y-172.445 Z-3.624
N8240 X83.494 Y-172.347 Z-3.768
N8245 X83.397 Y-172.24 Z-3.901
N8250 X83.293 Y-172.127 Z-4.023
N8255 X83.183 Y-172.006 Z-4.132
N8260 X83.068 Y-171.88 Z-4.228
N8265 X82.947 Y-171.748 Z-4.31
N8270 X82.823 Y-171.612 Z-4.378
N8275 X82.696 Y-171.472 Z-4.431
N8280 X82.566 Y-171.33 Z-4.469
N8285 X82.435 Y-171.186 Z-4.492
N8290 X82.302 Y-171.041 Z-4.5
N8295 G03 X81.481 Y-170.503 I-1.461 J-1.334
N8300 G01 X80.96 Y-170.341
N8305 X80.21 Y-170.076
N8310 X79.461 Y-169.758
N8315 X78.711 Y-169.358
N8320 X77.961 Y-168.923
N8325 X77.212 Y-168.405
N8330 X76.462 Y-167.79
N8335 X76.103 Y-167.474
N8340 X75.931 Y-167.323
N8345 X74.994 Y-166.625
N8350 X73.792 Y-165.871
N8355 X72.245 Y-165.066
N8360 X70.627 Y-164.383
N8365 X68.969 Y-163.807
N8370 X67.282 Y-163.319
N8375 X65.576 Y-162.904
N8380 X63.856 Y-162.552
N8385 X62.126 Y-162.253
N8390 X60.389 Y-161.998
N8395 X58.647 Y-161.78
N8400 X56.901 Y-161.595
N8405 X55.152 Y-161.436
N8410 X53.402 Y-161.301
N8415 X51.65 Y-161.185
N8420 X49.897 Y-161.087
N8425 X48.143 Y-161.002
N8430 X46.389 Y-160.93
N8435 X42.879 Y-160.815
N8440 X39.368 Y-160.731
N8445 X34.102 Y-160.645
N8450 X28.835 Y-160.591
N8455 X27.079 Y-160.578
N8460 X20.056 Y-160.542
N8465 X19.593 Y-160.575
N8470 X19.14 Y-160.678
N8475 X18.708 Y-160.848
N8480 X18.307 Y-161.081
N8485 X17.945 Y-161.371
N8490 X17.631 Y-161.713
N8495 X17.371 Y-162.098
N8500 X17.173 Y-162.518
N8505 G03 X19.273 Y-165.816 I2.364 J-0.812
N8510 G01 X73.98 Y-171.632
N8515 G03 X76.103 Y-167.474 I0.264 J2.486
N8520 G01 X75.38 Y-166.725
N8525 X74.963 Y-166.256
N8530 X74.202 Y-165.226
N8535 X73.731 Y-164.477
N8540 X73.35 Y-163.728
N8545 X72.999 Y-162.978
N8550 X72.894 Y-162.753
N8555 X72.526 Y-162.108
N8560 X72.043 Y-161.398
N8565 X71.432 Y-160.641
N8570 X70.655 Y-159.821
N8575 X69.681 Y-158.947
N8580 X68.472 Y-158.025
N8585 X66.995 Y-157.076
N8590 X65.447 Y-156.247
N8595 X63.848 Y-155.522
N8600 X62.211 Y-154.888
N8605 X60.545 Y-154.334
N8610 X58.857 Y-153.849
N8615 X57.153 Y-153.426
N8620 X55.437 Y-153.055
N8625 X53.711 Y-152.731
N8630 X51.978 Y-152.448
N8635 X50.24 Y-152.201
N8640 X48.498 Y-151.984
N8645 X46.752 Y-151.795
N8650 X45.004 Y-151.63
N8655 X43.255 Y-151.486
N8660 X41.503 Y-151.359
N8665 X39.751 Y-151.249
N8670 X37.998 Y-151.153
N8675 X36.244 Y-151.069
N8680 X32.735 Y-150.932
N8685 X30.98 Y-150.876
N8690 X29.225 Y-150.837
N8695 X27.469 Y-150.839
N8700 X25.715 Y-150.91
N8705 X23.967 Y-151.077
N8710 X22.281 Y-151.356
N8715 X20.828 Y-151.719
N8720 X19.957 Y-152.012
N8725 X19.545 Y-152.188
N8730 X19.166 Y-152.425
N8735 X18.828 Y-152.717
N8740 X18.54 Y-153.059
N8745 X18.308 Y-153.441
N8750 X18.138 Y-153.855
N8755 X18.035 Y-154.29
N8760 X18. Y-154.736
N8765 X17.996 Y-157.733
N8770 G03 X20.191 Y-160.14 I2.499 J0.074
N8775 G01 X70.335 Y-166.285
N8780 G03 X72.999 Y-162.978 I0.304 J2.481
N8785 G01 X72.708 Y-162.229
N8790 X72.49 Y-161.48
N8795 X72.301 Y-160.73
N8800 X72.159 Y-159.981
N8805 X72.073 Y-159.232
N8810 X72.018 Y-158.482
N8815 X72.008 Y-158.348
N8820 X71.913 Y-157.76
N8825 X71.756 Y-157.119
N8830 X71.518 Y-156.403
N8835 X71.194 Y-155.638
N8840 X70.75 Y-154.788
N8845 X70.193 Y-153.902
N8850 X69.481 Y-152.95
N8855 X68.589 Y-151.937
N8860 X67.489 Y-150.875
N8865 X66.144 Y-149.77
N8870 X64.702 Y-148.768
N8875 X63.194 Y-147.869
N8880 X61.633 Y-147.064
N8885 X60.032 Y-146.344
N8890 X58.399 Y-145.7
N8895 X56.74 Y-145.124
N8900 X55.061 Y-144.611
N8905 X53.366 Y-144.152
N8910 X51.659 Y-143.743
N8915 X49.941 Y-143.379
N8920 X48.216 Y-143.054
N8925 X46.484 Y-142.765
N8930 X44.747 Y-142.507
N8935 X43.006 Y-142.278
N8940 X41.262 Y-142.075
N8945 X39.516 Y-141.896
N8950 X37.767 Y-141.743
N8955 X36.015 Y-141.621
N8960 X34.261 Y-141.535
N8965 X32.506 Y-141.49
N8970 X30.751 Y-141.495
N8975 X28.996 Y-141.558
N8980 X27.245 Y-141.685
N8985 X25.501 Y-141.889
N8990 X23.771 Y-142.192
N8995 X22.153 Y-142.594
N9000 X20.763 Y-143.062
N9005 X20.001 Y-143.388
N9010 X19.574 Y-143.609
N9015 X19.184 Y-143.889
N9020 X18.838 Y-144.224
N9025 X18.545 Y-144.605
N9030 X18.311 Y-145.024
N9035 X18.139 Y-145.473
N9040 X18.035 Y-145.942
N9045 X18. Y-146.422
N9050 Y-154.736
N9055 G03 X20.306 Y-157.141 I2.498 J0.087
N9060 G01 X69.325 Y-160.935
N9065 G03 X72.018 Y-158.482 I0.193 J2.493
N9070 G01 X72.004 Y-157.733
N9075 X72. Y-152.488
N9080 X71.959 Y-151.674
N9085 X71.863 Y-150.941
N9090 X71.698 Y-150.168
N9095 X71.436 Y-149.293
N9100 X71.082 Y-148.386
N9105 X70.598 Y-147.387
N9110 X69.971 Y-146.322
N9115 X69.193 Y-145.215
N9120 X68.219 Y-144.041
N9125 X67.019 Y-142.812
N9130 X65.696 Y-141.658
N9135 X64.293 Y-140.602
N9140 X62.825 Y-139.639
N9145 X61.305 Y-138.761
N9150 X59.742 Y-137.961
N9155 X58.143 Y-137.235
N9160 X56.516 Y-136.575
N9165 X54.866 Y-135.976
N9170 X53.196 Y-135.432
N9175 X51.511 Y-134.94
N9180 X49.812 Y-134.495
N9185 X48.103 Y-134.094
N9190 X46.385 Y-133.734
N9195 X44.658 Y-133.414
N9200 X42.925 Y-133.135
N9205 X41.185 Y-132.896
N9210 X39.441 Y-132.699
N9215 X37.692 Y-132.546
N9220 X35.939 Y-132.437
N9225 X34.185 Y-132.375
N9230 X32.429 Y-132.367
N9235 X30.674 Y-132.418
N9240 X28.922 Y-132.53
N9245 X27.175 Y-132.713
N9250 X25.439 Y-132.975
N9255 X23.72 Y-133.332
N9260 X22.059 Y-133.797
N9265 X20.637 Y-134.322
N9270 X19.777 Y-134.72
N9275 X19.396 Y-134.931
N9280 X19.048 Y-135.193
N9285 X18.742 Y-135.502
N9290 X18.482 Y-135.851
N9295 X18.274 Y-136.234
N9300 X18.123 Y-136.642
N9305 X18.031 Y-137.067
N9310 X18. Y-137.501
N9315 Y-146.422
N9320 G03 X20.191 Y-148.815 I2.498 J0.087
N9325 G01 X69.194 Y-154.882
N9330 G03 X72. Y-152.488 I0.307 J2.481
N9335 G01 Y-144.995
N9340 X71.943 Y-143.85
N9345 X71.837 Y-143.048
N9350 X71.656 Y-142.197
N9355 X71.368 Y-141.238
N9360 X70.977 Y-140.233
N9365 X70.448 Y-139.144
N9370 X69.759 Y-137.972
N9375 X68.888 Y-136.734
N9380 X67.813 Y-135.437
N9385 X66.586 Y-134.181
N9390 X65.27 Y-133.019
N9395 X63.88 Y-131.946
N9400 X62.429 Y-130.958
N9405 X60.927 Y-130.048
N9410 X59.383 Y-129.212
N9415 X57.805 Y-128.444
N9420 X56.196 Y-127.74
N9425 X54.563 Y-127.096
N9430 X52.908 Y-126.509
N9435 X51.235 Y-125.976
N9440 X49.546 Y-125.494
N9445 X47.845 Y-125.063
N9450 X46.131 Y-124.679
N9455 X44.408 Y-124.343
N9460 X42.676 Y-124.055
N9465 X40.937 Y-123.815
N9470 X38.754 Y-123.588
N9475 X37.003 Y-123.459
N9480 X35.249 Y-123.381
N9485 X33.493 Y-123.356
N9490 X31.738 Y-123.389
N9495 X29.985 Y-123.486
N9500 X28.236 Y-123.649
N9505 X26.496 Y-123.884
N9510 X24.769 Y-124.201
N9515 X23.063 Y-124.614
N9520 X21.46 Y-125.125
N9525 X20.086 Y-125.688
N9530 X19.808 Y-125.828
N9535 X19.418 Y-126.061
N9540 X19.064 Y-126.345
N9545 X18.752 Y-126.675
N9550 X18.488 Y-127.045
N9555 X18.278 Y-127.447
N9560 X18.124 Y-127.874
N9565 X18.031 Y-128.319
N9570 X18. Y-128.772
N9575 Y-137.501
N9580 G03 X20.121 Y-139.885 I2.498 J0.087
N9585 G01 X69.124 Y-147.379
N9590 G03 X72. Y-144.995 I0.378 J2.471
N9595 G01 Y-136.34
N9600 X71.96 Y-135.545
N9605 X71.852 Y-134.718
N9610 X71.657 Y-133.806
N9615 X71.354 Y-132.795
N9620 X70.94 Y-131.733
N9625 X70.379 Y-130.575
N9630 X69.647 Y-129.333
N9635 X68.723 Y-128.017
N9640 X67.601 Y-126.666
N9645 X66.377 Y-125.407
N9650 X65.069 Y-124.236
N9655 X63.689 Y-123.15
N9660 X62.25 Y-122.144
N9665 X60.761 Y-121.214
N9670 X59.23 Y-120.355
N9675 X57.662 Y-119.564
N9680 X56.064 Y-118.838
N9685 X54.439 Y-118.172
N9690 X52.687 Y-117.531
N9695 X51.329 Y-117.096
N9700 X50.92 Y-116.935
N9705 X50.525 Y-116.745
N9710 X50.145 Y-116.525
N9715 X50.054 Y-116.463
N9720 X48.351 Y-116.035
N9725 X46.637 Y-115.655
N9730 X44.913 Y-115.322
N9735 X43.181 Y-115.036
N9740 X41.442 Y-114.797
N9745 X39.696 Y-114.608
N9750 X37.946 Y-114.469
N9755 X36.192 Y-114.381
N9760 X34.437 Y-114.346
N9765 X32.681 Y-114.364
N9770 X30.927 Y-114.443
N9775 X29.177 Y-114.585
N9780 X27.434 Y-114.794
N9785 X25.701 Y-115.076
N9790 X23.985 Y-115.446
N9795 X22.295 Y-115.924
N9800 X20.797 Y-116.474
N9805 X19.916 Y-116.881
N9810 X19.506 Y-117.108
N9815 X19.131 Y-117.39
N9820 X18.8 Y-117.723
N9825 X18.52 Y-118.099
N9830 X18.296 Y-118.511
N9835 X18.133 Y-118.951
N9840 X18.033 Y-119.409
N9845 X18. Y-119.877
N9850 Y-128.772
N9855 G03 X20.117 Y-131.155 I2.498 J0.087
N9860 G01 X69.12 Y-138.723
N9865 G03 X72. Y-136.34 I0.382 J2.471
N9870 G01 Y-127.76
N9875 X71.958 Y-126.918
N9880 X71.847 Y-126.071
N9885 X71.645 Y-125.127
N9890 X71.333 Y-124.086
N9895 X70.905 Y-122.988
N9900 X70.325 Y-121.792
N9905 X69.571 Y-120.51
N9910 X68.617 Y-119.153
N9915 X67.496 Y-117.802
N9920 X66.275 Y-116.54
N9925 X64.971 Y-115.363
N9930 X63.598 Y-114.269
N9935 X62.177 Y-113.238
N9940 X60.712 Y-112.27
N9945 X59.198 Y-111.382
N9950 X57.642 Y-110.568
N9955 X56.052 Y-109.823
N9960 X54.432 Y-109.145
N9965 X52.788 Y-108.529
N9970 X51.123 Y-107.974
N9975 X49.439 Y-107.475
N9980 X47.74 Y-107.032
N9985 X46.028 Y-106.644
N9990 X44.305 Y-106.308
N9995 X42.572 Y-106.024
N10000 X40.831 Y-105.794
N10005 X39.085 Y-105.616
N10010 X37.333 Y-105.491
N10015 X35.579 Y-105.419
N10020 X33.823 Y-105.402
N10025 X32.068 Y-105.443
N10030 X30.315 Y-105.547
N10035 X28.568 Y-105.714
N10040 X26.828 Y-105.952
N10045 X25.101 Y-106.268
N10050 X23.393 Y-106.676
N10055 X21.728 Y-107.195
N10060 X20.309 Y-107.766
N10065 X19.827 Y-108.006
N10070 X19.433 Y-108.238
N10075 X19.075 Y-108.522
N10080 X18.76 Y-108.852
N10085 X18.494 Y-109.223
N10090 X18.281 Y-109.627
N10095 X18.126 Y-110.057
N10100 X18.032 Y-110.504
N10105 X18. Y-110.959
N10110 Y-119.877
N10115 G03 X20.101 Y-122.258 I2.498 J0.087
N10120 G01 X69.104 Y-130.141
N10125 G03 X72. Y-127.76 I0.397 J2.468
N10130 G01 Y-118.768
N10135 X71.968 Y-118.131
N10140 X71.856 Y-117.272
N10145 X71.648 Y-116.304
N10150 X71.325 Y-115.224
N10155 X70.874 Y-114.066
N10160 X70.273 Y-112.828
N10165 X69.496 Y-111.508
N10170 X68.519 Y-110.117
N10175 X67.398 Y-108.766
N10180 X66.179 Y-107.503
N10185 X64.878 Y-106.324
N10190 X63.507 Y-105.226
N10195 X62.077 Y-104.208
N10200 X60.596 Y-103.265
N10205 X59.072 Y-102.393
N10210 X57.51 Y-101.591
N10215 X55.916 Y-100.854
N10220 X54.295 Y-100.181
N10225 X52.649 Y-99.568
N10230 X50.983 Y-99.014
N10235 X49.3 Y-98.516
N10240 X47.6 Y-98.074
N10245 X45.888 Y-97.687
N10250 X44.164 Y-97.353
N10255 X42.431 Y-97.073
N10260 X41.942 Y-97.012
N10265 X41.656 Y-97.
N10270 X32.234
N10275 X28.727 Y-97.179
N10280 X26.98 Y-97.353
N10285 X25.244 Y-97.614
N10290 X23.525 Y-97.974
N10295 X21.91 Y-98.434
N10300 X20.52 Y-98.955
N10305 X19.899 Y-99.246
N10310 X19.491 Y-99.473
N10315 X19.12 Y-99.756
N10320 X18.792 Y-100.088
N10325 X18.515 Y-100.464
N10330 X18.293 Y-100.874
N10335 X18.131 Y-101.312
N10340 X18.033 Y-101.768
N10345 X18. Y-102.234
N10350 Y-110.959
N10355 G03 X22.245 Y-112.661 I2.498 J0.087
N10360 G01 X33.893 Y-101.287
N10365 G03 X32.234 Y-97. I-1.747 J1.789
N10370 G01 X20.99
N10375 X20.24 Y-97.015
N10380 X20.079 Y-97.038
N10385 X19.785 Y-97.108
N10390 X19.49 Y-97.218
N10395 X19.116 Y-97.426
N10400 X18.928 Y-97.566
N10405 X18.691 Y-97.787
N10410 X18.53 Y-97.974
N10415 X18.397 Y-98.162
N10420 X18.199 Y-98.536
N10425 X18.074 Y-98.911
N10430 X18.01 Y-99.286
N10435 X18. Y-100.035
N10440 Y-102.234
N10445 G03 X19.699 Y-104.515 I2.498 J0.087
N10450 G01 X68.702 Y-121.05
N10455 G03 X72. Y-118.768 I0.799 J2.369
N10460 G01 Y-109.776
N10465 X71.97 Y-109.17
N10470 X71.856 Y-108.304
N10475 X71.648 Y-107.33
N10480 X71.329 Y-106.265
N10485 X70.89 Y-105.138
N10490 X70.296 Y-103.913
N10495 X69.524 Y-102.603
N10500 X68.552 Y-101.219
N10505 X67.43 Y-99.868
N10510 X66.211 Y-98.604
N10515 X65.385 Y-97.855
N10520 X65.002 Y-97.556
N10525 X64.58 Y-97.317
N10530 X64.127 Y-97.142
N10535 X63.653 Y-97.036
N10540 X63.169 Y-97.
N10545 X42.729
N10550 G03 X41.924 Y-101.834 I0.087 J-2.498
N10555 G01 X68.61 Y-112.024
N10560 G03 X72. Y-109.776 I0.892 J2.336
N10565 G01 Y-100.784
N10570 X71.976 Y-100.303
N10575 X71.876 Y-99.539
N10580 X71.836 Y-99.355
N10585 X71.711 Y-98.928
N10590 X71.523 Y-98.524
N10595 X71.278 Y-98.153
N10600 X70.98 Y-97.823
N10605 X70.636 Y-97.541
N10610 X70.253 Y-97.313
N10615 X69.841 Y-97.145
N10620 X69.409 Y-97.039
N10625 X68.966 Y-97.
N10630 G03 X66.374 Y-97.962 I0.153 J-4.386
N10635 X70.706 Y-103.365 I2.166 J-2.701
N10640 X72. Y-100.784 I-2.166 J2.701
N10645 G01 Y-100.035
N10650 X71.99 Y-99.286
N10655 X71.964 Y-99.093
N10660 X71.9 Y-98.814
N10665 X71.801 Y-98.536
N10670 X71.603 Y-98.162
N10675 X71.47 Y-97.974
N10680 X71.308 Y-97.787
N10685 X71.215 Y-97.693
N10690 X71.027 Y-97.531
N10695 X70.84 Y-97.398
N10700 X70.465 Y-97.199
N10705 X70.192 Y-97.102
N10710 X69.919 Y-97.038
N10715 X69.715 Y-97.01
N10720 X68.966 Y-97.
N10725 X63.169
N10730 X63.054 Y-97.014 Z-4.493
N10735 X62.941 Y-97.028 Z-4.473
N10740 X62.831 Y-97.042 Z-4.439
N10745 X62.726 Y-97.055 Z-4.392
N10750 X62.636 Y-97.084 Z-4.337
N10755 X62.552 Y-97.11 Z-4.271
N10760 X62.475 Y-97.134 Z-4.196
N10765 X62.407 Y-97.155 Z-4.113
N10770 X62.349 Y-97.173 Z-4.022
N10775 X62.3 Y-97.188 Z-3.925
N10780 X62.265 Y-97.204 Z-3.827
N10785 X62.24 Y-97.215 Z-3.726
N10790 X62.224 Y-97.221 Z-3.623
N10795 X62.219 Y-97.224 Z-3.518
N10800 G00 Z6.
N10805 Z16.
N10810 M05
N10815 G28 G91 Z0.
N10820 G90
N10825 G49

(CAVIDADES INFERIORES ACAB. PAREDES)
N10830 M09
N10835 M01
N10840 T4 M06
N10845 T2
N10850 S10000 M03
N10855 G54
N10860 M08
N10865 G00 X9. Y158.5
N10870 G43 Z16. H04
N10875 G00 Z5.
N10880 G01 Z2. F30.
N10885 Z-4.4
N10890 G18 G03 X8.5 Z-4.9 I-0.5
N10895 G01 X8. F1200.
N10900 G17 G03 X7.5 Y158. J-0.5
N10905 G01 Y87.5
N10910 G03 X8.5 Y86.5 I1.
N10915 G01 X81.5
N10920 G03 X82.5 Y87.5 J1.
N10925 G01 Y158.
N10930 G03 X82. Y158.5 I-0.5
N10935 G01 X81.5
N10940 G18 G03 X81. Z-4.4 K0.5
N10945 G00 Z6.
N10950 X-81.
N10955 Z5.
N10960 G01 Z2. F30.
N10965 Z-4.4
N10970 G03 X-81.5 Z-4.9 I-0.5
N10975 G01 X-82. F1200.
N10980 G17 G03 X-82.5 Y158. J-0.5
N10985 G01 Y87.5
N10990 G03 X-81.5 Y86.5 I1.
N10995 G01 X-8.5
N11000 G03 X-7.5 Y87.5 J1.
N11005 G01 Y158.
N11010 G03 X-8. Y158.5 I-0.5
N11015 G01 X-8.5
N11020 G18 G03 X-9. Z-4.4 K0.5
N11025 G00 Z6.
N11030 Y-158.5
N11035 Z5.
N11040 G01 Z2. F30.
N11045 Z-4.4
N11050 G02 X-8.5 Z-4.9 I0.5
N11055 G01 X-8. F1200.
N11060 G17 G03 X-7.5 Y-158. J0.5
N11065 G01 Y-87.5
N11070 G03 X-8.5 Y-86.5 I-1.
N11075 G01 X-81.5
N11080 G03 X-82.5 Y-87.5 J-1.
N11085 G01 Y-158.
N11090 G03 X-82. Y-158.5 I0.5
N11095 G01 X-81.5
N11100 G18 G02 X-81. Z-4.4 K0.5
N11105 G00 Z6.
N11110 X81.
N11115 Z5.
N11120 G01 Z2. F30.
N11125 Z-4.4
N11130 G02 X81.5 Z-4.9 I0.5
N11135 G01 X82. F1200.
N11140 G17 G03 X82.5 Y-158. J0.5
N11145 G01 Y-87.5
N11150 G03 X81.5 Y-86.5 I-1.
N11155 G01 X8.5
N11160 G03 X7.5 Y-87.5 J-1.
N11165 G01 Y-158.
N11170 G03 X8. Y-158.5 I0.5
N11175 G01 X8.5
N11180 G18 G02 X9. Z-4.4 K0.5
N11185 G00 Z16.
N11190 G17
N11195 M05
N11200 G28 G91 Z0.
N11205 G90
N11210 G49

(CAVIDADES INFERIORES ACAB. BASE)
N11215 M09
N11220 M01
N11225 T2 M06
N11230 T1
N11235 S3880 M03
N11240 G54
N11245 M08
N11250 G00 X-88.038 Y172.146
N11255 G43 Z16. H02
N11260 G00 Z6.
N11265 Z0.
N11270 G01 Z-2.5 F2328.
N11275 X-88.032 Y172.142 Z-2.696
N11280 X-88.012 Y172.13 Z-2.891
N11285 X-87.98 Y172.109 Z-3.084
N11290 X-87.935 Y172.08 Z-3.273
N11295 X-87.878 Y172.044 Z-3.457
N11300 X-87.809 Y172. Z-3.635
N11305 X-87.728 Y171.948 Z-3.806
N11310 X-87.636 Y171.889 Z-3.969
N11315 X-87.533 Y171.824 Z-4.124
N11320 X-87.421 Y171.752 Z-4.268
N11325 X-87.3 Y171.674 Z-4.401
N11330 X-87.17 Y171.591 Z-4.523
N11335 X-87.032 Y171.503 Z-4.632
N11340 X-86.888 Y171.411 Z-4.728
N11345 X-86.738 Y171.315 Z-4.81
N11350 X-86.583 Y171.216 Z-4.878
N11355 X-86.423 Y171.114 Z-4.931
N11360 X-86.261 Y171.011 Z-4.969
N11365 X-86.097 Y170.906 Z-4.992
N11370 X-85.932 Y170.8 Z-5.
N11375 G03 X-84.999 Y170.493 I1.065 J1.667
N11380 G01 X-84.25 Y170.469
N11385 X-83.501 Y170.395
N11390 X-82.753 Y170.286
N11395 X-82.004 Y170.129
N11400 X-81.101 Y169.863
N11405 X-80.506 Y169.655
N11410 X-79.757 Y169.346
N11415 X-79.008 Y168.952
N11420 X-78.259 Y168.519
N11425 X-78.013 Y168.363
N11430 X-77.51 Y168.
N11435 X-77.037 Y167.613
N11440 X-75.651 Y166.592
N11445 X-74.435 Y165.836
N11450 X-72.905 Y165.047
N11455 X-71.318 Y164.38
N11460 X-69.691 Y163.815
N11465 X-68.038 Y163.335
N11470 X-66.366 Y162.927
N11475 X-64.68 Y162.578
N11480 X-62.984 Y162.281
N11485 X-61.281 Y162.027
N11490 X-59.573 Y161.809
N11495 X-57.862 Y161.623
N11500 X-56.147 Y161.464
N11505 X-54.431 Y161.327
N11510 X-52.714 Y161.21
N11515 X-50.995 Y161.11
N11520 X-49.276 Y161.024
N11525 X-47.556 Y160.95
N11530 X-44.114 Y160.832
N11535 X-40.672 Y160.745
N11540 X-35.508 Y160.655
N11545 X-30.344 Y160.599
N11550 X-26.9 Y160.573
N11555 X-19.674 Y160.539
N11560 X-19.187 Y160.573
N11565 X-18.71 Y160.679
N11570 X-18.253 Y160.855
N11575 X-17.828 Y161.096
N11580 X-17.443 Y161.397
N11585 X-17.107 Y161.752
N11590 X-16.827 Y162.153
N11595 X-16.609 Y162.59
N11600 G03 X-18.689 Y165.94 I-2.346 J0.865
N11605 G01 X-75.122 Y171.979
N11610 G03 X-77.037 Y167.613 I-0.266 J-2.486
N11615 G01 X-76.761 Y167.388
N11620 X-76.211 Y166.863
N11625 X-75.492 Y166.113
N11630 X-74.914 Y165.364
N11635 X-74.515 Y164.792
N11640 X-74.399 Y164.614
N11645 X-73.973 Y163.864
N11650 X-73.605 Y163.114
N11655 X-73.337 Y162.566
N11660 X-72.954 Y161.921
N11665 X-72.446 Y161.205
N11670 X-71.796 Y160.428
N11675 X-70.985 Y159.603
N11680 X-69.969 Y158.724
N11685 X-68.702 Y157.795
N11690 X-67.237 Y156.891
N11695 X-65.708 Y156.099
N11700 X-64.133 Y155.405
N11705 X-62.522 Y154.796
N11710 X-60.885 Y154.263
N11715 X-59.228 Y153.796
N11720 X-57.556 Y153.387
N11725 X-55.872 Y153.028
N11730 X-54.18 Y152.713
N11735 X-52.48 Y152.437
N11740 X-50.776 Y152.196
N11745 X-49.067 Y151.984
N11750 X-47.356 Y151.798
N11755 X-45.642 Y151.636
N11760 X-43.926 Y151.493
N11765 X-42.209 Y151.369
N11770 X-40.491 Y151.259
N11775 X-38.772 Y151.164
N11780 X-37.052 Y151.08
N11785 X-33.612 Y150.943
N11790 X-30.17 Y150.837
N11795 X-28.449 Y150.809
N11800 X-26.727 Y150.827
N11805 X-25.008 Y150.915
N11810 X-23.296 Y151.097
N11815 X-21.617 Y151.393
N11820 X-20.163 Y151.771
N11825 X-19.546 Y151.986
N11830 X-19.115 Y152.174
N11835 X-18.718 Y152.427
N11840 X-18.365 Y152.737
N11845 X-18.064 Y153.099
N11850 X-17.821 Y153.502
N11855 X-17.644 Y153.938
N11860 X-17.536 Y154.395
N11865 X-17.5 Y154.864
N11870 X-17.497 Y157.527
N11875 G03 X-19.68 Y159.94 I-2.499 J-0.067
N11880 G01 X-70.949 Y166.475
N11885 G03 X-73.605 Y163.114 I-0.316 J-2.48
N11890 G01 X-73.293 Y162.364
N11895 X-73.017 Y161.509
N11900 X-72.839 Y160.864
N11905 X-72.694 Y160.114
N11910 X-72.587 Y159.364
N11915 X-72.517 Y158.614
N11920 X-72.479 Y158.206
N11925 X-72.377 Y157.621
N11930 X-72.207 Y156.965
N11935 X-71.958 Y156.247
N11940 X-71.617 Y155.472
N11945 X-71.156 Y154.616
N11950 X-70.577 Y153.723
N11955 X-69.84 Y152.764
N11960 X-68.92 Y151.748
N11965 X-67.787 Y150.682
N11970 X-66.442 Y149.607
N11975 X-65.018 Y148.639
N11980 X-63.532 Y147.77
N11985 X-61.997 Y146.99
N11990 X-60.424 Y146.29
N11995 X-58.821 Y145.664
N12000 X-57.193 Y145.103
N12005 X-55.546 Y144.601
N12010 X-53.884 Y144.152
N12015 X-52.21 Y143.75
N12020 X-50.526 Y143.392
N12025 X-48.835 Y143.072
N12030 X-47.137 Y142.786
N12035 X-45.434 Y142.531
N12040 X-43.728 Y142.304
N12045 X-42.018 Y142.101
N12050 X-40.306 Y141.921
N12055 X-38.592 Y141.764
N12060 X-36.875 Y141.631
N12065 X-35.156 Y141.529
N12070 X-33.436 Y141.462
N12075 X-31.715 Y141.435
N12080 X-29.993 Y141.456
N12085 X-28.273 Y141.533
N12090 X-26.557 Y141.673
N12095 X-24.849 Y141.888
N12100 X-23.157 Y142.202
N12105 X-21.555 Y142.618
N12110 X-20.173 Y143.098
N12115 X-19.471 Y143.407
N12120 X-19.049 Y143.63
N12125 X-18.665 Y143.911
N12130 X-18.325 Y144.245
N12135 X-18.036 Y144.624
N12140 X-17.805 Y145.041
N12145 X-17.637 Y145.487
N12150 X-17.534 Y145.952
N12155 X-17.5 Y146.427
N12160 Y154.864
N12165 G03 X-19.81 Y157.27 I-2.498 J-0.087
N12170 G01 X-69.829 Y161.057
N12175 G03 X-72.517 Y158.614 I-0.189 J-2.493
N12180 G01 X-72.5 Y157.114
N12185 Y152.614
N12190 X-72.452 Y151.648
N12195 X-72.358 Y150.934
N12200 X-72.19 Y150.147
N12205 X-71.931 Y149.284
N12210 X-71.576 Y148.373
N12215 X-71.09 Y147.371
N12220 X-70.468 Y146.314
N12225 X-69.69 Y145.207
N12230 X-68.716 Y144.033
N12235 X-67.518 Y142.805
N12240 X-66.22 Y141.673
N12245 X-64.846 Y140.636
N12250 X-63.409 Y139.688
N12255 X-61.921 Y138.822
N12260 X-60.391 Y138.033
N12265 X-58.827 Y137.313
N12270 X-57.234 Y136.659
N12275 X-55.619 Y136.063
N12280 X-53.985 Y135.522
N12285 X-52.335 Y135.031
N12290 X-50.672 Y134.585
N12295 X-48.998 Y134.182
N12300 X-47.315 Y133.818
N12305 X-45.625 Y133.492
N12310 X-43.928 Y133.203
N12315 X-42.225 Y132.952
N12320 X-40.516 Y132.738
N12325 X-38.804 Y132.563
N12330 X-37.087 Y132.428
N12335 X-35.368 Y132.335
N12340 X-33.647 Y132.288
N12345 X-31.926 Y132.292
N12350 X-30.205 Y132.351
N12355 X-28.487 Y132.468
N12360 X-26.776 Y132.653
N12365 X-25.074 Y132.913
N12370 X-23.388 Y133.261
N12375 X-21.728 Y133.718
N12380 X-20.278 Y134.242
N12385 X-19.418 Y134.634
N12390 X-19.007 Y134.858
N12395 X-18.632 Y135.138
N12400 X-18.301 Y135.469
N12405 X-18.021 Y135.843
N12410 X-17.797 Y136.254
N12415 X-17.633 Y136.692
N12420 X-17.533 Y137.149
N12425 X-17.5 Y137.615
N12430 Y146.427
N12435 G03 X-19.691 Y148.821 I-2.498 J-0.087
N12440 G01 X-69.695 Y155.008
N12445 G03 X-72.5 Y152.614 I-0.307 J-2.481
N12450 G01 Y144.365
N12455 X-72.475 Y143.871
N12460 X-72.37 Y143.067
N12465 X-72.188 Y142.216
N12470 X-71.9 Y141.257
N12475 X-71.507 Y140.246
N12480 X-70.979 Y139.159
N12485 X-70.29 Y137.989
N12490 X-69.42 Y136.749
N12495 X-68.341 Y135.449
N12500 X-67.138 Y134.217
N12505 X-65.85 Y133.075
N12510 X-64.49 Y132.019
N12515 X-63.071 Y131.045
N12520 X-61.602 Y130.146
N12525 X-60.093 Y129.318
N12530 X-58.549 Y128.556
N12535 X-56.976 Y127.856
N12540 X-55.379 Y127.214
N12545 X-53.761 Y126.626
N12550 X-52.124 Y126.091
N12555 X-50.473 Y125.604
N12560 X-48.808 Y125.165
N12565 X-47.132 Y124.771
N12570 X-45.447 Y124.422
N12575 X-43.752 Y124.116
N12580 X-42.05 Y123.856
N12585 X-40.342 Y123.64
N12590 X-38.629 Y123.471
N12595 X-36.912 Y123.347
N12600 X-35.192 Y123.272
N12605 X-33.471 Y123.246
N12610 X-31.749 Y123.275
N12615 X-30.03 Y123.362
N12620 X-28.314 Y123.508
N12625 X-26.606 Y123.723
N12630 X-24.909 Y124.012
N12635 X-23.229 Y124.387
N12640 X-21.576 Y124.869
N12645 X-20.122 Y125.419
N12650 X-19.269 Y125.823
N12655 X-18.889 Y126.036
N12660 X-18.543 Y126.301
N12665 X-18.238 Y126.612
N12670 X-17.979 Y126.963
N12675 X-17.773 Y127.347
N12680 X-17.622 Y127.755
N12685 X-17.531 Y128.181
N12690 X-17.5 Y128.616
N12695 Y137.615
N12700 G03 X-19.664 Y140.006 I-2.498 J-0.087
N12705 G01 X-69.667 Y146.755
N12710 G03 X-72.5 Y144.365 I-0.334 J-2.478
N12715 G01 Y136.116
N12720 X-72.472 Y135.548
N12725 X-72.362 Y134.715
N12730 X-72.169 Y133.81
N12735 X-71.866 Y132.799
N12740 X-71.451 Y131.732
N12745 X-70.891 Y130.58
N12750 X-70.162 Y129.341
N12755 X-69.239 Y128.027
N12760 X-68.139 Y126.702
N12765 X-66.941 Y125.466
N12770 X-65.662 Y124.314
N12775 X-64.314 Y123.244
N12780 X-62.908 Y122.249
N12785 X-61.454 Y121.328
N12790 X-59.862 Y120.426
N12795 X-58.232 Y119.597
N12800 X-56.667 Y118.879
N12805 X-55.077 Y118.219
N12810 X-53.465 Y117.616
N12815 X-51.833 Y117.065
N12820 X-50.185 Y116.567
N12825 X-48.523 Y116.119
N12830 X-46.848 Y115.72
N12835 X-45.163 Y115.369
N12840 X-43.468 Y115.065
N12845 X-41.766 Y114.809
N12850 X-40.057 Y114.602
N12855 X-38.343 Y114.443
N12860 X-36.624 Y114.333
N12865 X-34.904 Y114.273
N12870 X-33.182 Y114.264
N12875 X-31.461 Y114.312
N12880 X-29.743 Y114.419
N12885 X-28.03 Y114.586
N12890 X-26.324 Y114.821
N12895 X-24.631 Y115.132
N12900 X-22.955 Y115.528
N12905 X-21.309 Y116.032
N12910 X-19.876 Y116.596
N12915 X-19.348 Y116.855
N12920 X-18.95 Y117.085
N12925 X-18.589 Y117.369
N12930 X-18.27 Y117.7
N12935 X-18. Y118.072
N12940 X-17.784 Y118.478
N12945 X-17.627 Y118.91
N12950 X-17.532 Y119.36
N12955 X-17.5 Y119.818
N12960 Y128.616
N12965 G03 X-19.628 Y131.001 I-2.498 J-0.087
N12970 G01 X-69.631 Y138.501
N12975 G03 X-72.5 Y136.116 I-0.371 J-2.472
N12980 G01 Y127.866
N12985 X-72.453 Y126.918
N12990 X-72.34 Y126.063
N12995 X-72.14 Y125.126
N13000 X-71.828 Y124.084
N13005 X-71.397 Y122.978
N13010 X-70.82 Y121.788
N13015 X-70.069 Y120.512
N13020 X-69.113 Y119.152
N13025 X-68.013 Y117.827
N13030 X-66.819 Y116.587
N13035 X-65.544 Y115.43
N13040 X-64.202 Y114.351
N13045 X-62.804 Y113.348
N13050 X-61.356 Y112.416
N13055 X-59.866 Y111.553
N13060 X-58.34 Y110.755
N13065 X-56.784 Y110.02
N13070 X-55.201 Y109.343
N13075 X-53.594 Y108.724
N13080 X-51.968 Y108.16
N13085 X-50.324 Y107.649
N13090 X-48.665 Y107.189
N13095 X-46.992 Y106.781
N13100 X-45.308 Y106.423
N13105 X-43.615 Y106.114
N13110 X-41.913 Y105.854
N13115 X-40.204 Y105.644
N13120 X-38.49 Y105.482
N13125 X-36.772 Y105.37
N13130 X-35.051 Y105.309
N13135 X-33.33 Y105.302
N13140 X-31.609 Y105.349
N13145 X-29.89 Y105.453
N13150 X-28.177 Y105.618
N13155 X-26.471 Y105.852
N13160 X-24.777 Y106.158
N13165 X-23.1 Y106.55
N13170 X-21.453 Y107.049
N13175 X-20.003 Y107.615
N13180 X-19.359 Y107.928
N13185 X-18.959 Y108.158
N13190 X-18.595 Y108.441
N13195 X-18.274 Y108.772
N13200 X-18.003 Y109.145
N13205 X-17.786 Y109.552
N13210 X-17.628 Y109.985
N13215 X-17.532 Y110.436
N13220 X-17.5 Y110.896
N13225 Y119.818
N13230 G03 X-19.601 Y122.199 I-2.498 J-0.087
N13235 G01 X-69.604 Y130.247
N13240 G03 X-72.5 Y127.866 I-0.397 J-2.468
N13245 G01 Y118.867
N13250 X-72.463 Y118.135
N13255 X-72.35 Y117.268
N13260 X-72.145 Y116.312
N13265 X-71.827 Y115.25
N13270 X-71.389 Y114.125
N13275 X-70.801 Y112.913
N13280 X-70.035 Y111.611
N13285 X-69.065 Y110.231
N13290 X-67.966 Y108.907
N13295 X-66.772 Y107.666
N13300 X-65.5 Y106.506
N13305 X-64.161 Y105.424
N13310 X-62.765 Y104.416
N13315 X-61.32 Y103.48
N13320 X-59.834 Y102.611
N13325 X-58.311 Y101.809
N13330 X-56.756 Y101.068
N13335 X-55.175 Y100.388
N13340 X-53.57 Y99.766
N13345 X-51.944 Y99.199
N13350 X-50.301 Y98.686
N13355 X-48.642 Y98.225
N13360 X-46.97 Y97.815
N13365 X-45.286 Y97.457
N13370 X-43.592 Y97.148
N13375 X-41.89 Y96.89
N13380 X-40.181 Y96.681
N13385 X-38.467 Y96.521
N13390 X-38.031 Y96.5
N13395 X-34.075
N13400 X-32.355 Y96.586
N13405 X-30.634 Y96.634
N13410 X-28.916 Y96.75
N13415 X-27.205 Y96.934
N13420 X-25.502 Y97.19
N13425 X-23.815 Y97.531
N13430 X-22.151 Y97.972
N13435 X-20.612 Y98.502
N13440 X-19.239 Y99.107
N13445 X-18.862 Y99.343
N13450 X-18.521 Y99.628
N13455 X-18.221 Y99.956
N13460 X-17.968 Y100.321
N13465 X-17.766 Y100.717
N13470 X-17.619 Y101.136
N13475 X-17.53 Y101.571
N13480 X-17.5 Y102.015
N13485 Y109.867
N13490 G03 X-21.525 Y111.76 I-2.498 J-0.087
N13495 G01 X-35.513 Y100.979
N13500 G03 X-34.075 Y96.5 I1.526 J-1.98
N13505 G01 X-20.595
N13510 X-19.846 Y96.506
N13515 X-19.471 Y96.561
N13520 X-19.097 Y96.677
N13525 X-18.735 Y96.855
N13530 X-18.554 Y96.974
N13535 X-18.348 Y97.141
N13540 X-18.163 Y97.323
N13545 X-18.01 Y97.505
N13550 X-17.78 Y97.868
N13555 X-17.677 Y98.095
N13560 X-17.599 Y98.322
N13565 X-17.532 Y98.618
N13570 X-17.5 Y99.368
N13575 Y102.015
N13580 G03 X-19.2 Y104.296 I-2.498 J-0.087
N13585 G01 X-69.203 Y121.149
N13590 G03 X-72.5 Y118.867 I-0.798 J-2.369
N13595 G01 Y109.867
N13600 X-72.469 Y109.252
N13605 X-72.355 Y108.379
N13610 X-72.149 Y107.415
N13615 X-71.828 Y106.345
N13620 X-71.386 Y105.211
N13625 X-70.793 Y103.988
N13630 X-70.021 Y102.677
N13635 X-69.045 Y101.287
N13640 X-67.945 Y99.962
N13645 X-66.752 Y98.721
N13650 X-65.481 Y97.56
N13655 X-65.08 Y97.235
N13660 X-64.712 Y96.977
N13665 X-64.314 Y96.771
N13670 X-63.89 Y96.622
N13675 X-63.451 Y96.531
N13680 X-63.003 Y96.5
N13685 X-38.031
N13690 G03 X-37.317 Y101.367 I-0.087 J2.498
N13695 G01 X-69.201 Y112.148
N13700 G03 X-72.5 Y109.867 I-0.801 J-2.368
N13705 G01 Y100.868
N13710 X-72.473 Y100.324
N13715 X-72.364 Y99.494
N13720 X-72.186 Y98.662
N13725 X-72.01 Y98.211
N13730 X-71.765 Y97.793
N13735 X-71.456 Y97.42
N13740 X-71.092 Y97.1
N13745 X-70.682 Y96.843
N13750 X-70.235 Y96.654
N13755 X-69.765 Y96.539
N13760 X-69.282 Y96.5
N13765 G03 X-67.013 Y99.835 I-0.086 J2.499
N13770 G01 X-67.646 Y101.618
N13775 G03 X-72.5 Y100.868 I-2.356 J-0.837
N13780 G01 Y99.368
N13785 X-72.468 Y98.618
N13790 X-72.392 Y98.293
N13795 X-72.268 Y97.967
N13800 X-72.22 Y97.868
N13805 X-71.982 Y97.493
N13810 X-71.825 Y97.306
N13815 X-71.633 Y97.118
N13820 X-71.519 Y97.025
N13825 X-71.332 Y96.893
N13830 X-71.145 Y96.784
N13835 X-70.77 Y96.626
N13840 X-70.396 Y96.534
N13845 X-70.021 Y96.5
N13850 X-64.03
N13855 G03 X-63.081 Y96.724 I-0.087 J2.498
N13860 G01 X-62.902 Y96.805 Z-4.992
N13865 X-62.725 Y96.886 Z-4.969
N13870 X-62.55 Y96.966 Z-4.931
N13875 X-62.378 Y97.044 Z-4.878
N13880 X-62.21 Y97.12 Z-4.81
N13885 X-62.048 Y97.194 Z-4.728
N13890 X-61.892 Y97.265 Z-4.632
N13895 X-61.744 Y97.333 Z-4.523
N13900 X-61.603 Y97.397 Z-4.401
N13905 X-61.472 Y97.457 Z-4.268
N13910 X-61.351 Y97.512 Z-4.124
N13915 X-61.24 Y97.562 Z-3.969
N13920 X-61.141 Y97.608 Z-3.806
N13925 X-61.054 Y97.647 Z-3.635
N13930 X-60.979 Y97.681 Z-3.457
N13935 X-60.917 Y97.71 Z-3.273
N13940 X-60.869 Y97.732 Z-3.084
N13945 X-60.834 Y97.748 Z-2.891
N13950 X-60.813 Y97.757 Z-2.696
N13955 X-60.806 Y97.76 Z-2.5
N13960 G00 Z6.
N13965 X1.806 Y172.105
N13970 Z0.
N13975 G01 Z-2.5 F2328.
N13980 X1.813 Y172.101 Z-2.696
N13985 X1.833 Y172.089 Z-2.891
N13990 X1.865 Y172.069 Z-3.084
N13995 X1.91 Y172.041 Z-3.273
N14000 X1.968 Y172.005 Z-3.457
N14005 X2.038 Y171.962 Z-3.635
N14010 X2.12 Y171.911 Z-3.806
N14015 X2.212 Y171.854 Z-3.969
N14020 X2.316 Y171.79 Z-4.124
N14025 X2.429 Y171.719 Z-4.268
N14030 X2.551 Y171.643 Z-4.401
N14035 X2.682 Y171.562 Z-4.523
N14040 X2.821 Y171.476 Z-4.632
N14045 X2.967 Y171.386 Z-4.728
N14050 X3.118 Y171.292 Z-4.81
N14055 X3.275 Y171.195 Z-4.878
N14060 X3.435 Y171.095 Z-4.931
N14065 X3.599 Y170.994 Z-4.969
N14070 X3.764 Y170.891 Z-4.992
N14075 X3.931 Y170.788 Z-5.
N14080 G03 X4.868 Y170.494 I1.042 J1.681
N14085 G01 X5.617 Y170.48
N14090 X6.366 Y170.411
N14095 X7.114 Y170.307
N14100 X7.863 Y170.165
N14105 X8.926 Y169.863
N14110 X9.361 Y169.699
N14115 X10.11 Y169.401
N14120 X10.859 Y169.026
N14125 X11.608 Y168.597
N14130 X11.987 Y168.363
N14135 X12.357 Y168.09
N14140 X13.106 Y167.496
N14145 X13.869 Y166.891
N14150 X14.964 Y166.158
N14155 X16.372 Y165.371
N14160 X17.937 Y164.655
N14165 X19.548 Y164.048
N14170 X21.191 Y163.533
N14175 X22.856 Y163.095
N14180 X24.537 Y162.722
N14185 X26.229 Y162.404
N14190 X27.929 Y162.132
N14195 X29.634 Y161.899
N14200 X31.344 Y161.7
N14205 X33.058 Y161.53
N14210 X34.773 Y161.384
N14215 X36.49 Y161.258
N14220 X38.208 Y161.151
N14225 X39.928 Y161.059
N14230 X41.647 Y160.98
N14235 X45.088 Y160.854
N14240 X48.53 Y160.761
N14245 X53.694 Y160.666
N14250 X58.859 Y160.605
N14255 X62.302 Y160.578
N14260 X70.76 Y160.537
N14265 X71.175 Y160.568
N14270 X71.581 Y160.664
N14275 X71.967 Y160.822
N14280 X72.323 Y161.039
N14285 X72.641 Y161.308
N14290 X72.913 Y161.625
N14295 X73.132 Y161.979
N14300 X73.293 Y162.364
N14305 G03 X71.221 Y165.73 I-2.34 J0.881
N14310 G01 X15.111 Y171.78
N14315 G03 X13.106 Y167.496 I-0.268 J-2.486
N14320 G01 X13.855 Y166.819
N14325 X14.496 Y166.113
N14330 X15.352 Y165.003
N14335 X15.597 Y164.614
N14340 X16.027 Y163.864
N14345 X16.395 Y163.114
N14350 X16.666 Y162.56
N14355 X17.058 Y161.901
N14360 X17.558 Y161.195
N14365 X18.202 Y160.425
N14370 X19.017 Y159.596
N14375 X20.035 Y158.716
N14380 X21.299 Y157.788
N14385 X22.764 Y156.885
N14390 X24.293 Y156.093
N14395 X25.868 Y155.399
N14400 X27.479 Y154.792
N14405 X29.116 Y154.259
N14410 X30.773 Y153.792
N14415 X32.446 Y153.383
N14420 X34.13 Y153.025
N14425 X35.822 Y152.71
N14430 X37.522 Y152.435
N14435 X39.226 Y152.193
N14440 X40.935 Y151.982
N14445 X42.646 Y151.797
N14450 X44.36 Y151.634
N14455 X46.076 Y151.492
N14460 X47.793 Y151.367
N14465 X49.511 Y151.258
N14470 X51.23 Y151.163
N14475 X52.95 Y151.079
N14480 X56.39 Y150.942
N14485 X59.832 Y150.837
N14490 X61.553 Y150.803
N14495 X63.275 Y150.81
N14500 X64.995 Y150.883
N14505 X66.709 Y151.049
N14510 X68.361 Y151.325
N14515 X69.785 Y151.682
N14520 X70.356 Y151.876
N14525 X70.807 Y152.068
N14530 X71.222 Y152.329
N14535 X71.593 Y152.65
N14540 X71.909 Y153.025
N14545 X72.163 Y153.445
N14550 X72.349 Y153.898
N14555 X72.462 Y154.375
N14560 X72.5 Y154.864
N14565 X72.503 Y157.527
N14570 G03 X70.32 Y159.94 I-2.499 J-0.067
N14575 G01 X19.056 Y166.458
N14580 G03 X16.395 Y163.114 I-0.315 J-2.48
N14585 G01 X16.701 Y162.364
N14590 X16.85 Y161.961
N14595 X16.954 Y161.614
N14600 X17.161 Y160.864
N14605 X17.306 Y160.114
N14610 X17.413 Y159.364
N14615 X17.483 Y158.614
N14620 X17.521 Y158.2
N14625 X17.623 Y157.615
N14630 X17.793 Y156.96
N14635 X18.042 Y156.242
N14640 X18.383 Y155.467
N14645 X18.844 Y154.612
N14650 X19.423 Y153.719
N14655 X20.159 Y152.761
N14660 X21.079 Y151.745
N14665 X22.212 Y150.679
N14670 X23.556 Y149.604
N14675 X24.98 Y148.637
N14680 X26.467 Y147.767
N14685 X28.001 Y146.987
N14690 X29.574 Y146.288
N14695 X31.178 Y145.661
N14700 X32.806 Y145.101
N14705 X34.453 Y144.599
N14710 X36.115 Y144.15
N14715 X37.789 Y143.749
N14720 X39.473 Y143.39
N14725 X41.164 Y143.07
N14730 X42.862 Y142.784
N14735 X44.565 Y142.53
N14740 X46.271 Y142.303
N14745 X47.981 Y142.1
N14750 X49.693 Y141.92
N14755 X51.407 Y141.762
N14760 X53.124 Y141.627
N14765 X54.842 Y141.521
N14770 X56.562 Y141.45
N14775 X58.284 Y141.417
N14780 X60.005 Y141.432
N14785 X61.725 Y141.502
N14790 X63.442 Y141.635
N14795 X65.15 Y141.846
N14800 X66.844 Y142.158
N14805 X68.436 Y142.571
N14810 X69.814 Y143.049
N14815 X70.529 Y143.363
N14820 X70.95 Y143.586
N14825 X71.335 Y143.867
N14830 X71.675 Y144.201
N14835 X71.964 Y144.581
N14840 X72.195 Y144.997
N14845 X72.363 Y145.443
N14850 X72.466 Y145.909
N14855 X72.5 Y146.384
N14860 Y154.864
N14865 G03 X70.19 Y157.27 I-2.498 J-0.087
N14870 G01 X20.171 Y161.057
N14875 G03 X17.483 Y158.614 I-0.189 J-2.493
N14880 G01 X17.5 Y157.114
N14885 Y152.614
N14890 X17.549 Y151.644
N14895 X17.642 Y150.93
N14900 X17.81 Y150.144
N14905 X18.069 Y149.281
N14910 X18.424 Y148.369
N14915 X18.91 Y147.368
N14920 X19.532 Y146.311
N14925 X20.31 Y145.204
N14930 X21.283 Y144.031
N14935 X22.482 Y142.803
N14940 X23.779 Y141.671
N14945 X25.154 Y140.634
N14950 X26.591 Y139.686
N14955 X28.079 Y138.82
N14960 X29.609 Y138.031
N14965 X31.173 Y137.311
N14970 X32.765 Y136.657
N14975 X34.38 Y136.061
N14980 X36.015 Y135.52
N14985 X37.665 Y135.029
N14990 X39.328 Y134.584
N14995 X41.002 Y134.18
N15000 X42.684 Y133.816
N15005 X44.374 Y133.489
N15010 X46.071 Y133.199
N15015 X47.774 Y132.946
N15020 X49.482 Y132.73
N15025 X51.195 Y132.552
N15030 X52.911 Y132.414
N15035 X54.63 Y132.318
N15040 X56.351 Y132.267
N15045 X58.072
N15050 X59.793 Y132.323
N15055 X61.511 Y132.438
N15060 X63.223 Y132.621
N15065 X64.925 Y132.879
N15070 X66.611 Y133.225
N15075 X68.271 Y133.681
N15080 X69.719 Y134.204
N15085 X70.566 Y134.59
N15090 X70.98 Y134.815
N15095 X71.358 Y135.097
N15100 X71.692 Y135.43
N15105 X71.975 Y135.807
N15110 X72.201 Y136.221
N15115 X72.366 Y136.663
N15120 X72.466 Y137.123
N15125 X72.5 Y137.594
N15130 Y146.384
N15135 G03 X70.311 Y148.778 I-2.498 J-0.087
N15140 G01 X20.308 Y155.008
N15145 G03 X17.5 Y152.614 I-0.309 J-2.481
N15150 G01 Y144.365
N15155 X17.525 Y143.868
N15160 X17.63 Y143.064
N15165 X17.812 Y142.213
N15170 X18.1 Y141.254
N15175 X18.493 Y140.244
N15180 X19.021 Y139.156
N15185 X19.709 Y137.986
N15190 X20.58 Y136.747
N15195 X21.659 Y135.447
N15200 X22.861 Y134.215
N15205 X24.15 Y133.073
N15210 X25.51 Y132.017
N15215 X26.929 Y131.043
N15220 X28.397 Y130.144
N15225 X29.907 Y129.316
N15230 X31.451 Y128.554
N15235 X33.024 Y127.854
N15240 X34.621 Y127.212
N15245 X36.239 Y126.624
N15250 X37.875 Y126.087
N15255 X39.526 Y125.6
N15260 X41.19 Y125.159
N15265 X42.866 Y124.764
N15270 X44.551 Y124.413
N15275 X46.245 Y124.106
N15280 X47.947 Y123.843
N15285 X49.655 Y123.626
N15290 X51.368 Y123.454
N15295 X53.085 Y123.329
N15300 X54.805 Y123.251
N15305 X56.526 Y123.223
N15310 X58.247 Y123.25
N15315 X59.967 Y123.335
N15320 X61.682 Y123.481
N15325 X63.391 Y123.693
N15330 X65.088 Y123.981
N15335 X66.769 Y124.356
N15340 X68.421 Y124.838
N15345 X69.875 Y125.387
N15350 X70.703 Y125.778
N15355 X71.089 Y125.995
N15360 X71.44 Y126.264
N15365 X71.75 Y126.58
N15370 X72.013 Y126.937
N15375 X72.223 Y127.326
N15380 X72.376 Y127.742
N15385 X72.469 Y128.175
N15390 X72.5 Y128.616
N15395 Y137.594
N15400 G03 X70.337 Y139.984 I-2.498 J-0.087
N15405 G01 X20.334 Y146.755
N15410 G03 X17.5 Y144.365 I-0.335 J-2.477
N15415 G01 Y136.116
N15420 X17.529 Y135.546
N15425 X17.638 Y134.713
N15430 X17.831 Y133.808
N15435 X18.134 Y132.797
N15440 X18.549 Y131.73
N15445 X19.109 Y130.578
N15450 X19.838 Y129.339
N15455 X20.761 Y128.025
N15460 X21.861 Y126.7
N15465 X23.059 Y125.464
N15470 X24.338 Y124.312
N15475 X25.686 Y123.241
N15480 X27.092 Y122.247
N15485 X28.546 Y121.325
N15490 X30.137 Y120.423
N15495 X31.767 Y119.594
N15500 X33.332 Y118.875
N15505 X34.922 Y118.214
N15510 X36.534 Y117.61
N15515 X38.165 Y117.058
N15520 X39.812 Y116.559
N15525 X41.474 Y116.11
N15530 X43.148 Y115.709
N15535 X44.833 Y115.356
N15540 X46.528 Y115.051
N15545 X48.23 Y114.794
N15550 X49.939 Y114.585
N15555 X51.653 Y114.424
N15560 X53.371 Y114.313
N15565 X55.092 Y114.251
N15570 X56.813 Y114.242
N15575 X58.534 Y114.288
N15580 X60.253 Y114.394
N15585 X61.966 Y114.56
N15590 X63.672 Y114.794
N15595 X65.365 Y115.104
N15600 X67.041 Y115.5
N15605 X68.687 Y116.004
N15610 X70.119 Y116.568
N15615 X70.653 Y116.83
N15620 X71.05 Y117.061
N15625 X71.412 Y117.344
N15630 X71.731 Y117.675
N15635 X72. Y118.047
N15640 X72.216 Y118.453
N15645 X72.373 Y118.885
N15650 X72.468 Y119.335
N15655 X72.5 Y119.793
N15660 Y128.616
N15665 G03 X70.372 Y131.001 I-2.498 J-0.087
N15670 G01 X20.369 Y138.501
N15675 G03 X17.5 Y136.116 I-0.371 J-2.472
N15680 G01 Y127.866
N15685 X17.548 Y126.916
N15690 X17.66 Y126.06
N15695 X17.86 Y125.124
N15700 X18.172 Y124.081
N15705 X18.603 Y122.975
N15710 X19.181 Y121.784
N15715 X19.932 Y120.508
N15720 X20.888 Y119.147
N15725 X21.988 Y117.822
N15730 X23.183 Y116.582
N15735 X24.457 Y115.425
N15740 X25.799 Y114.346
N15745 X27.197 Y113.342
N15750 X28.645 Y112.41
N15755 X30.134 Y111.546
N15760 X31.659 Y110.748
N15765 X33.216 Y110.012
N15770 X34.798 Y109.335
N15775 X36.404 Y108.714
N15780 X38.031 Y108.149
N15785 X39.674 Y107.637
N15790 X41.333 Y107.177
N15795 X43.005 Y106.767
N15800 X44.689 Y106.408
N15805 X46.383 Y106.098
N15810 X48.084 Y105.837
N15815 X49.793 Y105.626
N15820 X51.507 Y105.463
N15825 X53.225 Y105.35
N15830 X54.945 Y105.288
N15835 X56.667 Y105.279
N15840 X58.388 Y105.326
N15845 X60.106 Y105.43
N15850 X61.82 Y105.594
N15855 X63.526 Y105.828
N15860 X65.22 Y106.133
N15865 X66.897 Y106.525
N15870 X68.544 Y107.024
N15875 X69.994 Y107.589
N15880 X70.641 Y107.903
N15885 X71.041 Y108.133
N15890 X71.405 Y108.416
N15895 X71.725 Y108.747
N15900 X71.997 Y109.12
N15905 X72.214 Y109.527
N15910 X72.372 Y109.96
N15915 X72.468 Y110.412
N15920 X72.5 Y110.872
N15925 Y119.793
N15930 G03 X70.4 Y122.174 I-2.498 J-0.087
N15935 G01 X20.397 Y130.247
N15940 G03 X17.5 Y127.866 I-0.398 J-2.468
N15945 G01 Y118.867
N15950 X17.537 Y118.131
N15955 X17.651 Y117.263
N15960 X17.855 Y116.307
N15965 X18.173 Y115.244
N15970 X18.612 Y114.119
N15975 X19.2 Y112.906
N15980 X19.967 Y111.604
N15985 X20.937 Y110.223
N15990 X22.037 Y108.898
N15995 X23.23 Y107.657
N16000 X24.502 Y106.497
N16005 X25.841 Y105.415
N16010 X27.237 Y104.407
N16015 X28.681 Y103.47
N16020 X30.167 Y102.601
N16025 X31.69 Y101.798
N16030 X33.244 Y101.057
N16035 X34.825 Y100.376
N16040 X36.43 Y99.753
N16045 X38.056 Y99.185
N16050 X39.699 Y98.672
N16055 X41.358 Y98.21
N16060 X43.03 Y97.8
N16065 X44.713 Y97.44
N16070 X46.407 Y97.131
N16075 X48.109 Y96.872
N16080 X49.818 Y96.662
N16085 X51.498 Y96.506
N16090 X51.703 Y96.5
N16095 X56.541
N16100 X58.261 Y96.586
N16105 X59.981 Y96.656
N16110 X61.697 Y96.792
N16115 X63.406 Y97.001
N16120 X65.104 Y97.285
N16125 X66.785 Y97.658
N16130 X68.438 Y98.139
N16135 X69.886 Y98.686
N16140 X70.61 Y99.028
N16145 X71.016 Y99.256
N16150 X71.386 Y99.539
N16155 X71.712 Y99.871
N16160 X71.988 Y100.246
N16165 X72.209 Y100.655
N16170 X72.369 Y101.092
N16175 X72.467 Y101.547
N16180 X72.5 Y102.012
N16185 Y110.872
N16190 G03 X68.349 Y112.66 I-2.498 J-0.087
N16195 G01 X54.976 Y100.874
N16200 G03 X56.541 Y96.5 I1.653 J-1.876
N16205 G01 X70.021
N16210 X70.396 Y96.534
N16215 X70.77 Y96.626
N16220 X71.145 Y96.784
N16225 X71.332 Y96.893
N16230 X71.519 Y97.025
N16235 X71.633 Y97.118
N16240 X71.825 Y97.306
N16245 X71.982 Y97.493
N16250 X72.22 Y97.868
N16255 X72.268 Y97.967
N16260 X72.392 Y98.293
N16265 X72.468 Y98.618
N16270 X72.5 Y99.368
N16275 Y102.012
N16280 G03 X70.8 Y104.293 I-2.498 J-0.087
N16285 G01 X20.797 Y121.149
N16290 G03 X17.5 Y118.867 I-0.799 J-2.369
N16295 G01 Y109.867
N16300 X17.531 Y109.244
N16305 X17.646 Y108.371
N16310 X17.852 Y107.407
N16315 X18.173 Y106.336
N16320 X18.615 Y105.201
N16325 X19.208 Y103.978
N16330 X19.981 Y102.666
N16335 X20.957 Y101.275
N16340 X22.057 Y99.951
N16345 X23.25 Y98.709
N16350 X24.521 Y97.548
N16355 X24.907 Y97.236
N16360 X25.274 Y96.977
N16365 X25.673 Y96.771
N16370 X26.097 Y96.622
N16375 X26.536 Y96.531
N16380 X26.984 Y96.5
N16385 X50.55
N16390 G03 X51.297 Y101.355 I-0.087 J2.498
N16395 G01 X20.833 Y112.137
N16400 G03 X17.5 Y109.867 I-0.834 J-2.357
N16405 G01 Y100.868
N16410 X17.528 Y100.313
N16415 X17.636 Y99.485
N16420 X17.814 Y98.655
N16425 X17.84 Y98.568
N16430 X18.007 Y98.138
N16435 X18.239 Y97.741
N16440 X18.532 Y97.385
N16445 X18.877 Y97.081
N16450 X19.266 Y96.834
N16455 X19.689 Y96.653
N16460 X20.136 Y96.54
N16465 X20.595 Y96.5
N16470 G03 X22.911 Y99.685 I-0.087 J2.498
N16475 G01 X22.402 Y101.467
N16480 G03 X17.5 Y100.868 I-2.404 J-0.686
N16485 G01 Y99.368
N16490 X17.532 Y98.618
N16495 X17.599 Y98.322
N16500 X17.677 Y98.095
N16505 X17.78 Y97.868
N16510 X18.01 Y97.505
N16515 X18.163 Y97.323
N16520 X18.374 Y97.118
N16525 X18.554 Y96.974
N16530 X18.735 Y96.855
N16535 X19.097 Y96.677
N16540 X19.471 Y96.561
N16545 X19.846 Y96.506
N16550 X23.59 Y96.5
N16555 X26.984
N16560 G03 X27.934 Y96.724 I-0.087 J2.498
N16565 G01 X28.112 Y96.805 Z-4.992
N16570 X28.29 Y96.886 Z-4.969
N16575 X28.465 Y96.966 Z-4.931
N16580 X28.637 Y97.044 Z-4.878
N16585 X28.804 Y97.12 Z-4.81
N16590 X28.966 Y97.194 Z-4.728
N16595 X29.122 Y97.265 Z-4.632
N16600 X29.271 Y97.333 Z-4.523
N16605 X29.411 Y97.397 Z-4.401
N16610 X29.542 Y97.457 Z-4.268
N16615 X29.664 Y97.512 Z-4.124
N16620 X29.774 Y97.562 Z-3.969
N16625 X29.873 Y97.608 Z-3.806
N16630 X29.961 Y97.647 Z-3.635
N16635 X30.035 Y97.681 Z-3.457
N16640 X30.097 Y97.71 Z-3.273
N16645 X30.146 Y97.732 Z-3.084
N16650 X30.181 Y97.748 Z-2.891
N16655 X30.202 Y97.757 Z-2.696
N16660 X30.209 Y97.76 Z-2.5
N16665 G00 Z6.
N16670 X88.038 Y-172.146
N16675 Z0.
N16680 G01 Z-2.5 F2328.
N16685 X88.032 Y-172.142 Z-2.696
N16690 X88.012 Y-172.13 Z-2.891
N16695 X87.98 Y-172.109 Z-3.084
N16700 X87.935 Y-172.08 Z-3.273
N16705 X87.878 Y-172.044 Z-3.457
N16710 X87.809 Y-172. Z-3.635
N16715 X87.728 Y-171.948 Z-3.806
N16720 X87.636 Y-171.889 Z-3.969
N16725 X87.533 Y-171.824 Z-4.124
N16730 X87.421 Y-171.752 Z-4.268
N16735 X87.3 Y-171.674 Z-4.401
N16740 X87.17 Y-171.591 Z-4.523
N16745 X87.032 Y-171.503 Z-4.632
N16750 X86.888 Y-171.411 Z-4.728
N16755 X86.738 Y-171.315 Z-4.81
N16760 X86.583 Y-171.216 Z-4.878
N16765 X86.423 Y-171.114 Z-4.931
N16770 X86.261 Y-171.011 Z-4.969
N16775 X86.097 Y-170.906 Z-4.992
N16780 X85.932 Y-170.8 Z-5.
N16785 G03 X84.999 Y-170.493 I-1.065 J-1.667
N16790 G01 X84.25 Y-170.469
N16795 X83.501 Y-170.395
N16800 X82.753 Y-170.286
N16805 X82.004 Y-170.129
N16810 X81.101 Y-169.863
N16815 X80.506 Y-169.655
N16820 X79.757 Y-169.346
N16825 X79.008 Y-168.952
N16830 X78.259 Y-168.519
N16835 X78.013 Y-168.363
N16840 X77.51 Y-168.
N16845 X77.037 Y-167.613
N16850 X75.651 Y-166.592
N16855 X74.435 Y-165.836
N16860 X72.905 Y-165.047
N16865 X71.318 Y-164.38
N16870 X69.691 Y-163.815
N16875 X68.038 Y-163.335
N16880 X66.366 Y-162.927
N16885 X64.68 Y-162.578
N16890 X62.984 Y-162.281
N16895 X61.281 Y-162.027
N16900 X59.573 Y-161.809
N16905 X57.862 Y-161.623
N16910 X56.147 Y-161.464
N16915 X54.431 Y-161.327
N16920 X52.714 Y-161.21
N16925 X50.995 Y-161.11
N16930 X49.276 Y-161.024
N16935 X47.556 Y-160.95
N16940 X44.114 Y-160.832
N16945 X40.672 Y-160.745
N16950 X35.508 Y-160.655
N16955 X30.344 Y-160.599
N16960 X26.9 Y-160.573
N16965 X19.674 Y-160.539
N16970 X19.187 Y-160.573
N16975 X18.71 Y-160.679
N16980 X18.253 Y-160.855
N16985 X17.828 Y-161.096
N16990 X17.443 Y-161.397
N16995 X17.107 Y-161.752
N17000 X16.827 Y-162.153
N17005 X16.609 Y-162.59
N17010 G03 X18.689 Y-165.94 I2.346 J-0.865
N17015 G01 X75.122 Y-171.979
N17020 G03 X77.037 Y-167.613 I0.266 J2.486
N17025 G01 X76.761 Y-167.388
N17030 X76.211 Y-166.863
N17035 X75.492 Y-166.113
N17040 X74.914 Y-165.364
N17045 X74.515 Y-164.792
N17050 X74.399 Y-164.614
N17055 X73.973 Y-163.864
N17060 X73.605 Y-163.114
N17065 X73.337 Y-162.566
N17070 X72.954 Y-161.921
N17075 X72.446 Y-161.205
N17080 X71.796 Y-160.428
N17085 X70.985 Y-159.603
N17090 X69.969 Y-158.724
N17095 X68.702 Y-157.795
N17100 X67.237 Y-156.891
N17105 X65.708 Y-156.099
N17110 X64.133 Y-155.405
N17115 X62.522 Y-154.796
N17120 X60.885 Y-154.263
N17125 X59.228 Y-153.796
N17130 X57.556 Y-153.387
N17135 X55.872 Y-153.028
N17140 X54.18 Y-152.713
N17145 X52.48 Y-152.437
N17150 X50.776 Y-152.196
N17155 X49.067 Y-151.984
N17160 X47.356 Y-151.798
N17165 X45.642 Y-151.636
N17170 X43.926 Y-151.493
N17175 X42.209 Y-151.369
N17180 X40.491 Y-151.259
N17185 X38.772 Y-151.164
N17190 X37.052 Y-151.08
N17195 X33.612 Y-150.943
N17200 X30.17 Y-150.837
N17205 X28.449 Y-150.809
N17210 X26.727 Y-150.827
N17215 X25.008 Y-150.915
N17220 X23.296 Y-151.097
N17225 X21.617 Y-151.393
N17230 X20.163 Y-151.771
N17235 X19.546 Y-151.986
N17240 X19.115 Y-152.174
N17245 X18.718 Y-152.427
N17250 X18.365 Y-152.737
N17255 X18.064 Y-153.099
N17260 X17.821 Y-153.502
N17265 X17.644 Y-153.938
N17270 X17.536 Y-154.395
N17275 X17.5 Y-154.864
N17280 X17.497 Y-157.527
N17285 G03 X19.68 Y-159.94 I2.499 J0.067
N17290 G01 X70.949 Y-166.475
N17295 G03 X73.605 Y-163.114 I0.316 J2.48
N17300 G01 X73.293 Y-162.364
N17305 X73.017 Y-161.509
N17310 X72.839 Y-160.864
N17315 X72.694 Y-160.114
N17320 X72.587 Y-159.364
N17325 X72.517 Y-158.614
N17330 X72.479 Y-158.206
N17335 X72.377 Y-157.621
N17340 X72.207 Y-156.965
N17345 X71.958 Y-156.247
N17350 X71.617 Y-155.472
N17355 X71.156 Y-154.616
N17360 X70.577 Y-153.723
N17365 X69.84 Y-152.764
N17370 X68.92 Y-151.748
N17375 X67.787 Y-150.682
N17380 X66.442 Y-149.607
N17385 X65.018 Y-148.639
N17390 X63.532 Y-147.77
N17395 X61.997 Y-146.99
N17400 X60.424 Y-146.29
N17405 X58.821 Y-145.664
N17410 X57.193 Y-145.103
N17415 X55.546 Y-144.601
N17420 X53.884 Y-144.152
N17425 X52.21 Y-143.75
N17430 X50.526 Y-143.392
N17435 X48.835 Y-143.072
N17440 X47.137 Y-142.786
N17445 X45.434 Y-142.531
N17450 X43.728 Y-142.304
N17455 X42.018 Y-142.101
N17460 X40.306 Y-141.921
N17465 X38.592 Y-141.764
N17470 X36.875 Y-141.631
N17475 X35.156 Y-141.529
N17480 X33.436 Y-141.462
N17485 X31.715 Y-141.435
N17490 X29.993 Y-141.456
N17495 X28.273 Y-141.533
N17500 X26.557 Y-141.673
N17505 X24.849 Y-141.888
N17510 X23.157 Y-142.202
N17515 X21.555 Y-142.618
N17520 X20.173 Y-143.098
N17525 X19.471 Y-143.407
N17530 X19.049 Y-143.63
N17535 X18.665 Y-143.911
N17540 X18.325 Y-144.245
N17545 X18.036 Y-144.624
N17550 X17.805 Y-145.041
N17555 X17.637 Y-145.487
N17560 X17.534 Y-145.952
N17565 X17.5 Y-146.427
N17570 Y-154.864
N17575 G03 X19.81 Y-157.27 I2.498 J0.087
N17580 G01 X69.829 Y-161.057
N17585 G03 X72.517 Y-158.614 I0.189 J2.493
N17590 G01 X72.5 Y-157.114
N17595 Y-152.614
N17600 X72.452 Y-151.648
N17605 X72.358 Y-150.934
N17610 X72.19 Y-150.147
N17615 X71.931 Y-149.284
N17620 X71.576 Y-148.373
N17625 X71.09 Y-147.371
N17630 X70.468 Y-146.314
N17635 X69.69 Y-145.207
N17640 X68.716 Y-144.033
N17645 X67.518 Y-142.805
N17650 X66.22 Y-141.673
N17655 X64.846 Y-140.636
N17660 X63.409 Y-139.688
N17665 X61.921 Y-138.822
N17670 X60.391 Y-138.033
N17675 X58.827 Y-137.313
N17680 X57.234 Y-136.659
N17685 X55.619 Y-136.063
N17690 X53.985 Y-135.522
N17695 X52.335 Y-135.031
N17700 X50.672 Y-134.585
N17705 X48.998 Y-134.182
N17710 X47.315 Y-133.818
N17715 X45.625 Y-133.492
N17720 X43.928 Y-133.203
N17725 X42.225 Y-132.952
N17730 X40.516 Y-132.738
N17735 X38.804 Y-132.563
N17740 X37.087 Y-132.428
N17745 X35.368 Y-132.335
N17750 X33.647 Y-132.288
N17755 X31.926 Y-132.292
N17760 X30.205 Y-132.351
N17765 X28.487 Y-132.468
N17770 X26.776 Y-132.653
N17775 X25.074 Y-132.913
N17780 X23.388 Y-133.261
N17785 X21.728 Y-133.718
N17790 X20.278 Y-134.242
N17795 X19.418 Y-134.634
N17800 X19.007 Y-134.858
N17805 X18.632 Y-135.138
N17810 X18.301 Y-135.469
N17815 X18.021 Y-135.843
N17820 X17.797 Y-136.254
N17825 X17.633 Y-136.692
N17830 X17.533 Y-137.149
N17835 X17.5 Y-137.615
N17840 Y-146.427
N17845 G03 X19.691 Y-148.821 I2.498 J0.087
N17850 G01 X69.695 Y-155.008
N17855 G03 X72.5 Y-152.614 I0.307 J2.481
N17860 G01 Y-144.365
N17865 X72.475 Y-143.871
N17870 X72.37 Y-143.067
N17875 X72.188 Y-142.216
N17880 X71.9 Y-141.257
N17885 X71.507 Y-140.246
N17890 X70.979 Y-139.159
N17895 X70.29 Y-137.989
N17900 X69.42 Y-136.749
N17905 X68.341 Y-135.449
N17910 X67.138 Y-134.217
N17915 X65.85 Y-133.075
N17920 X64.49 Y-132.019
N17925 X63.071 Y-131.045
N17930 X61.602 Y-130.146
N17935 X60.093 Y-129.318
N17940 X58.549 Y-128.556
N17945 X56.976 Y-127.856
N17950 X55.379 Y-127.214
N17955 X53.761 Y-126.626
N17960 X52.124 Y-126.091
N17965 X50.473 Y-125.604
N17970 X48.808 Y-125.165
N17975 X47.132 Y-124.771
N17980 X45.447 Y-124.422
N17985 X43.752 Y-124.116
N17990 X42.05 Y-123.856
N17995 X41.09 Y-123.736
N18000 X39.379 Y-123.545
N18005 X37.663 Y-123.399
N18010 X35.944 Y-123.301
N18015 X34.223 Y-123.254
N18020 X32.502 Y-123.259
N18025 X30.781 Y-123.318
N18030 X29.064 Y-123.437
N18035 X27.352 Y-123.623
N18040 X25.65 Y-123.879
N18045 X23.961 Y-124.215
N18050 X22.295 Y-124.648
N18055 X20.73 Y-125.177
N18060 X19.379 Y-125.758
N18065 X19.257 Y-125.823
N18070 X18.877 Y-126.058
N18075 X18.532 Y-126.343
N18080 X18.229 Y-126.671
N18085 X17.973 Y-127.038
N18090 X17.769 Y-127.435
N18095 X17.62 Y-127.857
N18100 X17.53 Y-128.294
N18105 X17.5 Y-128.74
N18110 Y-137.615
N18115 G03 X19.664 Y-140.006 I2.498 J0.087
N18120 G01 X69.667 Y-146.755
N18125 G03 X72.5 Y-144.365 I0.334 J2.478
N18130 G01 Y-136.116
N18135 X72.472 Y-135.548
N18140 X72.362 Y-134.715
N18145 X72.169 Y-133.81
N18150 X71.866 Y-132.799
N18155 X71.451 Y-131.732
N18160 X70.891 Y-130.58
N18165 X70.162 Y-129.341
N18170 X69.239 Y-128.027
N18175 X68.139 Y-126.702
N18180 X66.941 Y-125.466
N18185 X65.662 Y-124.314
N18190 X64.314 Y-123.244
N18195 X62.908 Y-122.249
N18200 X61.454 Y-121.328
N18205 X59.958 Y-120.476
N18210 X58.427 Y-119.689
N18215 X56.865 Y-118.963
N18220 X55.278 Y-118.297
N18225 X53.668 Y-117.687
N18230 X52.649 Y-117.342
N18235 X51.828 Y-117.083
N18240 X51.428 Y-116.925
N18245 X51.04 Y-116.738
N18250 X50.667 Y-116.523
N18255 X50.311 Y-116.281
N18260 X48.963 Y-115.21
N18265 X47.262 Y-114.945
N18270 X45.557 Y-114.708
N18275 X43.848 Y-114.502
N18280 X42.135 Y-114.327
N18285 X40.419 Y-114.186
N18290 X38.7 Y-114.083
N18295 X36.98 Y-114.02
N18300 X35.258 Y-113.999
N18305 X33.537 Y-114.023
N18310 X31.817 Y-114.093
N18315 X30.1 Y-114.217
N18320 X28.388 Y-114.398
N18325 X26.683 Y-114.64
N18330 X24.99 Y-114.95
N18335 X23.313 Y-115.343
N18340 X21.664 Y-115.837
N18345 X20.162 Y-116.412
N18350 X19.243 Y-116.851
N18355 X18.869 Y-117.064
N18360 X18.528 Y-117.327
N18365 X18.227 Y-117.635
N18370 X17.972 Y-117.982
N18375 X17.769 Y-118.362
N18380 X17.62 Y-118.766
N18385 X17.53 Y-119.187
N18390 X17.5 Y-119.617
N18395 Y-128.74
N18400 G03 X19.634 Y-131.126 I2.498 J0.087
N18405 G01 X69.637 Y-138.502
N18410 G03 X72.5 Y-136.116 I0.365 J2.473
N18415 G01 Y-127.866
N18420 X72.453 Y-126.918
N18425 X72.34 Y-126.063
N18430 X72.14 Y-125.126
N18435 X71.828 Y-124.084
N18440 X71.397 Y-122.978
N18445 X70.82 Y-121.788
N18450 X70.066 Y-120.508
N18455 X69.113 Y-119.151
N18460 X68.013 Y-117.826
N18465 X66.818 Y-116.587
N18470 X65.544 Y-115.429
N18475 X64.202 Y-114.351
N18480 X62.838 Y-113.3
N18485 X61.455 Y-112.275
N18490 X60.034 Y-111.303
N18495 X58.558 Y-110.416
N18500 X57.031 Y-109.621
N18505 X55.463 Y-108.91
N18510 X53.864 Y-108.273
N18515 X52.239 Y-107.704
N18520 X50.593 Y-107.198
N18525 X48.931 Y-106.751
N18530 X47.254 Y-106.36
N18535 X45.566 Y-106.022
N18540 X43.868 Y-105.735
N18545 X42.163 Y-105.498
N18550 X40.452 Y-105.309
N18555 X38.736 Y-105.169
N18560 X37.017 Y-105.078
N18565 X35.296 Y-105.035
N18570 X33.574 Y-105.045
N18575 X31.854 Y-105.107
N18580 X30.136 Y-105.224
N18585 X28.423 Y-105.399
N18590 X26.719 Y-105.641
N18595 X25.026 Y-105.952
N18600 X23.349 Y-106.342
N18605 X21.698 Y-106.831
N18610 X20.185 Y-107.403
N18615 X19.257 Y-107.843
N18620 X18.88 Y-108.055
N18625 X18.536 Y-108.318
N18630 X18.233 Y-108.627
N18635 X17.976 Y-108.975
N18640 X17.771 Y-109.356
N18645 X17.621 Y-109.762
N18650 X17.531 Y-110.186
N18655 X17.5 Y-110.617
N18660 Y-119.617
N18665 G03 X19.592 Y-121.996 I2.498 J0.087
N18670 G01 X69.595 Y-130.246
N18675 G03 X72.5 Y-127.866 I0.407 J2.467
N18680 G01 Y-118.867
N18685 X72.463 Y-118.135
N18690 X72.35 Y-117.268
N18695 X72.137 Y-116.272
N18700 X71.795 Y-115.132
N18705 X71.298 Y-113.855
N18710 X70.625 Y-112.469
N18715 X69.783 Y-111.038
N18720 X68.793 Y-109.629
N18725 X67.697 Y-108.302
N18730 X66.508 Y-107.057
N18735 X65.24 Y-105.893
N18740 X63.903 Y-104.808
N18745 X62.507 Y-103.8
N18750 X61.061 Y-102.866
N18755 X59.571 Y-102.003
N18760 X58.044 Y-101.209
N18765 X56.484 Y-100.48
N18770 X54.896 Y-99.815
N18775 X53.284 Y-99.211
N18780 X51.651 Y-98.665
N18785 X50.001 Y-98.175
N18790 X48.335 Y-97.739
N18795 X46.657 Y-97.355
N18800 X44.968 Y-97.023
N18805 X43.269 Y-96.74
N18810 X41.577 Y-96.513
N18815 X41.28 Y-96.5
N18820 X33.326
N18825 X31.606 Y-96.586
N18830 X29.886 Y-96.646
N18835 X28.169 Y-96.773
N18840 X26.459 Y-96.976
N18845 X24.761 Y-97.258
N18850 X23.079 Y-97.628
N18855 X21.426 Y-98.108
N18860 X20.002 Y-98.648
N18865 X19.388 Y-98.938
N18870 X18.982 Y-99.166
N18875 X18.613 Y-99.449
N18880 X18.287 Y-99.781
N18885 X18.012 Y-100.156
N18890 X17.791 Y-100.566
N18895 X17.63 Y-101.002
N18900 X17.533 Y-101.457
N18905 X17.5 Y-101.921
N18910 Y-110.617
N18915 X17.514 Y-110.732 Z-4.993
N18920 X17.528 Y-110.845 Z-4.973
N18925 X17.542 Y-110.955 Z-4.939
N18930 X17.555 Y-111.06 Z-4.892
N18935 X17.584 Y-111.15 Z-4.837
N18940 X17.61 Y-111.234 Z-4.771
N18945 X17.634 Y-111.311 Z-4.696
N18950 X17.655 Y-111.379 Z-4.613
N18955 X17.673 Y-111.437 Z-4.522
N18960 X17.688 Y-111.486 Z-4.425
N18965 X17.704 Y-111.521 Z-4.327
N18970 X17.715 Y-111.546 Z-4.226
N18975 X17.721 Y-111.562 Z-4.123
N18980 X17.724 Y-111.567 Z-4.018
N18985 G00 Z6.
N18990 X72.276 Y-119.816
N18995 Z-2.5
N19000 G01 Z-5. F2328.
N19005 G03 X72.5 Y-118.867 I-2.275 J1.037
N19010 G01 Y-109.867
N19015 X72.448 Y-108.837
N19020 X72.333 Y-107.955
N19025 X72.121 Y-106.965
N19030 X71.797 Y-105.884
N19035 X71.353 Y-104.742
N19040 X70.753 Y-103.506
N19045 X69.976 Y-102.186
N19050 X68.999 Y-100.795
N19055 X67.899 Y-99.47
N19060 X66.706 Y-98.229
N19065 X65.753 Y-97.361
N19070 X65.37 Y-97.06
N19075 X64.946 Y-96.819
N19080 X64.492 Y-96.643
N19085 X64.016 Y-96.536
N19090 X63.53 Y-96.5
N19095 X42.312
N19100 G03 X41.49 Y-101.327 I0.087 J-2.498
N19105 G01 X69.092 Y-112.109
N19110 G03 X72.5 Y-109.867 I0.91 J2.329
N19115 G01 Y-100.868
N19120 X72.451 Y-99.892
N19125 X72.349 Y-99.112
N19130 X72.317 Y-98.963
N19135 X72.184 Y-98.512
N19140 X71.985 Y-98.086
N19145 X71.724 Y-97.695
N19150 X71.407 Y-97.348
N19155 X71.042 Y-97.052
N19160 X70.636 Y-96.815
N19165 X70.199 Y-96.641
N19170 X69.741 Y-96.536
N19175 X69.272 Y-96.5
N19180 G03 X67.008 Y-99.845 I0.087 J-2.498
N19185 G01 X67.649 Y-101.628
N19190 G03 X72.5 Y-100.868 I2.352 J0.847
N19195 G01 Y-99.368
N19200 X72.468 Y-98.618
N19205 X72.392 Y-98.293
N19210 X72.268 Y-97.967
N19215 X72.22 Y-97.868
N19220 X71.982 Y-97.493
N19225 X71.825 Y-97.306
N19230 X71.633 Y-97.118
N19235 X71.519 Y-97.025
N19240 X71.332 Y-96.893
N19245 X71.145 Y-96.784
N19250 X70.77 Y-96.626
N19255 X70.396 Y-96.534
N19260 X70.021 Y-96.5
N19265 X63.53
N19270 X63.416 Y-96.514 Z-4.993
N19275 X63.303 Y-96.528 Z-4.973
N19280 X63.193 Y-96.542 Z-4.939
N19285 X63.088 Y-96.555 Z-4.892
N19290 X62.997 Y-96.584 Z-4.837
N19295 X62.913 Y-96.61 Z-4.771
N19300 X62.837 Y-96.634 Z-4.696
N19305 X62.769 Y-96.655 Z-4.613
N19310 X62.71 Y-96.673 Z-4.522
N19315 X62.662 Y-96.688 Z-4.425
N19320 X62.627 Y-96.704 Z-4.327
N19325 X62.601 Y-96.715 Z-4.226
N19330 X62.586 Y-96.721 Z-4.123
N19335 X62.581 Y-96.724 Z-4.018
N19340 G00 Z6.
N19345 X-1.806 Y-172.105
N19350 Z0.
N19355 G01 Z-2.5 F2328.
N19360 X-1.813 Y-172.101 Z-2.696
N19365 X-1.833 Y-172.089 Z-2.891
N19370 X-1.865 Y-172.069 Z-3.084
N19375 X-1.91 Y-172.041 Z-3.273
N19380 X-1.968 Y-172.005 Z-3.457
N19385 X-2.038 Y-171.962 Z-3.635
N19390 X-2.12 Y-171.911 Z-3.806
N19395 X-2.212 Y-171.854 Z-3.969
N19400 X-2.316 Y-171.79 Z-4.124
N19405 X-2.429 Y-171.719 Z-4.268
N19410 X-2.551 Y-171.643 Z-4.401
N19415 X-2.682 Y-171.562 Z-4.523
N19420 X-2.821 Y-171.476 Z-4.632
N19425 X-2.967 Y-171.386 Z-4.728
N19430 X-3.118 Y-171.292 Z-4.81
N19435 X-3.275 Y-171.195 Z-4.878
N19440 X-3.435 Y-171.095 Z-4.931
N19445 X-3.599 Y-170.994 Z-4.969
N19450 X-3.764 Y-170.891 Z-4.992
N19455 X-3.931 Y-170.788 Z-5.
N19460 G03 X-4.868 Y-170.494 I-1.042 J-1.681
N19465 G01 X-5.617 Y-170.48
N19470 X-6.366 Y-170.411
N19475 X-7.114 Y-170.307
N19480 X-7.863 Y-170.165
N19485 X-8.926 Y-169.863
N19490 X-9.361 Y-169.699
N19495 X-10.11 Y-169.401
N19500 X-10.859 Y-169.026
N19505 X-11.608 Y-168.597
N19510 X-11.987 Y-168.363
N19515 X-12.357 Y-168.09
N19520 X-13.106 Y-167.496
N19525 X-13.869 Y-166.891
N19530 X-14.964 Y-166.158
N19535 X-16.372 Y-165.371
N19540 X-17.937 Y-164.655
N19545 X-19.548 Y-164.048
N19550 X-21.191 Y-163.533
N19555 X-22.856 Y-163.095
N19560 X-24.537 Y-162.722
N19565 X-26.229 Y-162.404
N19570 X-27.929 Y-162.132
N19575 X-29.634 Y-161.899
N19580 X-31.344 Y-161.7
N19585 X-33.058 Y-161.53
N19590 X-34.773 Y-161.384
N19595 X-36.49 Y-161.258
N19600 X-38.208 Y-161.151
N19605 X-39.928 Y-161.059
N19610 X-41.647 Y-160.98
N19615 X-45.088 Y-160.854
N19620 X-48.53 Y-160.761
N19625 X-53.694 Y-160.666
N19630 X-58.859 Y-160.605
N19635 X-62.302 Y-160.578
N19640 X-70.76 Y-160.537
N19645 X-71.175 Y-160.568
N19650 X-71.581 Y-160.664
N19655 X-71.967 Y-160.822
N19660 X-72.323 Y-161.039
N19665 X-72.641 Y-161.308
N19670 X-72.913 Y-161.625
N19675 X-73.132 Y-161.979
N19680 X-73.293 Y-162.364
N19685 G03 X-71.221 Y-165.73 I2.34 J-0.881
N19690 G01 X-15.111 Y-171.78
N19695 G03 X-13.106 Y-167.496 I0.268 J2.486
N19700 G01 X-13.855 Y-166.819
N19705 X-14.496 Y-166.113
N19710 X-15.352 Y-165.003
N19715 X-15.597 Y-164.614
N19720 X-16.027 Y-163.864
N19725 X-16.395 Y-163.114
N19730 X-16.666 Y-162.56
N19735 X-17.058 Y-161.901
N19740 X-17.558 Y-161.195
N19745 X-18.202 Y-160.425
N19750 X-19.017 Y-159.596
N19755 X-20.035 Y-158.716
N19760 X-21.299 Y-157.788
N19765 X-22.764 Y-156.885
N19770 X-24.293 Y-156.093
N19775 X-25.868 Y-155.399
N19780 X-27.479 Y-154.792
N19785 X-29.116 Y-154.259
N19790 X-30.773 Y-153.792
N19795 X-32.446 Y-153.383
N19800 X-34.13 Y-153.025
N19805 X-35.822 Y-152.71
N19810 X-37.522 Y-152.435
N19815 X-39.226 Y-152.193
N19820 X-40.935 Y-151.982
N19825 X-42.646 Y-151.797
N19830 X-44.36 Y-151.634
N19835 X-46.076 Y-151.492
N19840 X-47.793 Y-151.367
N19845 X-49.511 Y-151.258
N19850 X-51.23 Y-151.163
N19855 X-52.95 Y-151.079
N19860 X-56.39 Y-150.942
N19865 X-59.832 Y-150.837
N19870 X-61.553 Y-150.803
N19875 X-63.275 Y-150.81
N19880 X-64.995 Y-150.883
N19885 X-66.709 Y-151.049
N19890 X-68.361 Y-151.325
N19895 X-69.785 Y-151.682
N19900 X-70.356 Y-151.876
N19905 X-70.807 Y-152.068
N19910 X-71.222 Y-152.329
N19915 X-71.593 Y-152.65
N19920 X-71.909 Y-153.025
N19925 X-72.163 Y-153.445
N19930 X-72.349 Y-153.898
N19935 X-72.462 Y-154.375
N19940 X-72.5 Y-154.864
N19945 X-72.503 Y-157.527
N19950 G03 X-70.32 Y-159.94 I2.499 J0.067
N19955 G01 X-19.056 Y-166.458
N19960 G03 X-16.395 Y-163.114 I0.315 J2.48
N19965 G01 X-16.701 Y-162.364
N19970 X-16.85 Y-161.961
N19975 X-16.954 Y-161.614
N19980 X-17.161 Y-160.864
N19985 X-17.306 Y-160.114
N19990 X-17.413 Y-159.364
N19995 X-17.483 Y-158.614
N20000 X-17.521 Y-158.2
N20005 X-17.623 Y-157.615
N20010 X-17.793 Y-156.96
N20015 X-18.042 Y-156.242
N20020 X-18.383 Y-155.467
N20025 X-18.844 Y-154.612
N20030 X-19.423 Y-153.719
N20035 X-20.159 Y-152.761
N20040 X-21.079 Y-151.745
N20045 X-22.212 Y-150.679
N20050 X-23.556 Y-149.604
N20055 X-24.98 Y-148.637
N20060 X-26.467 Y-147.767
N20065 X-28.001 Y-146.987
N20070 X-29.574 Y-146.288
N20075 X-31.178 Y-145.661
