%
O00001
(Using high feed G1 F5000. instead of G0.)
(T1 D=50. CR=0. - ZMIN=0. - face mill)
(T2 D=25. CR=0. - ZMIN=-24.5 - flat end mill)
(T3 D=5. CR=0.8 - ZMIN=-10. - bullnose end mill)
(T4 D=5. CR=0. - ZMIN=-24.5 - flat end mill)
(T5 D=12. CR=0. - ZMIN=-30.5 - flat end mill)
(T6 D=10. CR=0. - ZMIN=-14. - flat end mill)
(T8 D=6.6 CR=0. TAPER=118deg - ZMIN=-46.983 - drill)
N10 G90 G94 G17
N15 G21
N20 G53 G0 Z0.

(Facejar Topo)
N25 T1 M6
N30 S955 M3
N35 G54
N40 M8
N45 G0 X132.5 Y-137.339
N50 G43 Z16. H1
N55 T2
N60 G0 Z6.
N65 G1 Z5. F460.
N70 G18 G3 X127.5 Z0. I-5. K0.
N75 G1 X100.
N80 X-100.
N85 G17 G2 Y-92.154 I0. J22.593
N90 G1 X100.
N95 G3 Y-46.968 I0. J22.593
N100 G1 X-100.
N105 G2 Y-1.782 I0. J22.593
N110 G1 X100.
N115 X100.01
N120 G3 Y43.404 I0. J22.593
N125 G1 X-100.
N130 G2 Y88.589 I0. J22.593
N135 G1 X100.01
N140 G3 Y133.775 I0. J22.593
N145 G1 X100.
N150 X-100.
N155 G18 G3 X-105. Z5. I0. K5.
N160 G0 Z16.
N165 M5
N170 G53 G0 Z0.

(1oPatamar)
N175 M9
N180 M1
N185 T2 M6
N190 S3880 M3
N195 G54
N200 M8
N205 G17
N210 G0 X-114.224 Y121.752
N215 G43 Z16. H2
N220 T3
N225 G0 Z6.
N230 Z0.2
N235 G1 Z-2.4 F2328.
N240 X-114.22 Y121.758 Z-2.594
N245 X-114.208 Y121.777 Z-2.788
N250 X-114.188 Y121.807 Z-2.979
N255 X-114.161 Y121.849 Z-3.166
N260 X-114.126 Y121.903 Z-3.35
N265 X-114.084 Y121.968 Z-3.528
N270 X-114.034 Y122.045 Z-3.7
N275 X-113.978 Y122.132 Z-3.865
N280 X-113.915 Y122.228 Z-4.021
N285 X-113.847 Y122.335 Z-4.168
N290 X-113.772 Y122.45 Z-4.306
N295 X-113.692 Y122.574 Z-4.433
N300 X-113.607 Y122.706 Z-4.548
N305 X-113.518 Y122.844 Z-4.652
N310 X-113.424 Y122.988 Z-4.743
N315 X-113.327 Y123.138 Z-4.82
N320 X-113.228 Y123.292 Z-4.884
N325 X-113.126 Y123.45 Z-4.935
N330 X-113.022 Y123.61 Z-4.971
N335 X-112.917 Y123.772 Z-4.993
N340 X-112.812 Y123.935 Z-5.
N345 G3 X-112.5 Y124.866 I-1.661 J1.074
N350 G1 X-112.472 Y125.616
N355 X-112.412 Y126.366
N360 X-112.316 Y127.116
N365 X-112.154 Y127.866
N370 X-111.95 Y128.616
N375 X-111.709 Y129.366
N380 X-111.402 Y130.116
N385 X-111.21 Y130.505
N390 X-110.601 Y131.616
N395 X-110.462 Y131.836
N400 X-110.093 Y132.366
N405 X-109.493 Y133.116
N410 X-109.03 Y133.681
N415 X-108.307 Y134.724
N420 X-107.531 Y136.062
N425 X-106.79 Y137.616
N430 X-106.162 Y139.22
N435 X-105.63 Y140.857
N440 X-105.178 Y142.518
N445 X-104.793 Y144.196
N450 X-104.464 Y145.886
N455 X-104.183 Y147.584
N460 X-103.537 Y149.18
N465 X-102.585 Y150.615
N470 X-101.428 Y151.889
N475 X-100.124 Y153.014
N480 X-98.715 Y154.003
N485 X-97.227 Y154.868
N490 X-95.68 Y155.624
N495 X-94.089 Y156.283
N500 X-92.466 Y156.856
N505 X-90.818 Y157.353
N510 X-89.151 Y157.784
N515 X-87.47 Y158.158
N520 X-85.779 Y158.481
N525 X-84.08 Y158.76
N530 X-82.376 Y159.001
N535 X-80.667 Y159.209
N540 X-78.954 Y159.389
N545 X-77.24 Y159.543
N550 X-75.523 Y159.677
N555 X-73.806 Y159.792
N560 X-72.087 Y159.891
N565 X-70.367 Y159.976
N570 X-68.647 Y160.049
N575 X-65.206 Y160.167
N580 X-61.764 Y160.254
N585 X-56.6 Y160.343
N590 X-51.435 Y160.401
N595 X-42.828 Y160.453
N600 X-29.055 Y160.486
N605 X-22.168 Y160.492
N610 X29.48 Y160.5
N615 X81.129
N620 X88.015
N625 X88.444 Y160.463
N630 X88.869 Y160.394
N635 X90.543 Y159.994
N640 X92.045 Y159.152
N645 X93.384 Y158.07
N650 X94.569 Y156.821
N655 X95.612 Y155.451
N660 X96.526 Y153.993
N665 X97.326 Y152.468
N670 X98.023 Y150.894
N675 X98.63 Y149.283
N680 X99.157 Y147.644
N685 X99.614 Y145.984
N690 X100.01 Y144.308
N695 X100.353 Y142.621
N700 X100.65 Y140.925
N705 X100.906 Y139.223
N710 X101.127 Y137.516
N715 X101.318 Y135.805
N720 X101.483 Y134.091
N725 X101.624 Y132.375
N730 X101.747 Y130.658
N735 X101.852 Y128.939
N740 X101.942 Y127.22
N745 X102.02 Y125.5
N750 X102.145 Y122.059
N755 X102.238 Y118.617
N760 X102.333 Y113.454
N765 X102.394 Y108.289
N770 X102.442 Y101.403
N775 X102.48 Y89.352
N780 X102.496 Y70.414
N785 X102.5 Y18.765
N790 Y-32.883
N795 Y-84.531
N800 Y-136.18
N805 Y-146.509
N810 X102.152 Y-148.196
N815 X101.376 Y-149.732
N820 X100.339 Y-151.106
N825 X99.122 Y-152.324
N830 X97.775 Y-153.396
N835 X96.334 Y-154.338
N840 X94.822 Y-155.161
N845 X93.257 Y-155.88
N850 X91.653 Y-156.505
N855 X90.019 Y-157.049
N860 X88.364 Y-157.52
N865 X86.691 Y-157.929
N870 X85.007 Y-158.283
N875 X83.312 Y-158.589
N880 X81.611 Y-158.854
N885 X79.905 Y-159.082
N890 X78.194 Y-159.279
N895 X76.481 Y-159.449
N900 X74.766 Y-159.595
N905 X73.049 Y-159.722
N910 X71.331 Y-159.83
N915 X69.612 Y-159.924
N920 X67.892 Y-160.005
N925 X66.172 Y-160.074
N930 X62.73 Y-160.185
N935 X59.288 Y-160.267
N940 X54.124 Y-160.352
N945 X48.959 Y-160.406
N950 X40.351 Y-160.456
N955 X26.579 Y-160.487
N960 X14.527 Y-160.495
N965 X-37.121 Y-160.5
N970 X-88.77
N975 X-90.436 Y-160.069
N980 X-91.949 Y-159.246
N985 X-93.298 Y-158.177
N990 X-94.493 Y-156.938
N995 X-95.546 Y-155.575
N1000 X-96.468 Y-154.122
N1005 X-97.275 Y-152.601
N1010 X-97.979 Y-151.03
N1015 X-98.592 Y-149.421
N1020 X-99.124 Y-147.784
N1025 X-99.585 Y-146.125
N1030 X-99.986 Y-144.451
N1035 X-100.332 Y-142.764
N1040 X-100.631 Y-141.069
N1045 X-100.89 Y-139.367
N1050 X-100.974 Y-138.969
N1055 X-101.119 Y-138.589
N1060 X-101.321 Y-138.235
N1065 X-101.574 Y-137.917
N1070 X-101.874 Y-137.642
N1075 X-102.212 Y-137.416
N1080 X-102.582 Y-137.245
N1085 X-102.973 Y-137.132
N1090 G3 X-103.947 Y-137.092 I-0.589 J-2.43
N1095 G1 X-104.139 Y-137.122 Z-4.993
N1100 X-104.33 Y-137.152 Z-4.971
N1105 X-104.519 Y-137.182 Z-4.935
N1110 X-104.704 Y-137.211 Z-4.884
N1115 X-104.886 Y-137.239 Z-4.82
N1120 X-105.062 Y-137.266 Z-4.743
N1125 X-105.232 Y-137.293 Z-4.652
N1130 X-105.394 Y-137.318 Z-4.548
N1135 X-105.549 Y-137.343 Z-4.433
N1140 X-105.694 Y-137.365 Z-4.306
N1145 X-105.83 Y-137.386 Z-4.168
N1150 X-105.956 Y-137.406 Z-4.021
N1155 X-106.07 Y-137.424 Z-3.865
N1160 X-106.172 Y-137.44 Z-3.7
N1165 X-106.262 Y-137.454 Z-3.528
N1170 X-106.338 Y-137.466 Z-3.35
N1175 X-106.402 Y-137.476 Z-3.166
N1180 X-106.452 Y-137.484 Z-2.979
N1185 X-106.487 Y-137.489 Z-2.788
N1190 X-106.509 Y-137.493 Z-2.594
N1195 X-106.516 Y-137.494 Z-2.4
N1200 G0 Z6.
N1205 G1 X-112.816 Y131.84 F5000.
N1210 G0 Z0.2
N1215 G1 Z-2.4 F2328.
N1220 X-112.809 Y131.842 Z-2.594
N1225 X-112.788 Y131.849 Z-2.788
N1230 X-112.754 Y131.859 Z-2.979
N1235 X-112.705 Y131.874 Z-3.166
N1240 X-112.644 Y131.893 Z-3.35
N1245 X-112.57 Y131.916 Z-3.528
N1250 X-112.483 Y131.942 Z-3.7
N1255 X-112.384 Y131.973 Z-3.865
N1260 X-112.274 Y132.007 Z-4.021
N1265 X-112.152 Y132.044 Z-4.168
N1270 X-112.021 Y132.084 Z-4.306
N1275 X-111.88 Y132.128 Z-4.433
N1280 X-111.731 Y132.173 Z-4.548
N1285 X-111.573 Y132.222 Z-4.652
N1290 X-111.409 Y132.272 Z-4.743
N1295 X-111.239 Y132.325 Z-4.82
N1300 X-111.063 Y132.379 Z-4.884
N1305 X-110.884 Y132.434 Z-4.935
N1310 X-110.701 Y132.49 Z-4.971
N1315 X-110.516 Y132.547 Z-4.993
N1320 X-110.331 Y132.604 Z-5.
N1325 G3 X-109.493 Y133.116 I-0.581 J1.891
N1330 G1 X-108.964 Y133.7
N1335 X-108.215 Y134.42
N1340 X-107.984 Y134.616
N1345 X-107.466 Y135.012
N1350 X-106.971 Y135.366
N1355 X-106.717 Y135.529
N1360 X-105.968 Y135.974
N1365 X-105.219 Y136.344
N1370 X-104.993 Y136.439
N1375 X-104.631 Y136.613
N1380 X-103.981 Y136.991
N1385 X-102.567 Y137.974
N1390 X-101.23 Y139.059
N1395 X-99.858 Y140.099
N1400 X-98.444 Y141.081
N1405 X-96.988 Y141.999
N1410 X-95.491 Y142.85
N1415 X-93.958 Y143.633
N1420 X-92.393 Y144.35
N1425 X-90.8 Y145.003
N1430 X-89.183 Y145.596
N1435 X-87.548 Y146.132
N1440 X-85.895 Y146.616
N1445 X-84.229 Y147.051
N1450 X-82.553 Y147.441
N1455 X-80.867 Y147.79
N1460 X-79.174 Y148.102
N1465 X-77.475 Y148.38
N1470 X-75.771 Y148.627
N1475 X-74.063 Y148.848
N1480 X-72.353 Y149.043
N1485 X-70.64 Y149.216
N1490 X-68.925 Y149.37
N1495 X-67.209 Y149.505
N1500 X-65.492 Y149.625
N1505 X-63.773 Y149.731
N1510 X-62.054 Y149.825
N1515 X-58.614 Y149.98
N1520 X-56.894 Y150.044
N1525 X-53.452 Y150.15
N1530 X-50.01 Y150.231
N1535 X-44.846 Y150.32
N1540 X-37.96 Y150.395
N1545 X-29.352 Y150.447
N1550 X-15.579 Y150.482
N1555 X-5.25 Y150.492
N1560 X46.399 Y150.5
N1565 X73.945
N1570 X75.662 Y150.382
N1575 X77.33 Y149.954
N1580 X78.906 Y149.261
N1585 X80.369 Y148.353
N1590 X81.71 Y147.274
N1595 X82.928 Y146.057
N1600 X84.027 Y144.732
N1605 X85.015 Y143.322
N1610 X85.898 Y141.844
N1615 X86.685 Y140.313
N1620 X87.385 Y138.74
N1625 X88.005 Y137.134
N1630 X88.554 Y135.503
N1635 X89.039 Y133.851
N1640 X89.467 Y132.183
N1645 X89.844 Y130.503
N1650 X90.175 Y128.814
N1655 X90.466 Y127.117
N1660 X90.722 Y125.414
N1665 X90.946 Y123.707
N1670 X91.143 Y121.997
N1675 X91.315 Y120.284
N1680 X91.466 Y118.569
N1685 X91.598 Y116.853
N1690 X91.713 Y115.135
N1695 X91.814 Y113.416
N1700 X91.902 Y111.697
N1705 X92.046 Y108.257
N1710 X92.156 Y104.815
N1715 X92.239 Y101.373
N1720 X92.328 Y96.209
N1725 X92.387 Y91.044
N1730 X92.444 Y82.436
N1735 X92.479 Y70.385
N1740 X92.498 Y42.839
N1745 X92.499 Y30.788
N1750 X92.5 Y-20.86
N1755 Y-72.509
N1760 Y-124.157
N1765 Y-132.765
N1770 X92.23 Y-134.465
N1775 X91.67 Y-136.093
N1780 X90.869 Y-137.617
N1785 X89.874 Y-139.022
N1790 X88.725 Y-140.305
N1795 X87.454 Y-141.466
N1800 X86.086 Y-142.511
N1805 X84.642 Y-143.448
N1810 X83.137 Y-144.284
N1815 X81.585 Y-145.029
N1820 X79.995 Y-145.689
N1825 X78.376 Y-146.275
N1830 X76.734 Y-146.792
N1835 X75.074 Y-147.249
N1840 X73.4 Y-147.652
N1845 X71.715 Y-148.007
N1850 X70.022 Y-148.318
N1855 X68.323 Y-148.592
N1860 X66.618 Y-148.833
N1865 X64.909 Y-149.043
N1870 X63.197 Y-149.228
N1875 X61.483 Y-149.39
N1880 X59.768 Y-149.531
N1885 X58.051 Y-149.655
N1890 X56.332 Y-149.763
N1895 X54.613 Y-149.857
N1900 X52.894 Y-149.94
N1905 X49.453 Y-150.075
N1910 X46.011 Y-150.178
N1915 X42.569 Y-150.256
N1920 X37.405 Y-150.339
N1925 X30.519 Y-150.408
N1930 X21.911 Y-150.454
N1935 X8.138 Y-150.485
N1940 X4.695 Y-150.489
N1945 X-46.954 Y-150.5
N1950 X-74.499
N1955 X-76.207 Y-150.281
N1960 X-77.849 Y-149.764
N1965 X-79.391 Y-148.997
N1970 X-80.815 Y-148.03
N1975 X-82.116 Y-146.903
N1980 X-83.304 Y-145.657
N1985 X-84.409 Y-144.336
N1990 X-85.458 Y-142.971
N1995 X-87.498 Y-140.197
N2000 X-88.613 Y-138.73
N2005 X-88.948 Y-138.372
N2010 X-89.333 Y-138.067
N2015 X-89.758 Y-137.823
N2020 X-90.215 Y-137.645
N2025 X-90.694 Y-137.536
N2030 X-91.183 Y-137.5
N2035 X-99.228
N2040 X-99.977 Y-137.492
N2045 G3 X-100.929 Y-137.705 I0.06 J-2.499
N2050 G1 X-101.107 Y-137.784 Z-4.993
N2055 X-101.283 Y-137.862 Z-4.971
N2060 X-101.458 Y-137.939 Z-4.935
N2065 X-101.63 Y-138.015 Z-4.884
N2070 X-101.797 Y-138.09 Z-4.82
N2075 X-101.96 Y-138.162 Z-4.743
N2080 X-102.118 Y-138.232 Z-4.652
N2085 X-102.268 Y-138.298 Z-4.548
N2090 X-102.411 Y-138.362 Z-4.433
N2095 X-102.546 Y-138.421 Z-4.306
N2100 X-102.672 Y-138.477 Z-4.168
N2105 X-102.788 Y-138.528 Z-4.021
N2110 X-102.893 Y-138.575 Z-3.865
N2115 X-102.988 Y-138.617 Z-3.7
N2120 X-103.071 Y-138.654 Z-3.528
N2125 X-103.142 Y-138.685 Z-3.35
N2130 X-103.201 Y-138.711 Z-3.166
N2135 X-103.247 Y-138.731 Z-2.979
N2140 X-103.28 Y-138.746 Z-2.788
N2145 X-103.3 Y-138.755 Z-2.594
N2150 X-103.306 Y-138.758 Z-2.4
N2155 G0 Z6.
N2160 G1 X-108.543 Y136.691 F5000.
N2165 G0 Z0.2
N2170 G1 Z-2.4 F2328.
N2175 X-108.536 Y136.69 Z-2.594
N2180 X-108.514 Y136.687 Z-2.788
N2185 X-108.479 Y136.682 Z-2.979
N2190 X-108.429 Y136.675 Z-3.166
N2195 X-108.365 Y136.666 Z-3.35
N2200 X-108.288 Y136.655 Z-3.528
N2205 X-108.198 Y136.643 Z-3.7
N2210 X-108.096 Y136.628 Z-3.865
N2215 X-107.981 Y136.612 Z-4.021
N2220 X-107.856 Y136.595 Z-4.168
N2225 X-107.72 Y136.576 Z-4.306
N2230 X-107.574 Y136.555 Z-4.433
N2235 X-107.419 Y136.533 Z-4.548
N2240 X-107.256 Y136.511 Z-4.652
N2245 X-107.086 Y136.487 Z-4.743
N2250 X-106.909 Y136.462 Z-4.82
N2255 X-106.727 Y136.436 Z-4.884
N2260 X-106.541 Y136.41 Z-4.935
N2265 X-106.352 Y136.384 Z-4.971
N2270 X-106.161 Y136.357 Z-4.993
N2275 X-105.968 Y136.33 Z-5.
N2280 G3 X-104.993 Y136.439 I0.275 J1.959
N2285 G1 X-104.47 Y136.658
N2290 X-103.928 Y136.866
N2295 X-102.973 Y137.132
N2300 X-102.224 Y137.286
N2305 X-101.475 Y137.402
N2310 X-100.726 Y137.474
N2315 X-99.977 Y137.492
N2320 X-98.479 Y137.5
N2325 X-92.488
N2330 X-90.769 Y137.586
N2335 X-89.048 Y137.648
N2340 X-87.329 Y137.745
N2345 X-85.612 Y137.867
N2350 X-82.181 Y138.152
N2355 X-75.32 Y138.753
N2360 X-71.888 Y139.027
N2365 X-68.454 Y139.272
N2370 X-65.017 Y139.485
N2375 X-61.579 Y139.668
N2380 X-58.139 Y139.822
N2385 X-54.698 Y139.951
N2390 X-51.257 Y140.058
N2395 X-46.093 Y140.183
N2400 X-40.929 Y140.275
N2405 X-34.043 Y140.358
N2410 X-25.435 Y140.422
N2415 X-13.384 Y140.467
N2420 X7.275 Y140.493
N2425 X10.718 Y140.494
N2430 X62.367 Y140.5
N2435 X64.08 Y140.332
N2440 X65.752 Y139.92
N2445 X67.35 Y139.279
N2450 X68.852 Y138.438
N2455 X70.247 Y137.43
N2460 X71.531 Y136.283
N2465 X72.704 Y135.022
N2470 X73.769 Y133.669
N2475 X74.732 Y132.242
N2480 X75.599 Y130.755
N2485 X76.377 Y129.219
N2490 X77.074 Y127.645
N2495 X77.697 Y126.04
N2500 X78.252 Y124.41
N2505 X78.746 Y122.761
N2510 X79.185 Y121.096
N2515 X79.575 Y119.42
N2520 X79.92 Y117.733
N2525 X80.227 Y116.039
N2530 X80.497 Y114.339
N2535 X80.737 Y112.634
N2540 X80.948 Y110.925
N2545 X81.135 Y109.214
N2550 X81.3 Y107.5
N2555 X81.445 Y105.785
N2560 X81.573 Y104.068
N2565 X81.686 Y102.35
N2570 X81.785 Y100.631
N2575 X81.872 Y98.912
N2580 X81.949 Y97.192
N2585 X82.076 Y93.751
N2590 X82.174 Y90.309
N2595 X82.28 Y85.145
N2600 X82.352 Y79.981
N2605 X82.413 Y73.095
N2610 X82.461 Y62.765
N2615 X82.49 Y45.549
N2620 X82.5 Y-6.099
N2625 Y-57.748
N2630 Y-109.396
N2635 Y-119.726
N2640 X82.422 Y-121.446
N2645 X82.102 Y-123.137
N2650 X81.543 Y-124.766
N2655 X80.773 Y-126.305
N2660 X79.824 Y-127.742
N2665 X78.726 Y-129.068
N2670 X77.505 Y-130.281
N2675 X76.184 Y-131.386
N2680 X74.783 Y-132.386
N2685 X73.317 Y-133.288
N2690 X71.798 Y-134.099
N2695 X70.237 Y-134.825
N2700 X68.642 Y-135.474
N2705 X67.021 Y-136.054
N2710 X65.379 Y-136.57
N2715 X63.719 Y-137.029
N2720 X62.047 Y-137.436
N2725 X60.364 Y-137.798
N2730 X58.672 Y-138.118
N2735 X56.974 Y-138.401
N2740 X55.271 Y-138.652
N2745 X53.563 Y-138.873
N2750 X51.853 Y-139.069
N2755 X50.14 Y-139.241
N2760 X48.425 Y-139.394
N2765 X46.709 Y-139.528
N2770 X44.991 Y-139.646
N2775 X43.273 Y-139.75
N2780 X41.553 Y-139.841
N2785 X38.113 Y-139.993
N2790 X34.672 Y-140.11
N2795 X31.23 Y-140.2
N2800 X26.066 Y-140.298
N2805 X20.902 Y-140.364
N2810 X14.016 Y-140.42
N2815 X3.686 Y-140.464
N2820 X-1.479 Y-140.476
N2825 X-27.303 Y-140.497
N2830 X-53.127 Y-140.5
N2835 X-61.735
N2840 X-63.455 Y-140.422
N2845 X-65.153 Y-140.135
N2850 X-66.809 Y-139.666
N2855 X-68.415 Y-139.045
N2860 X-69.969 Y-138.304
N2865 X-70.68 Y-137.911
N2870 X-71.056 Y-137.734
N2875 X-71.451 Y-137.604
N2880 X-71.86 Y-137.526
N2885 X-72.275 Y-137.5
N2890 X-91.183
N2895 G3 X-92.132 Y-137.724 I0.087 J-2.498
N2900 G1 X-92.309 Y-137.804 Z-4.993
N2905 X-92.485 Y-137.884 Z-4.971
N2910 X-92.659 Y-137.963 Z-4.935
N2915 X-92.83 Y-138.041 Z-4.884
N2920 X-92.997 Y-138.117 Z-4.82
N2925 X-93.159 Y-138.191 Z-4.743
N2930 X-93.315 Y-138.263 Z-4.652
N2935 X-93.465 Y-138.331 Z-4.548
N2940 X-93.607 Y-138.396 Z-4.433
N2945 X-93.741 Y-138.457 Z-4.306
N2950 X-93.867 Y-138.514 Z-4.168
N2955 X-93.982 Y-138.567 Z-4.021
N2960 X-94.087 Y-138.614 Z-3.865
N2965 X-94.181 Y-138.657 Z-3.7
N2970 X-94.264 Y-138.695 Z-3.528
N2975 X-94.335 Y-138.727 Z-3.35
N2980 X-94.393 Y-138.754 Z-3.166
N2985 X-94.439 Y-138.775 Z-2.979
N2990 X-94.472 Y-138.79 Z-2.788
N2995 X-94.492 Y-138.799 Z-2.594
N3000 X-94.498 Y-138.802 Z-2.4
N3005 G0 Z6.
N3010 G1 X-95.665 Y139.105 F5000.
N3015 G0 Z0.2
N3020 G1 Z-2.4 F2328.
N3025 X-95.659 Y139.102 Z-2.594
N3030 X-95.64 Y139.091 Z-2.788
N3035 X-95.609 Y139.072 Z-2.979
N3040 X-95.566 Y139.046 Z-3.166
N3045 X-95.51 Y139.014 Z-3.35
N3050 X-95.444 Y138.974 Z-3.528
N3055 X-95.366 Y138.927 Z-3.7
N3060 X-95.277 Y138.875 Z-3.865
N3065 X-95.177 Y138.816 Z-4.021
N3070 X-95.068 Y138.751 Z-4.168
N3075 X-94.95 Y138.68 Z-4.306
N3080 X-94.823 Y138.605 Z-4.433
N3085 X-94.689 Y138.525 Z-4.548
N3090 X-94.548 Y138.441 Z-4.652
N3095 X-94.4 Y138.353 Z-4.743
N3100 X-94.247 Y138.262 Z-4.82
N3105 X-94.089 Y138.168 Z-4.884
N3110 X-93.927 Y138.072 Z-4.935
N3115 X-93.763 Y137.975 Z-4.971
N3120 X-93.597 Y137.876 Z-4.993
N3125 X-93.43 Y137.777 Z-5.
N3130 G3 X-92.488 Y137.5 I1.011 J1.7
N3135 G1 X-70.021 Y137.496
N3140 X-69.272 Y137.466
N3145 X-68.524 Y137.408
N3150 X-67.775 Y137.288
N3155 X-67.026 Y137.126
N3160 X-66.277 Y136.931
N3165 X-66.071 Y136.866
N3170 X-65.528 Y136.666
N3175 X-64.779 Y136.339
N3180 X-64.296 Y136.116
N3185 X-64.03 Y135.977
N3190 X-63.281 Y135.537
N3195 X-62.543 Y135.103
N3200 X-60.994 Y134.352
N3205 X-59.39 Y133.727
N3210 X-57.75 Y133.204
N3215 X-56.085 Y132.766
N3220 X-54.403 Y132.398
N3225 X-52.709 Y132.09
N3230 X-51.007 Y131.83
N3235 X-49.299 Y131.612
N3240 X-47.588 Y131.429
N3245 X-45.873 Y131.274
N3250 X-44.156 Y131.145
N3255 X-42.438 Y131.036
N3260 X-40.719 Y130.945
N3265 X-38.999 Y130.868
N3270 X-37.278 Y130.804
N3275 X-33.837 Y130.706
N3280 X-30.394 Y130.637
N3285 X-25.23 Y130.572
N3290 X-18.343 Y130.527
N3295 X-13.179 Y130.511
N3300 X5.759 Y130.497
N3305 X38.47 Y130.499
N3310 X50.521 Y130.5
N3315 X52.241 Y130.423
N3320 X53.939 Y130.139
N3325 X55.586 Y129.636
N3330 X57.156 Y128.93
N3335 X58.632 Y128.045
N3340 X60.006 Y127.007
N3345 X61.274 Y125.842
N3350 X62.435 Y124.571
N3355 X63.494 Y123.214
N3360 X64.454 Y121.785
N3365 X65.323 Y120.298
N3370 X66.106 Y118.765
N3375 X66.809 Y117.194
N3380 X67.441 Y115.592
N3385 X68.007 Y113.966
N3390 X68.512 Y112.32
N3395 X68.963 Y110.659
N3400 X69.365 Y108.985
N3405 X69.723 Y107.301
N3410 X70.042 Y105.609
N3415 X70.325 Y103.911
N3420 X70.576 Y102.208
N3425 X70.799 Y100.501
N3430 X70.997 Y98.79
N3435 X71.172 Y97.078
N3440 X71.327 Y95.363
N3445 X71.465 Y93.647
N3450 X71.586 Y91.93
N3455 X71.694 Y90.211
N3460 X71.789 Y88.493
N3465 X71.947 Y85.053
N3470 X72.071 Y81.612
N3475 X72.167 Y78.17
N3480 X72.273 Y73.006
N3485 X72.345 Y67.842
N3490 X72.407 Y60.956
N3495 X72.457 Y50.626
N3500 X72.463 Y48.905
N3505 X72.491 Y29.967
N3510 X72.499 Y-2.744
N3515 X72.5 Y-54.392
N3520 Y-106.041
N3525 X72.493 Y-109.484
N3530 X72.304 Y-111.195
N3535 X71.896 Y-112.868
N3540 X71.277 Y-114.474
N3545 X70.467 Y-115.993
N3550 X69.494 Y-117.413
N3555 X68.382 Y-118.727
N3560 X67.155 Y-119.936
N3565 X65.834 Y-121.039
N3570 X64.434 Y-122.042
N3575 X62.972 Y-122.95
N3580 X61.458 Y-123.77
N3585 X59.902 Y-124.508
N3590 X58.313 Y-125.171
N3595 X56.697 Y-125.764
N3600 X55.06 Y-126.296
N3605 X53.405 Y-126.77
N3610 X51.736 Y-127.193
N3615 X50.056 Y-127.57
N3620 X48.368 Y-127.906
N3625 X46.672 Y-128.204
N3630 X44.971 Y-128.469
N3635 X43.266 Y-128.704
N3640 X41.557 Y-128.913
N3645 X39.845 Y-129.097
N3650 X38.131 Y-129.261
N3655 X36.416 Y-129.406
N3660 X34.699 Y-129.535
N3665 X32.981 Y-129.648
N3670 X31.262 Y-129.749
N3675 X29.543 Y-129.837
N3680 X26.103 Y-129.985
N3685 X22.662 Y-130.1
N3690 X19.22 Y-130.19
N3695 X14.056 Y-130.288
N3700 X13.192 Y-130.301
N3705 X12.739 Y-130.339
N3710 X12.295 Y-130.439
N3715 X11.868 Y-130.6
N3720 X11.469 Y-130.817
N3725 X11.102 Y-131.087
N3730 X10.777 Y-131.406
N3735 X10.498 Y-131.765
N3740 X10.095 Y-132.366
N3745 X9.361 Y-133.265
N3750 X8.787 Y-133.866
N3755 X7.985 Y-134.616
N3760 X6.98 Y-135.366
N3765 X6.366 Y-135.755
N3770 X5.617 Y-136.15
N3775 X4.868 Y-136.511
N3780 X3.931 Y-136.866
N3785 X3.37 Y-137.022
N3790 X2.621 Y-137.216
N3795 X1.872 Y-137.348
N3800 X1.123 Y-137.435
N3805 X0.374 Y-137.489
N3810 X-1.872 Y-137.5
N3815 X-72.275
N3820 G3 X-73.225 Y-137.724 I0.087 J-2.498
N3825 G1 X-73.402 Y-137.804 Z-4.993
N3830 X-73.577 Y-137.884 Z-4.971
N3835 X-73.751 Y-137.963 Z-4.935
N3840 X-73.922 Y-138.041 Z-4.884
N3845 X-74.089 Y-138.117 Z-4.82
N3850 X-74.251 Y-138.191 Z-4.743
N3855 X-74.408 Y-138.263 Z-4.652
N3860 X-74.558 Y-138.331 Z-4.548
N3865 X-74.7 Y-138.396 Z-4.433
N3870 X-74.834 Y-138.457 Z-4.306
N3875 X-74.959 Y-138.514 Z-4.168
N3880 X-75.074 Y-138.567 Z-4.021
N3885 X-75.18 Y-138.614 Z-3.865
N3890 X-75.274 Y-138.657 Z-3.7
N3895 X-75.356 Y-138.695 Z-3.528
N3900 X-75.427 Y-138.727 Z-3.35
N3905 X-75.486 Y-138.754 Z-3.166
N3910 X-75.531 Y-138.775 Z-2.979
N3915 X-75.564 Y-138.79 Z-2.788
N3920 X-75.584 Y-138.799 Z-2.594
N3925 X-75.591 Y-138.802 Z-2.4
N3930 G0 Z6.
N3935 G1 X-64.996 Y138.656 F5000.
N3940 G0 Z0.2
N3945 G1 Z-2.4 F2328.
N3950 X-64.993 Y138.649 Z-2.594
N3955 X-64.983 Y138.63 Z-2.788
N3960 X-64.968 Y138.597 Z-2.979
N3965 X-64.947 Y138.551 Z-3.166
N3970 X-64.92 Y138.493 Z-3.35
N3975 X-64.887 Y138.422 Z-3.528
N3980 X-64.849 Y138.34 Z-3.7
N3985 X-64.806 Y138.246 Z-3.865
N3990 X-64.757 Y138.141 Z-4.021
N3995 X-64.704 Y138.026 Z-4.168
N4000 X-64.646 Y137.902 Z-4.306
N4005 X-64.584 Y137.768 Z-4.433
N4010 X-64.518 Y137.626 Z-4.548
N4015 X-64.449 Y137.477 Z-4.652
N4020 X-64.377 Y137.321 Z-4.743
N4025 X-64.302 Y137.159 Z-4.82
N4030 X-64.225 Y136.992 Z-4.884
N4035 X-64.146 Y136.822 Z-4.935
N4040 X-64.065 Y136.649 Z-4.971
N4045 X-63.984 Y136.473 Z-4.993
N4050 X-63.902 Y136.297 Z-5.
N4055 G3 X-63.281 Y135.537 I1.795 J0.832
N4060 G1 X-63.032 Y135.366
N4065 X-62.017 Y134.616
N4070 X-61.784 Y134.412
N4075 X-61.035 Y133.706
N4080 X-60.497 Y133.116
N4085 X-60.286 Y132.858
N4090 X-59.903 Y132.366
N4095 X-59.407 Y131.616
N4100 X-59.169 Y131.203
N4105 X-58.91 Y130.802
N4110 X-58.396 Y130.132
N4115 X-57.736 Y129.4
N4120 X-56.906 Y128.615
N4125 X-55.866 Y127.781
N4130 X-54.564 Y126.898
N4135 X-53.066 Y126.049
N4140 X-51.51 Y125.313
N4145 X-49.911 Y124.674
N4150 X-48.281 Y124.12
N4155 X-46.628 Y123.638
N4160 X-44.958 Y123.221
N4165 X-43.275 Y122.858
N4170 X-41.582 Y122.543
N4175 X-39.883 Y122.269
N4180 X-38.177 Y122.032
N4185 X-36.468 Y121.825
N4190 X-34.756 Y121.646
N4195 X-33.041 Y121.491
N4200 X-31.325 Y121.356
N4205 X-29.607 Y121.24
N4210 X-27.889 Y121.138
N4215 X-26.169 Y121.051
N4220 X-24.449 Y120.975
N4225 X-21.008 Y120.852
N4230 X-17.566 Y120.761
N4235 X-12.402 Y120.665
N4240 X-10.681 Y120.642
N4245 X-3.795 Y120.576
N4250 X4.813 Y120.534
N4255 X20.308 Y120.507
N4260 X39.245 Y120.501
N4265 X40.967 Y120.47
N4270 X42.676 Y120.267
N4275 X44.349 Y119.859
N4280 X45.958 Y119.248
N4285 X47.486 Y118.453
N4290 X48.917 Y117.496
N4295 X50.247 Y116.403
N4300 X51.473 Y115.195
N4305 X52.597 Y113.89
N4310 X53.621 Y112.507
N4315 X54.552 Y111.058
N4320 X55.395 Y109.557
N4325 X56.156 Y108.013
N4330 X56.842 Y106.434
N4335 X57.457 Y104.826
N4340 X58.01 Y103.195
N4345 X58.505 Y101.547
N4350 X58.948 Y99.883
N4355 X59.343 Y98.207
N4360 X59.696 Y96.522
N4365 X60.011 Y94.83
N4370 X60.291 Y93.131
N4375 X60.541 Y91.428
N4380 X60.763 Y89.72
N4385 X60.961 Y88.01
N4390 X61.136 Y86.297
N4395 X61.292 Y84.583
N4400 X61.43 Y82.867
N4405 X61.553 Y81.15
N4410 X61.662 Y79.431
N4415 X61.758 Y77.713
N4420 X61.92 Y74.273
N4425 X62.047 Y70.832
N4430 X62.146 Y67.39
N4435 X62.256 Y62.227
N4440 X62.332 Y57.063
N4445 X62.398 Y50.176
N4450 X62.452 Y39.847
N4455 X62.483 Y26.074
N4460 X62.499 Y-10.08
N4465 X62.5 Y-25.574
N4470 Y-77.223
N4475 Y-97.882
N4480 X62.415 Y-99.602
N4485 X62.138 Y-101.301
N4490 X61.654 Y-102.953
N4495 X60.973 Y-104.534
N4500 X60.116 Y-106.027
N4505 X59.107 Y-107.422
N4510 X57.968 Y-108.714
N4515 X56.722 Y-109.902
N4520 X55.387 Y-110.988
N4525 X53.978 Y-111.978
N4530 X52.509 Y-112.875
N4535 X50.991 Y-113.687
N4540 X49.433 Y-114.419
N4545 X47.842 Y-115.078
N4550 X46.225 Y-115.67
N4555 X44.588 Y-116.201
N4560 X42.933 Y-116.676
N4565 X41.264 Y-117.1
N4570 X39.585 Y-117.48
N4575 X37.897 Y-117.818
N4580 X36.202 Y-118.119
N4585 X34.501 Y-118.388
N4590 X32.797 Y-118.627
N4595 X31.088 Y-118.84
N4600 X29.377 Y-119.029
N4605 X27.663 Y-119.197
N4610 X25.948 Y-119.346
N4615 X22.515 Y-119.603
N4620 X20.799 Y-119.745
N4625 X19.087 Y-119.93
N4630 X17.385 Y-120.183
N4635 X15.698 Y-120.529
N4640 X14.921 Y-120.743
N4645 X14.472 Y-120.903
N4650 X14.051 Y-121.126
N4655 X13.666 Y-121.407
N4660 X13.325 Y-121.741
N4665 X13.037 Y-122.12
N4670 X12.806 Y-122.537
N4675 X12.637 Y-122.983
N4680 X12.534 Y-123.449
N4685 X12.5 Y-123.924
N4690 Y-124.866
N4695 G3 X12.723 Y-125.816 I2.498 J0.087
N4700 G1 X12.804 Y-125.993 Z-4.993
N4705 X12.884 Y-126.168 Z-4.971
N4710 X12.963 Y-126.342 Z-4.935
N4715 X13.041 Y-126.513 Z-4.884
N4720 X13.117 Y-126.68 Z-4.82
N4725 X13.191 Y-126.842 Z-4.743
N4730 X13.262 Y-126.999 Z-4.652
N4735 X13.331 Y-127.149 Z-4.548
N4740 X13.396 Y-127.291 Z-4.433
N4745 X13.457 Y-127.425 Z-4.306
N4750 X13.514 Y-127.55 Z-4.168
N4755 X13.566 Y-127.666 Z-4.021
N4760 X13.614 Y-127.771 Z-3.865
N4765 X13.657 Y-127.865 Z-3.7
N4770 X13.695 Y-127.948 Z-3.528
N4775 X13.727 Y-128.018 Z-3.35
N4780 X13.753 Y-128.077 Z-3.166
N4785 X13.774 Y-128.123 Z-2.979
N4790 X13.789 Y-128.155 Z-2.788
N4795 X13.798 Y-128.175 Z-2.594
N4800 X13.801 Y-128.182 Z-2.4
N4805 G0 Z6.
N4810 G1 X-59.365 Y134.757 F5000.
N4815 G0 Z0.2
N4820 G1 Z-2.4 F2328.
N4825 Y134.75 Z-2.594
N4830 Y134.728 Z-2.788
N4835 X-59.366 Y134.692 Z-2.979
N4840 Y134.642 Z-3.166
N4845 X-59.367 Y134.578 Z-3.35
N4850 X-59.368 Y134.5 Z-3.528
N4855 X-59.37 Y134.409 Z-3.7
N4860 X-59.371 Y134.306 Z-3.865
N4865 X-59.372 Y134.19 Z-4.021
N4870 X-59.374 Y134.063 Z-4.168
N4875 X-59.376 Y133.926 Z-4.306
N4880 X-59.378 Y133.779 Z-4.433
N4885 X-59.38 Y133.622 Z-4.548
N4890 X-59.382 Y133.458 Z-4.652
N4895 X-59.385 Y133.286 Z-4.743
N4900 X-59.387 Y133.107 Z-4.82
N4905 X-59.389 Y132.924 Z-4.884
N4910 X-59.392 Y132.736 Z-4.935
N4915 X-59.394 Y132.545 Z-4.971
N4920 X-59.397 Y132.352 Z-4.993
N4925 X-59.4 Y132.158 Z-5.
N4930 G3 X-59.169 Y131.203 I1.978 J-0.026
N4935 G1 X-58.788 Y130.525
N4940 X-58.608 Y130.116
N4945 X-58.295 Y129.366
N4950 X-58.039 Y128.581
N4955 X-57.841 Y127.866
N4960 X-57.682 Y127.116
N4965 X-57.653 Y126.889
N4970 X-57.589 Y126.526
N4975 X-57.437 Y125.942
N4980 X-57.207 Y125.281
N4985 X-56.895 Y124.574
N4990 X-56.468 Y123.784
N4995 X-55.928 Y122.954
N5000 X-55.241 Y122.062
N5005 X-54.377 Y121.11
N5010 X-53.31 Y120.109
N5015 X-52. Y119.065
N5020 X-50.573 Y118.103
N5025 X-49.08 Y117.245
N5030 X-47.537 Y116.48
N5035 X-45.956 Y115.8
N5040 X-44.345 Y115.194
N5045 X-42.709 Y114.655
N5050 X-41.056 Y114.177
N5055 X-39.387 Y113.752
N5060 X-37.708 Y113.374
N5065 X-36.019 Y113.039
N5070 X-34.323 Y112.742
N5075 X-32.622 Y112.479
N5080 X-30.916 Y112.245
N5085 X-29.207 Y112.039
N5090 X-27.495 Y111.856
N5095 X-25.781 Y111.694
N5100 X-24.065 Y111.551
N5105 X-22.348 Y111.425
N5110 X-20.63 Y111.313
N5115 X-18.912 Y111.215
N5120 X-17.192 Y111.128
N5125 X-13.752 Y110.984
N5130 X-12.031 Y110.924
N5135 X-8.59 Y110.826
N5140 X-3.426 Y110.718
N5145 X1.739 Y110.646
N5150 X8.625 Y110.584
N5155 X18.954 Y110.537
N5160 X29.284 Y110.514
N5165 X31.004 Y110.438
N5170 X32.707 Y110.185
N5175 X34.368 Y109.733
N5180 X35.964 Y109.087
N5185 X37.476 Y108.264
N5190 X38.893 Y107.287
N5195 X40.21 Y106.178
N5200 X41.425 Y104.958
N5205 X42.54 Y103.646
N5210 X43.557 Y102.257
N5215 X44.482 Y100.805
N5220 X45.321 Y99.302
N5225 X46.079 Y97.756
N5230 X46.763 Y96.176
N5235 X47.379 Y94.568
N5240 X47.932 Y92.938
N5245 X48.428 Y91.289
N5250 X48.873 Y89.626
N5255 X49.271 Y87.951
N5260 X49.626 Y86.267
N5265 X49.944 Y84.575
N5270 X50.228 Y82.877
N5275 X50.481 Y81.174
N5280 X50.706 Y79.467
N5285 X50.907 Y77.757
N5290 X51.086 Y76.045
N5295 X51.245 Y74.33
N5300 X51.386 Y72.615
N5305 X51.512 Y70.898
N5310 X51.624 Y69.18
N5315 X51.723 Y67.461
N5320 X51.889 Y64.022
N5325 X52.021 Y60.581
N5330 X52.075 Y58.86
N5335 X52.167 Y55.418
N5340 X52.269 Y50.254
N5345 X52.34 Y45.09
N5350 X52.402 Y38.204
N5355 X52.453 Y27.874
N5360 X52.487 Y10.658
N5365 X52.49 Y7.215
N5370 X52.5 Y-44.433
N5375 X52.497 Y-87.474
N5380 X52.407 Y-89.193
N5385 X52.133 Y-90.893
N5390 X51.66 Y-92.548
N5395 X50.994 Y-94.135
N5400 X50.153 Y-95.638
N5405 X49.161 Y-97.045
N5410 X48.039 Y-98.351
N5415 X46.808 Y-99.554
N5420 X45.487 Y-100.658
N5425 X44.091 Y-101.666
N5430 X42.633 Y-102.581
N5435 X41.124 Y-103.411
N5440 X39.575 Y-104.16
N5445 X37.991 Y-104.836
N5450 X36.381 Y-105.445
N5455 X34.748 Y-105.991
N5460 X33.098 Y-106.482
N5465 X31.434 Y-106.925
N5470 X29.761 Y-107.329
N5475 X28.081 Y-107.705
N5480 X23.028 Y-108.777
N5485 X21.349 Y-109.156
N5490 X19.68 Y-109.578
N5495 X18.029 Y-110.066
N5500 X16.407 Y-110.643
N5505 X14.83 Y-111.327
N5510 X14.248 Y-111.637
N5515 X13.87 Y-111.873
N5520 X13.527 Y-112.158
N5525 X13.225 Y-112.486
N5530 X12.971 Y-112.851
N5535 X12.768 Y-113.248
N5540 X12.62 Y-113.669
N5545 X12.53 Y-114.105
N5550 X12.5 Y-114.55
N5555 Y-123.924
N5560 G3 X12.724 Y-124.874 I2.498 J0.087
N5565 G1 X12.804 Y-125.051 Z-4.993
N5570 X12.884 Y-125.226 Z-4.971
N5575 X12.963 Y-125.4 Z-4.935
N5580 X13.041 Y-125.571 Z-4.884
N5585 X13.117 Y-125.738 Z-4.82
N5590 X13.191 Y-125.9 Z-4.743
N5595 X13.263 Y-126.057 Z-4.652
N5600 X13.331 Y-126.206 Z-4.548
N5605 X13.396 Y-126.349 Z-4.433
N5610 X13.457 Y-126.483 Z-4.306
N5615 X13.514 Y-126.608 Z-4.168
N5620 X13.567 Y-126.723 Z-4.021
N5625 X13.614 Y-126.829 Z-3.865
N5630 X13.657 Y-126.923 Z-3.7
N5635 X13.695 Y-127.005 Z-3.528
N5640 X13.727 Y-127.076 Z-3.35
N5645 X13.754 Y-127.135 Z-3.166
N5650 X13.775 Y-127.18 Z-2.979
N5655 X13.79 Y-127.213 Z-2.788
N5660 X13.799 Y-127.233 Z-2.594
N5665 X13.802 Y-127.24 Z-2.4
N5670 G0 Z6.
N5675 G1 X-56.455 Y130.241 F5000.
N5680 G0 Z0.2
N5685 G1 Z-2.4 F2328.
N5690 X-56.458 Y130.234 Z-2.594
N5695 X-56.467 Y130.214 Z-2.788
N5700 X-56.481 Y130.181 Z-2.979
N5705 X-56.501 Y130.135 Z-3.166
N5710 X-56.527 Y130.076 Z-3.35
N5715 X-56.558 Y130.005 Z-3.528
N5720 X-56.594 Y129.922 Z-3.7
N5725 X-56.636 Y129.827 Z-3.865
N5730 X-56.682 Y129.721 Z-4.021
N5735 X-56.733 Y129.605 Z-4.168
N5740 X-56.788 Y129.479 Z-4.306
N5745 X-56.847 Y129.344 Z-4.433
N5750 X-56.909 Y129.2 Z-4.548
N5755 X-56.975 Y129.05 Z-4.652
N5760 X-57.044 Y128.892 Z-4.743
N5765 X-57.116 Y128.729 Z-4.82
N5770 X-57.189 Y128.561 Z-4.884
N5775 X-57.264 Y128.389 Z-4.935
N5780 X-57.341 Y128.213 Z-4.971
N5785 X-57.418 Y128.036 Z-4.993
N5790 X-57.496 Y127.858 Z-5.
N5795 G3 X-57.653 Y126.889 I1.813 J-0.792
N5800 G1 X-57.588 Y126.366
N5805 X-57.528 Y125.616
N5810 X-57.5 Y124.866
N5815 Y121.454
N5820 X-57.464 Y120.74
N5825 X-57.372 Y120.039
N5830 X-57.217 Y119.31
N5835 X-56.967 Y118.477
N5840 X-56.63 Y117.611
N5845 X-56.17 Y116.663
N5850 X-55.569 Y115.643
N5855 X-54.825 Y114.583
N5860 X-53.895 Y113.463
N5865 X-52.748 Y112.288
N5870 X-51.451 Y111.156
N5875 X-50.073 Y110.123
N5880 X-48.631 Y109.184
N5885 X-47.136 Y108.329
N5890 X-45.599 Y107.553
N5895 X-44.028 Y106.85
N5900 X-42.429 Y106.212
N5905 X-40.807 Y105.635
N5910 X-39.166 Y105.114
N5915 X-37.51 Y104.642
N5920 X-35.842 Y104.216
N5925 X-34.164 Y103.832
N5930 X-32.477 Y103.486
N5935 X-30.784 Y103.174
N5940 X-29.086 Y102.893
N5945 X-27.383 Y102.64
N5950 X-25.676 Y102.413
N5955 X-23.967 Y102.209
N5960 X-22.255 Y102.025
N5965 X-20.541 Y101.861
N5970 X-18.826 Y101.714
N5975 X-17.109 Y101.581
N5980 X-15.392 Y101.463
N5985 X-13.673 Y101.357
N5990 X-11.954 Y101.263
N5995 X-8.515 Y101.103
N6000 X-5.074 Y100.975
N6005 X-1.632 Y100.874
N6010 X3.531 Y100.76
N6015 X8.695 Y100.68
N6020 X15.581 Y100.609
N6025 X19.025 Y100.582
N6030 X20.744 Y100.493
N6035 X22.446 Y100.235
N6040 X24.107 Y99.783
N6045 X25.705 Y99.141
N6050 X27.221 Y98.326
N6055 X28.645 Y97.358
N6060 X29.969 Y96.258
N6065 X31.193 Y95.047
N6070 X32.318 Y93.744
N6075 X33.346 Y92.363
N6080 X34.283 Y90.918
N6085 X35.133 Y89.421
N6090 X35.902 Y87.881
N6095 X36.597 Y86.306
N6100 X37.223 Y84.702
N6105 X37.786 Y83.075
N6110 X38.292 Y81.43
N6115 X38.747 Y79.769
N6120 X39.154 Y78.096
N6125 X39.518 Y76.414
N6130 X39.844 Y74.723
N6135 X40.135 Y73.026
N6140 X40.395 Y71.325
N6145 X40.627 Y69.619
N6150 X40.834 Y67.91
N6155 X41.019 Y66.198
N6160 X41.183 Y64.484
N6165 X41.33 Y62.769
N6170 X41.46 Y61.052
N6175 X41.576 Y59.334
N6180 X41.68 Y57.616
N6185 X41.772 Y55.897
N6190 X41.926 Y52.457
N6195 X42.048 Y49.016
N6200 X42.144 Y45.574
N6205 X42.22 Y42.132
N6210 X42.305 Y36.968
N6215 X42.38 Y30.082
N6220 X42.439 Y21.199
N6225 X42.444 Y21.123
N6230 X42.481 Y20.624
N6235 X42.5 Y19.124
N6240 Y-67.12
N6245 X42.494 Y-67.87
N6250 X42.54 Y-69.591
N6255 X42.521 Y-76.478
N6260 X42.481 Y-78.199
N6265 X42.286 Y-79.909
N6270 X41.901 Y-81.587
N6275 X41.322 Y-83.209
N6280 X40.561 Y-84.753
N6285 X39.64 Y-86.208
N6290 X38.581 Y-87.565
N6295 X37.404 Y-88.822
N6300 X36.131 Y-89.98
N6305 X34.778 Y-91.045
N6310 X33.361 Y-92.023
N6315 X31.894 Y-92.924
N6320 X30.387 Y-93.756
N6325 X28.849 Y-94.53
N6330 X27.288 Y-95.257
N6335 X25.713 Y-95.951
N6340 X24.127 Y-96.622
N6345 X20.948 Y-97.943
N6350 X19.363 Y-98.616
N6355 X17.791 Y-99.318
N6360 X16.243 Y-100.071
N6365 X14.731 Y-100.894
N6370 X14.051 Y-101.319
N6375 X13.666 Y-101.6
N6380 X13.325 Y-101.934
N6385 X13.037 Y-102.314
N6390 X12.806 Y-102.731
N6395 X12.637 Y-103.176
N6400 X12.534 Y-103.642
N6405 X12.5 Y-104.117
N6410 Y-114.55
N6415 G3 X12.724 Y-115.499 I2.498 J0.087
N6420 G1 X12.804 Y-115.676 Z-4.993
N6425 X12.884 Y-115.852 Z-4.971
N6430 X12.963 Y-116.026 Z-4.935
N6435 X13.041 Y-116.196 Z-4.884
N6440 X13.117 Y-116.363 Z-4.82
N6445 X13.191 Y-116.526 Z-4.743
N6450 X13.263 Y-116.682 Z-4.652
N6455 X13.331 Y-116.832 Z-4.548
N6460 X13.396 Y-116.974 Z-4.433
N6465 X13.457 Y-117.108 Z-4.306
N6470 X13.514 Y-117.233 Z-4.168
N6475 X13.567 Y-117.349 Z-4.021
N6480 X13.614 Y-117.454 Z-3.865
N6485 X13.657 Y-117.548 Z-3.7
N6490 X13.695 Y-117.631 Z-3.528
N6495 X13.727 Y-117.701 Z-3.35
N6500 X13.754 Y-117.76 Z-3.166
N6505 X13.775 Y-117.806 Z-2.979
N6510 X13.79 Y-117.839 Z-2.788
N6515 X13.799 Y-117.858 Z-2.594
N6520 X13.802 Y-117.865 Z-2.4
N6525 G0 Z6.
N6530 G1 X44.174 Y-64.732 F5000.
N6535 G0 Z0.2
N6540 G1 Z-2.4 F2328.
N6545 X44.171 Y-64.739 Z-2.594
N6550 X44.159 Y-64.757 Z-2.788
N6555 X44.14 Y-64.788 Z-2.979
N6560 X44.113 Y-64.83 Z-3.166
N6565 X44.079 Y-64.885 Z-3.35
N6570 X44.038 Y-64.951 Z-3.528
N6575 X43.989 Y-65.027 Z-3.7
N6580 X43.934 Y-65.115 Z-3.865
N6585 X43.873 Y-65.213 Z-4.021
N6590 X43.806 Y-65.32 Z-4.168
N6595 X43.733 Y-65.437 Z-4.306
N6600 X43.654 Y-65.562 Z-4.433
N6605 X43.571 Y-65.694 Z-4.548
N6610 X43.484 Y-65.834 Z-4.652
N6615 X43.392 Y-65.979 Z-4.743
N6620 X43.298 Y-66.13 Z-4.82
N6625 X43.2 Y-66.286 Z-4.884
N6630 X43.101 Y-66.445 Z-4.935
N6635 X42.999 Y-66.607 Z-4.971
N6640 X42.896 Y-66.771 Z-4.993
N6645 X42.793 Y-66.935 Z-5.
N6650 G3 X42.494 Y-67.87 I1.676 J-1.051
N6655 G1 X42.477 Y-68.62
N6660 X42.416 Y-69.37
N6665 X42.308 Y-70.12
N6670 X42.159 Y-70.87
N6675 X41.949 Y-71.62
N6680 X41.696 Y-72.37
N6685 X41.399 Y-73.12
N6690 X41.023 Y-73.87
N6695 X40.815 Y-74.259
N6700 X40.585 Y-74.62
N6705 X40.066 Y-75.395
N6710 X39.317 Y-76.321
N6715 X38.778 Y-76.87
N6720 X38.568 Y-77.072
N6725 X37.968 Y-77.62
N6730 X36.973 Y-78.37
N6735 X36.321 Y-78.772
N6740 X35.685 Y-79.12
N6745 X34.174 Y-79.945
N6750 X32.676 Y-80.793
N6755 X31.166 Y-81.62
N6760 X29.645 Y-82.426
N6765 X28.113 Y-83.212
N6770 X26.573 Y-83.981
N6775 X23.475 Y-85.485
N6780 X20.376 Y-86.985
N6785 X18.833 Y-87.749
N6790 X17.303 Y-88.538
N6795 X15.794 Y-89.368
N6800 X14.322 Y-90.26
N6805 X13.933 Y-90.527
N6810 X13.575 Y-90.811
N6815 X13.26 Y-91.142
N6820 X12.994 Y-91.512
N6825 X12.781 Y-91.917
N6830 X12.626 Y-92.346
N6835 X12.532 Y-92.793
N6840 X12.5 Y-93.249
N6845 Y-104.117
N6850 G3 X16.803 Y-105.76 I2.498 J0.087
N6855 G1 X38.48 Y-83.145
N6860 G3 X35.685 Y-79.12 I-1.805 J1.73
N6865 G1 X34.823 Y-79.527
N6870 X33.898 Y-79.869
N6875 X33.326 Y-80.035
N6880 X32.577 Y-80.227
N6885 X31.828 Y-80.354
N6890 X31.079 Y-80.439
N6895 X30.33 Y-80.491
N6900 X27.335 Y-80.5
N6905 X22.092
N6910 X20.373 Y-80.59
N6915 X18.663 Y-80.79
N6920 X17.712 Y-80.979
N6925 X17.481 Y-81.034
N6930 X17.255 Y-81.105
N6935 X17.035 Y-81.192
N6940 G3 X18.402 Y-85.93 I1.082 J-2.254
N6945 G1 X20.574 Y-85.68
N6950 X22.291 Y-85.482
N6955 G3 X22.092 Y-80.5 I-0.286 J2.484
N6960 G1 X21.343 Y-80.502
N6965 X20.595 Y-80.517
N6970 X19.846 Y-80.546
N6975 X18.348 Y-80.735
N6980 X17.599 Y-80.945
N6985 X16.632 Y-81.369
N6990 X16.101 Y-81.659
N6995 X15.426 Y-82.119
N7000 X14.595 Y-82.869
N7005 X14.258 Y-83.244
N7010 X13.515 Y-84.369
N7015 X13.287 Y-84.744
N7020 X13.106 Y-85.177
N7025 X12.851 Y-85.869
N7030 X12.673 Y-86.619
N7035 X12.579 Y-87.369
N7040 X12.519 Y-88.119
N7045 X12.5 Y-88.869
N7050 Y-93.249
N7055 X12.514 Y-93.363 Z-4.993
N7060 X12.528 Y-93.476 Z-4.973
N7065 X12.542 Y-93.586 Z-4.939
N7070 X12.555 Y-93.691 Z-4.892
N7075 X12.584 Y-93.782 Z-4.837
N7080 X12.61 Y-93.866 Z-4.771
N7085 X12.634 Y-93.942 Z-4.696
N7090 X12.655 Y-94.01 Z-4.613
N7095 X12.673 Y-94.069 Z-4.522
N7100 X12.688 Y-94.117 Z-4.425
N7105 X12.704 Y-94.152 Z-4.327
N7110 X12.715 Y-94.178 Z-4.226
N7115 X12.721 Y-94.193 Z-4.123
N7120 X12.724 Y-94.198 Z-4.018
N7125 G0 Z6.
N7130 G1 X-114.224 Y121.752 F5000.
N7135 G0 Z-4.8
N7140 G1 Z-7.4 F2328.
N7145 X-114.22 Y121.758 Z-7.594
N7150 X-114.208 Y121.777 Z-7.788
N7155 X-114.188 Y121.807 Z-7.979
N7160 X-114.161 Y121.849 Z-8.166
N7165 X-114.126 Y121.903 Z-8.35
N7170 X-114.084 Y121.968 Z-8.528
N7175 X-114.034 Y122.045 Z-8.7
N7180 X-113.978 Y122.132 Z-8.865
N7185 X-113.915 Y122.228 Z-9.021
N7190 X-113.847 Y122.335 Z-9.168
N7195 X-113.772 Y122.45 Z-9.306
N7200 X-113.692 Y122.574 Z-9.433
N7205 X-113.607 Y122.706 Z-9.548
N7210 X-113.518 Y122.844 Z-9.652
N7215 X-113.424 Y122.988 Z-9.743
N7220 X-113.327 Y123.138 Z-9.82
N7225 X-113.228 Y123.292 Z-9.884
N7230 X-113.126 Y123.45 Z-9.935
N7235 X-113.022 Y123.61 Z-9.971
N7240 X-112.917 Y123.772 Z-9.993
N7245 X-112.812 Y123.935 Z-10.
N7250 G3 X-112.5 Y124.866 I-1.661 J1.074
N7255 G1 X-112.472 Y125.616
N7260 X-112.412 Y126.366
N7265 X-112.316 Y127.116
N7270 X-112.154 Y127.866
N7275 X-111.95 Y128.616
N7280 X-111.709 Y129.366
N7285 X-111.402 Y130.116
N7290 X-111.21 Y130.505
N7295 X-110.601 Y131.616
N7300 X-110.462 Y131.836
N7305 X-110.093 Y132.366
N7310 X-109.493 Y133.116
N7315 X-109.03 Y133.681
N7320 X-108.307 Y134.724
N7325 X-107.531 Y136.062
N7330 X-106.79 Y137.616
N7335 X-106.162 Y139.22
N7340 X-105.63 Y140.857
N7345 X-105.178 Y142.518
N7350 X-104.793 Y144.196
N7355 X-104.464 Y145.886
N7360 X-104.183 Y147.584
N7365 X-103.537 Y149.18
N7370 X-102.585 Y150.615
N7375 X-101.428 Y151.889
N7380 X-100.124 Y153.014
N7385 X-98.715 Y154.003
N7390 X-97.227 Y154.868
N7395 X-95.68 Y155.624
N7400 X-94.089 Y156.283
N7405 X-92.466 Y156.856
N7410 X-90.818 Y157.353
N7415 X-89.151 Y157.784
N7420 X-87.47 Y158.158
N7425 X-85.779 Y158.481
N7430 X-84.08 Y158.76
N7435 X-82.376 Y159.001
N7440 X-80.667 Y159.209
N7445 X-78.954 Y159.389
N7450 X-77.24 Y159.543
N7455 X-75.523 Y159.677
N7460 X-73.806 Y159.792
N7465 X-72.087 Y159.891
N7470 X-70.367 Y159.976
N7475 X-68.647 Y160.049
N7480 X-65.206 Y160.167
N7485 X-61.764 Y160.254
N7490 X-56.6 Y160.343
N7495 X-51.435 Y160.401
N7500 X-42.828 Y160.453
N7505 X-29.055 Y160.486
N7510 X-22.168 Y160.492
N7515 X29.48 Y160.5
N7520 X81.129
N7525 X88.015
N7530 X88.444 Y160.463
N7535 X88.869 Y160.394
N7540 X90.543 Y159.994
N7545 X92.045 Y159.152
N7550 X93.384 Y158.07
N7555 X94.569 Y156.821
N7560 X95.612 Y155.451
N7565 X96.526 Y153.993
N7570 X97.326 Y152.468
N7575 X98.023 Y150.894
N7580 X98.63 Y149.283
N7585 X99.157 Y147.644
N7590 X99.614 Y145.984
N7595 X100.01 Y144.308
N7600 X100.353 Y142.621
N7605 X100.65 Y140.925
N7610 X100.906 Y139.223
N7615 X101.127 Y137.516
N7620 X101.318 Y135.805
N7625 X101.483 Y134.091
N7630 X101.624 Y132.375
N7635 X101.747 Y130.658
N7640 X101.852 Y128.939
N7645 X101.942 Y127.22
N7650 X102.02 Y125.5
N7655 X102.145 Y122.059
N7660 X102.238 Y118.617
N7665 X102.333 Y113.454
N7670 X102.394 Y108.289
N7675 X102.442 Y101.403
N7680 X102.48 Y89.352
N7685 X102.496 Y70.414
N7690 X102.5 Y18.765
N7695 Y-32.883
N7700 Y-84.531
N7705 Y-136.18
N7710 Y-146.509
N7715 X102.152 Y-148.196
N7720 X101.376 Y-149.732
N7725 X100.339 Y-151.106
N7730 X99.122 Y-152.324
N7735 X97.775 Y-153.396
N7740 X96.334 Y-154.338
N7745 X94.822 Y-155.161
N7750 X93.257 Y-155.88
N7755 X91.653 Y-156.505
N7760 X90.019 Y-157.049
N7765 X88.364 Y-157.52
N7770 X86.691 Y-157.929
N7775 X85.007 Y-158.283
N7780 X83.312 Y-158.589
N7785 X81.611 Y-158.854
N7790 X79.905 Y-159.082
N7795 X78.194 Y-159.279
N7800 X76.481 Y-159.449
N7805 X74.766 Y-159.595
N7810 X73.049 Y-159.722
N7815 X71.331 Y-159.83
N7820 X69.612 Y-159.924
N7825 X67.892 Y-160.005
N7830 X66.172 Y-160.074
N7835 X62.73 Y-160.185
N7840 X59.288 Y-160.267
N7845 X54.124 Y-160.352
N7850 X48.959 Y-160.406
N7855 X40.351 Y-160.456
N7860 X26.579 Y-160.487
N7865 X14.527 Y-160.495
N7870 X-37.121 Y-160.5
N7875 X-88.77
N7880 X-90.436 Y-160.069
N7885 X-91.949 Y-159.246
N7890 X-93.298 Y-158.177
N7895 X-94.493 Y-156.938
N7900 X-95.546 Y-155.575
N7905 X-96.468 Y-154.122
N7910 X-97.275 Y-152.601
N7915 X-97.979 Y-151.03
N7920 X-98.592 Y-149.421
N7925 X-99.124 Y-147.784
N7930 X-99.585 Y-146.125
N7935 X-99.986 Y-144.451
N7940 X-100.332 Y-142.764
N7945 X-100.631 Y-141.069
N7950 X-100.89 Y-139.367
N7955 X-100.974 Y-138.969
N7960 X-101.119 Y-138.589
N7965 X-101.321 Y-138.235
N7970 X-101.574 Y-137.917
N7975 X-101.874 Y-137.642
N7980 X-102.212 Y-137.416
N7985 X-102.582 Y-137.245
N7990 X-102.973 Y-137.132
N7995 X-103.087 Y-137.115 Z-9.993
N8000 X-103.2 Y-137.099 Z-9.973
N8005 X-103.309 Y-137.082 Z-9.939
N8010 X-103.414 Y-137.067 Z-9.892
N8015 X-103.49 Y-137.064 Z-9.849
N8020 X-103.561 Y-137.062 Z-9.8
N8025 X-103.647 Y-137.069 Z-9.726
N8030 X-103.723 Y-137.075 Z-9.644
N8035 X-103.79 Y-137.08 Z-9.553
N8040 X-103.845 Y-137.084 Z-9.454
N8045 X-103.89 Y-137.088 Z-9.351
N8050 X-103.921 Y-137.09 Z-9.242
N8055 X-103.941 Y-137.092 Z-9.131
N8060 X-103.947 Z-9.018
N8065 G0 Z6.
N8070 G1 X-55.895 Y124.631 F5000.
N8075 G0 Z0.2
N8080 G1 Z-2.4 F2328.
N8085 X-55.898 Y124.625 Z-2.594
N8090 X-55.909 Y124.606 Z-2.788
N8095 X-55.928 Y124.575 Z-2.979
N8100 X-55.954 Y124.532 Z-3.166
N8105 X-55.986 Y124.476 Z-3.35
N8110 X-56.026 Y124.41 Z-3.528
N8115 X-56.073 Y124.331 Z-3.7
N8120 X-56.125 Y124.243 Z-3.865
N8125 X-56.184 Y124.143 Z-4.021
N8130 X-56.249 Y124.034 Z-4.168
N8135 X-56.32 Y123.916 Z-4.306
N8140 X-56.395 Y123.789 Z-4.433
N8145 X-56.475 Y123.655 Z-4.548
N8150 X-56.559 Y123.513 Z-4.652
N8155 X-56.647 Y123.366 Z-4.743
N8160 X-56.738 Y123.213 Z-4.82
N8165 X-56.832 Y123.055 Z-4.884
N8170 X-56.928 Y122.893 Z-4.935
N8175 X-57.025 Y122.729 Z-4.971
N8180 X-57.124 Y122.563 Z-4.993
N8185 X-57.223 Y122.396 Z-5.
N8190 G3 X-57.5 Y121.454 I1.7 J-1.011
N8195 G1 Y113.617
N8200 X-57.478 Y113.186
N8205 X-57.375 Y112.394
N8210 X-57.198 Y111.566
N8215 X-56.918 Y110.633
N8220 X-56.532 Y109.642
N8225 X-56.019 Y108.584
N8230 X-55.348 Y107.445
N8235 X-54.5 Y106.237
N8240 X-53.449 Y104.971
N8245 X-52.247 Y103.739
N8250 X-50.956 Y102.6
N8255 X-49.592 Y101.55
N8260 X-48.167 Y100.583
N8265 X-46.693 Y99.693
N8270 X-45.178 Y98.876
N8275 X-43.628 Y98.126
N8280 X-42.05 Y97.439
N8285 X-40.447 Y96.81
N8290 X-38.825 Y96.233
N8295 X-37.186 Y95.706
N8300 X-35.533 Y95.224
N8305 X-33.869 Y94.784
N8310 X-32.195 Y94.382
N8315 X-30.513 Y94.016
N8320 X-28.824 Y93.682
N8325 X-27.129 Y93.378
N8330 X-25.43 Y93.102
N8335 X-23.727 Y92.85
N8340 X-22.02 Y92.621
N8345 X-20.311 Y92.414
N8350 X-18.6 Y92.225
N8355 X-16.887 Y92.055
N8360 X-15.172 Y91.9
N8365 X-13.456 Y91.76
N8370 X-11.739 Y91.633
N8375 X-10.022 Y91.518
N8380 X-8.303 Y91.415
N8385 X-4.864 Y91.237
N8390 X-1.424 Y91.092
N8395 X2.017 Y90.975
N8400 X7.18 Y90.84
N8405 X8.901 Y90.799
N8410 X10.619 Y90.682
N8415 X12.317 Y90.402
N8420 X13.975 Y89.936
N8425 X15.569 Y89.285
N8430 X17.083 Y88.466
N8435 X18.505 Y87.496
N8440 X19.831 Y86.397
N8445 X21.057 Y85.188
N8450 X22.184 Y83.887
N8455 X23.216 Y82.509
N8460 X24.157 Y81.068
N8465 X25.012 Y79.573
N8470 X25.787 Y78.036
N8475 X26.487 Y76.463
N8480 X27.119 Y74.862
N8485 X27.688 Y73.237
N8490 X28.2 Y71.593
N8495 X28.66 Y69.934
N8500 X29.073 Y68.263
N8505 X29.442 Y66.581
N8510 X29.773 Y64.892
N8515 X30.069 Y63.196
N8520 X30.334 Y61.495
N8525 X30.571 Y59.789
N8530 X30.782 Y58.081
N8535 X30.971 Y56.37
N8540 X31.139 Y54.656
N8545 X31.289 Y52.941
N8550 X31.422 Y51.225
N8555 X31.542 Y49.507
N8560 X31.648 Y47.789
N8565 X31.742 Y46.07
N8570 X31.901 Y42.63
N8575 X31.978 Y40.61
N8580 X32.033 Y40.122
N8585 X32.161 Y39.647
N8590 X32.359 Y39.198
N8595 X32.624 Y38.784
N8600 X32.949 Y38.415
N8605 X33.326 Y38.099
N8610 X34.075 Y37.494
N8615 X35.406 Y36.372
N8620 X35.572 Y36.219
N8625 X36.321 Y35.474
N8630 X36.855 Y34.873
N8635 X37.819 Y33.661
N8640 X38.603 Y32.623
N8645 X39.095 Y31.873
N8650 X39.317 Y31.501
N8655 X39.526 Y31.123
N8660 X40.288 Y29.623
N8665 X40.661 Y28.873
N8670 X40.967 Y28.123
N8675 X41.239 Y27.373
N8680 X41.563 Y26.252
N8685 X41.869 Y25.123
N8690 X42.057 Y24.373
N8695 G3 X42.504 Y23.506 I2.403 J0.691
N8700 G1 X42.625 Y23.355 Z-4.993
N8705 X42.746 Y23.203 Z-4.971
N8710 X42.865 Y23.054 Z-4.935
N8715 X42.982 Y22.907 Z-4.884
N8720 X43.096 Y22.764 Z-4.82
N8725 X43.207 Y22.624 Z-4.743
N8730 X43.314 Y22.49 Z-4.652
N8735 X43.417 Y22.361 Z-4.548
N8740 X43.514 Y22.239 Z-4.433
N8745 X43.606 Y22.123 Z-4.306
N8750 X43.692 Y22.016 Z-4.168
N8755 X43.771 Y21.917 Z-4.021
N8760 X43.843 Y21.826 Z-3.865
N8765 X43.907 Y21.745 Z-3.7
N8770 X43.964 Y21.674 Z-3.528
N8775 X44.012 Y21.614 Z-3.35
N8780 X44.052 Y21.563 Z-3.166
N8785 X44.084 Y21.524 Z-2.979
N8790 X44.106 Y21.496 Z-2.788
N8795 X44.12 Y21.479 Z-2.594
N8800 X44.124 Y21.473 Z-2.4
N8805 G0 Z6.
N8810 G1 X-55.895 Y116.794 F5000.
N8815 G0 Z0.2
N8820 G1 Z-2.4 F2328.
N8825 X-55.898 Y116.788 Z-2.594
N8830 X-55.909 Y116.769 Z-2.788
N8835 X-55.928 Y116.738 Z-2.979
N8840 X-55.954 Y116.695 Z-3.166
N8845 X-55.986 Y116.639 Z-3.35
N8850 X-56.026 Y116.573 Z-3.528
N8855 X-56.073 Y116.494 Z-3.7
N8860 X-56.125 Y116.406 Z-3.865
N8865 X-56.184 Y116.306 Z-4.021
N8870 X-56.249 Y116.197 Z-4.168
N8875 X-56.32 Y116.079 Z-4.306
N8880 X-56.395 Y115.952 Z-4.433
N8885 X-56.475 Y115.818 Z-4.548
N8890 X-56.559 Y115.676 Z-4.652
N8895 X-56.647 Y115.529 Z-4.743
N8900 X-56.738 Y115.376 Z-4.82
N8905 X-56.832 Y115.218 Z-4.884
N8910 X-56.928 Y115.056 Z-4.935
N8915 X-57.025 Y114.892 Z-4.971
N8920 X-57.124 Y114.726 Z-4.993
N8925 X-57.223 Y114.559 Z-5.
N8930 G3 X-57.5 Y113.617 I1.7 J-1.011
N8935 G1 Y106.118
N8940 X-57.443 Y104.97
N8945 X-57.334 Y104.145
N8950 X-57.145 Y103.259
N8955 X-56.847 Y102.265
N8960 X-56.438 Y101.215
N8965 X-55.89 Y100.084
N8970 X-55.174 Y98.868
N8975 X-54.267 Y97.578
N8980 X-53.168 Y96.253
N8985 X-51.968 Y95.019
N8990 X-50.685 Y93.87
N8995 X-49.333 Y92.804
N9000 X-47.924 Y91.815
N9005 X-46.467 Y90.899
N9010 X-44.968 Y90.051
N9015 X-43.435 Y89.268
N9020 X-41.873 Y88.543
N9025 X-40.287 Y87.874
N9030 X-38.68 Y87.257
N9035 X-37.055 Y86.688
N9040 X-35.416 Y86.163
N9045 X-33.763 Y85.679
N9050 X-32.1 Y85.234
N9055 X-30.428 Y84.824
N9060 X-28.748 Y84.448
N9065 X-27.062 Y84.102
N9070 X-25.37 Y83.784
N9075 X-23.673 Y83.492
N9080 X-21.972 Y83.225
N9085 X-20.268 Y82.98
N9090 X-18.561 Y82.755
N9095 X-16.852 Y82.55
N9100 X-15.141 Y82.362
N9105 X-13.428 Y82.19
N9110 X-11.713 Y82.034
N9115 X-9.997 Y81.891
N9120 X-8.281 Y81.76
N9125 X-6.563 Y81.641
N9130 X-3.126 Y81.434
N9135 X-1.407 Y81.34
N9140 X0.308 Y81.189
N9145 X2.004 Y80.892
N9150 X3.66 Y80.422
N9155 X5.255 Y79.775
N9160 X6.774 Y78.964
N9165 X8.204 Y78.005
N9170 X9.539 Y76.918
N9175 X10.777 Y75.722
N9180 X11.917 Y74.432
N9185 X12.963 Y73.064
N9190 X13.918 Y71.632
N9195 X14.788 Y70.146
N9200 X15.577 Y68.616
N9205 X16.292 Y67.05
N9210 X16.938 Y65.454
N9215 X17.52 Y63.834
N9220 X18.045 Y62.194
N9225 X18.516 Y60.538
N9230 X18.94 Y58.87
N9235 X19.32 Y57.191
N9240 X19.661 Y55.503
N9245 X19.967 Y53.809
N9250 X20.24 Y52.109
N9255 X20.727 Y48.701
N9260 X20.992 Y46.999
N9265 X21.306 Y45.307
N9270 X21.466 Y44.613
N9275 X21.608 Y44.151
N9280 X21.816 Y43.715
N9285 X22.086 Y43.315
N9290 X22.412 Y42.957
N9295 X22.786 Y42.652
N9300 X23.201 Y42.404
N9305 X23.647 Y42.219
N9310 X24.116 Y42.102
N9315 X24.339 Y42.063
N9320 X25.088 Y41.905
N9325 X26.07 Y41.622
N9330 X27.335 Y41.227
N9335 X28.391 Y40.872
N9340 X28.832 Y40.691
N9345 X29.581 Y40.336
N9350 X31.079 Y39.529
N9355 G3 X32.02 Y39.273 I1.114 J2.238
N9360 G1 X32.214 Y39.26 Z-4.993
N9365 X32.407 Y39.247 Z-4.971
N9370 X32.598 Y39.233 Z-4.935
N9375 X32.785 Y39.22 Z-4.884
N9380 X32.968 Y39.208 Z-4.82
N9385 X33.146 Y39.196 Z-4.743
N9390 X33.317 Y39.184 Z-4.652
N9395 X33.481 Y39.172 Z-4.548
N9400 X33.638 Y39.162 Z-4.433
N9405 X33.785 Y39.151 Z-4.306
N9410 X33.922 Y39.142 Z-4.168
N9415 X34.048 Y39.133 Z-4.021
N9420 X34.163 Y39.125 Z-3.865
N9425 X34.267 Y39.118 Z-3.7
N9430 X34.357 Y39.112 Z-3.528
N9435 X34.435 Y39.106 Z-3.35
N9440 X34.499 Y39.102 Z-3.166
N9445 X34.549 Y39.099 Z-2.979
N9450 X34.585 Y39.096 Z-2.788
N9455 X34.607 Y39.095 Z-2.594
N9460 X34.614 Y39.094 Z-2.4
N9465 G0 Z6.
N9470 G1 X-55.895 Y109.294 F5000.
N9475 G0 Z0.2
N9480 G1 Z-2.4 F2328.
N9485 X-55.898 Y109.288 Z-2.594
N9490 X-55.909 Y109.269 Z-2.788
N9495 X-55.928 Y109.238 Z-2.979
N9500 X-55.954 Y109.195 Z-3.166
N9505 X-55.986 Y109.14 Z-3.35
N9510 X-56.026 Y109.073 Z-3.528
N9515 X-56.073 Y108.995 Z-3.7
N9520 X-56.125 Y108.906 Z-3.865
N9525 X-56.184 Y108.807 Z-4.021
N9530 X-56.249 Y108.698 Z-4.168
N9535 X-56.32 Y108.58 Z-4.306
N9540 X-56.395 Y108.453 Z-4.433
N9545 X-56.475 Y108.319 Z-4.548
N9550 X-56.559 Y108.177 Z-4.652
N9555 X-56.647 Y108.029 Z-4.743
N9560 X-56.738 Y107.876 Z-4.82
N9565 X-56.832 Y107.718 Z-4.884
N9570 X-56.928 Y107.557 Z-4.935
N9575 X-57.025 Y107.393 Z-4.971
N9580 X-57.124 Y107.227 Z-4.993
N9585 X-57.223 Y107.06 Z-5.
N9590 G3 X-57.5 Y106.118 I1.7 J-1.011
N9595 G1 Y97.118
N9600 X-57.467 Y96.468
N9605 X-57.356 Y95.619
N9610 X-57.157 Y94.688
N9615 X-56.846 Y93.651
N9620 X-56.419 Y92.554
N9625 X-55.844 Y91.369
N9630 X-55.094 Y90.094
N9635 X-54.142 Y88.74
N9640 X-53.042 Y87.415
N9645 X-51.848 Y86.175
N9650 X-50.574 Y85.018
N9655 X-49.233 Y83.937
N9660 X-47.836 Y82.931
N9665 X-46.392 Y81.993
N9670 X-44.908 Y81.121
N9675 X-43.389 Y80.31
N9680 X-41.841 Y79.556
N9685 X-40.269 Y78.856
N9690 X-38.674 Y78.206
N9695 X-37.062 Y77.603
N9700 X-35.434 Y77.044
N9705 X-33.792 Y76.525
N9710 X-32.139 Y76.045
N9715 X-30.476 Y75.599
N9720 X-28.804 Y75.187
N9725 X-27.125 Y74.806
N9730 X-25.44 Y74.453
N9735 X-23.75 Y74.127
N9740 X-22.055 Y73.826
N9745 X-20.356 Y73.549
N9750 X-18.653 Y73.292
N9755 X-16.948 Y73.056
N9760 X-15.24 Y72.839
N9765 X-13.53 Y72.638
N9770 X-11.819 Y72.449
N9775 X-10.111 Y72.229
N9780 X-8.423 Y71.894
N9785 X-6.772 Y71.405
N9790 X-5.178 Y70.756
N9795 X-3.656 Y69.951
N9800 X-2.217 Y69.005
N9805 X-0.87 Y67.933
N9810 X0.382 Y66.751
N9815 X1.54 Y65.477
N9820 X2.605 Y64.125
N9825 X3.58 Y62.706
N9830 X4.47 Y61.232
N9835 X5.279 Y59.712
N9840 X6.016 Y58.156
N9845 X6.69 Y56.572
N9850 X7.313 Y54.967
N9855 X7.895 Y53.347
N9860 X9.016 Y50.091
N9865 X9.603 Y48.473
N9870 X10.242 Y46.874
N9875 X10.954 Y45.307
N9880 X11.508 Y44.259
N9885 X11.743 Y43.878
N9890 X12.028 Y43.533
N9895 X12.356 Y43.23
N9900 X12.723 Y42.974
N9905 X13.12 Y42.769
N9910 X13.542 Y42.621
N9915 X13.98 Y42.53
N9920 X14.426 Y42.5
N9925 X19.846 Y42.499
N9930 X20.595 Y42.472
N9935 X21.343 Y42.428
N9940 X23.59 Y42.193
N9945 X24.116 Y42.102
N9950 G3 X25.09 Y42.159 I0.342 J2.476
N9955 G1 X25.278 Y42.208 Z-4.993
N9960 X25.465 Y42.257 Z-4.971
N9965 X25.65 Y42.305 Z-4.935
N9970 X25.831 Y42.353 Z-4.884
N9975 X26.009 Y42.399 Z-4.82
N9980 X26.181 Y42.444 Z-4.743
N9985 X26.348 Y42.487 Z-4.652
N9990 X26.507 Y42.529 Z-4.548
N9995 X26.658 Y42.568 Z-4.433
N10000 X26.801 Y42.606 Z-4.306
N10005 X26.934 Y42.64 Z-4.168
N10010 X27.057 Y42.672 Z-4.021
N10015 X27.168 Y42.702 Z-3.865
N10020 X27.268 Y42.728 Z-3.7
N10025 X27.356 Y42.751 Z-3.528
N10030 X27.432 Y42.77 Z-3.35
N10035 X27.494 Y42.787 Z-3.166
N10040 X27.542 Y42.799 Z-2.979
N10045 X27.577 Y42.808 Z-2.788
N10050 X27.598 Y42.814 Z-2.594
N10055 X27.605 Y42.816 Z-2.4
N10060 G0 Z6.
N10065 G1 X-55.895 Y100.295 F5000.
N10070 G0 Z0.2
N10075 G1 Z-2.4 F2328.
N10080 X-55.898 Y100.289 Z-2.594
N10085 X-55.909 Y100.27 Z-2.788
N10090 X-55.928 Y100.239 Z-2.979
N10095 X-55.954 Y100.196 Z-3.166
N10100 X-55.986 Y100.141 Z-3.35
N10105 X-56.026 Y100.074 Z-3.528
N10110 X-56.073 Y99.996 Z-3.7
N10115 X-56.125 Y99.907 Z-3.865
N10120 X-56.184 Y99.807 Z-4.021
N10125 X-56.249 Y99.698 Z-4.168
N10130 X-56.32 Y99.58 Z-4.306
N10135 X-56.395 Y99.454 Z-4.433
N10140 X-56.475 Y99.319 Z-4.548
N10145 X-56.559 Y99.178 Z-4.652
N10150 X-56.647 Y99.03 Z-4.743
N10155 X-56.738 Y98.877 Z-4.82
N10160 X-56.832 Y98.719 Z-4.884
N10165 X-56.928 Y98.558 Z-4.935
N10170 X-57.025 Y98.393 Z-4.971
N10175 X-57.124 Y98.227 Z-4.993
N10180 X-57.223 Y98.06 Z-5.
N10185 G3 X-57.5 Y97.118 I1.7 J-1.011
N10190 G1 Y96.368
N10195 X-57.441 Y95.618
N10200 X-57.357 Y94.868
N10205 X-56.22 Y86.619
N10210 X-55.961 Y85.251
N10215 X-55.703 Y84.312
N10220 X-55.323 Y83.267
N10225 X-54.804 Y82.13
N10230 X-54.129 Y80.92
N10235 X-53.259 Y79.62
N10240 X-52.191 Y78.27
N10245 X-51.02 Y77.008
N10250 X-49.765 Y75.829
N10255 X-48.441 Y74.729
N10260 X-47.058 Y73.704
N10265 X-45.626 Y72.748
N10270 X-44.152 Y71.858
N10275 X-42.643 Y71.029
N10280 X-41.104 Y70.257
N10285 X-39.54 Y69.538
N10290 X-37.954 Y68.869
N10295 X-36.349 Y68.246
N10300 X-34.727 Y67.667
N10305 X-33.092 Y67.128
N10310 X-31.445 Y66.627
N10315 X-29.788 Y66.161
N10320 X-28.122 Y65.728
N10325 X-26.448 Y65.326
N10330 X-24.767 Y64.952
N10335 X-23.081 Y64.605
N10340 X-21.392 Y64.27
N10345 X-19.712 Y63.894
N10350 X-18.059 Y63.415
N10355 X-16.449 Y62.805
N10360 X-14.898 Y62.056
N10365 X-13.421 Y61.173
N10370 X-12.024 Y60.167
N10375 X-10.711 Y59.053
N10380 X-9.482 Y57.847
N10385 X-8.332 Y56.565
N10390 X-7.253 Y55.224
N10395 X-6.234 Y53.837
N10400 X-5.264 Y52.415
N10405 X-4.329 Y50.969
N10410 X-3.42 Y49.507
N10415 X-1.616 Y46.574
N10420 X-0.679 Y45.13
N10425 X0.18 Y43.905
N10430 X0.464 Y43.554
N10435 X0.793 Y43.245
N10440 X1.162 Y42.983
N10445 X1.563 Y42.775
N10450 X1.988 Y42.623
N10455 X2.431 Y42.531
N10460 X2.881 Y42.5
N10465 X14.426
N10470 G3 X15.649 Y47.128 I-0.087 J2.498
N10475 G1 X-52.424 Y89.005
N10480 G3 X-56.22 Y86.619 I-1.31 J-2.129
N10485 G1 X-54.87 Y76.87
N10490 X-54.639 Y75.653
N10495 X-54.38 Y74.706
N10500 X-54.009 Y73.686
N10505 X-53.496 Y72.563
N10510 X-52.817 Y71.347
N10515 X-51.946 Y70.044
N10520 X-50.877 Y68.694
N10525 X-49.707 Y67.432
N10530 X-48.452 Y66.253
N10535 X-47.128 Y65.153
N10540 X-45.746 Y64.126
N10545 X-44.315 Y63.169
N10550 X-42.842 Y62.277
N10555 X-41.335 Y61.445
N10560 X-39.798 Y60.67
N10565 X-38.235 Y59.947
N10570 X-36.651 Y59.273
N10575 X-35.048 Y58.645
N10580 X-33.43 Y58.058
N10585 X-30.173 Y56.94
N10590 X-28.565 Y56.324
N10595 X-26.992 Y55.624
N10600 X-25.465 Y54.829
N10605 X-23.991 Y53.94
N10610 X-22.573 Y52.965
N10615 X-21.21 Y51.913
N10620 X-19.9 Y50.795
N10625 X-18.64 Y49.622
N10630 X-17.421 Y48.407
N10635 X-16.236 Y47.157
N10640 X-15.076 Y45.885
N10645 X-13.925 Y44.605
N10650 X-12.977 Y43.57
N10655 X-12.647 Y43.257
N10660 X-12.277 Y42.991
N10665 X-11.873 Y42.779
N10670 X-11.445 Y42.625
N10675 X-10.999 Y42.531
N10680 X-10.545 Y42.5
N10685 X2.881
N10690 G3 X4.052 Y47.159 I-0.087 J2.498
N10695 G1 X-51.126 Y79.286
N10700 G3 X-54.87 Y76.87 I-1.258 J-2.16
N10705 G1 X-53.546 Y67.303
N10710 X-53.311 Y66.064
N10715 X-53.05 Y65.115
N10720 X-52.679 Y64.094
N10725 X-52.166 Y62.969
N10730 X-51.486 Y61.751
N10735 X-50.612 Y60.444
N10740 X-49.543 Y59.094
N10745 X-48.373 Y57.831
N10750 X-47.119 Y56.651
N10755 X-45.796 Y55.55
N10760 X-44.415 Y54.521
N10765 X-42.987 Y53.56
N10770 X-41.524 Y52.652
N10775 X-38.558 Y50.904
N10780 X-37.085 Y50.013
N10785 X-35.631 Y49.09
N10790 X-34.203 Y48.129
N10795 X-32.803 Y47.127
N10800 X-31.432 Y46.086
N10805 X-30.088 Y45.01
N10810 X-28.767 Y43.906
N10815 X-28.052 Y43.294
N10820 X-27.676 Y43.016
N10825 X-27.266 Y42.794
N10830 X-26.828 Y42.632
N10835 X-26.371 Y42.533
N10840 X-25.905 Y42.5
N10845 X-11.608
N10850 G3 X-10.452 Y47.167 I-0.087 J2.498
N10855 G1 X-49.816 Y69.728
N10860 G3 X-53.546 Y67.303 I-1.243 J-2.169
N10865 G1 X-52.171 Y57.371
N10870 X-52. Y56.471
N10875 X-51.737 Y55.515
N10880 X-51.36 Y54.475
N10885 X-50.825 Y53.306
N10890 X-50.079 Y51.969
N10895 X-49.122 Y50.537
N10900 X-48.066 Y49.178
N10905 X-46.941 Y47.875
N10910 X-45.767 Y46.615
N10915 X-44.562 Y45.386
N10920 X-43.337 Y44.176
N10925 X-42.561 Y43.426
N10930 X-42.239 Y43.153
N10935 X-41.885 Y42.923
N10940 X-41.505 Y42.74
N10945 X-41.104 Y42.608
N10950 X-40.69 Y42.527
N10955 X-40.269 Y42.5
N10960 X-25.905
N10965 G3 X-24.816 Y47.205 I-0.087 J2.498
N10970 G1 X-48.508 Y59.833
N10975 G3 X-52.171 Y57.371 I-1.176 J-2.206
N10980 G1 X-50.717 Y46.872
N10985 X-50.465 Y45.547
N10990 X-50.207 Y44.606
N10995 X-50.006 Y44.162
N11000 X-49.739 Y43.753
N11005 X-49.414 Y43.389
N11010 X-49.037 Y43.079
N11015 X-48.617 Y42.83
N11020 X-48.164 Y42.648
N11025 X-47.688 Y42.537
N11030 X-47.201 Y42.5
N11035 G3 X-45.002 Y46.009 I-0.087 J2.498
N11040 G1 X-45.944 Y48.139
N11045 G3 X-50.717 Y46.872 I-2.287 J-1.011
N11050 G1 X-50.405 Y44.622
N11055 X-50.315 Y44.247
N11060 X-50.159 Y43.872
N11065 X-50.004 Y43.612
N11070 X-49.801 Y43.352
N11075 X-49.567 Y43.122
N11080 X-49.31 Y42.924
N11085 X-49.052 Y42.773
N11090 X-48.678 Y42.619
N11095 X-48.304 Y42.53
N11100 X-47.555 Y42.5
N11105 X-40.269
N11110 X-40.154 Y42.514 Z-4.993
N11115 X-40.041 Y42.528 Z-4.973
N11120 X-39.931 Y42.542 Z-4.939
N11125 X-39.826 Y42.555 Z-4.892
N11130 X-39.735 Y42.584 Z-4.837
N11135 X-39.652 Y42.61 Z-4.771
N11140 X-39.575 Y42.634 Z-4.696
N11145 X-39.507 Y42.655 Z-4.613
N11150 X-39.449 Y42.673 Z-4.522
N11155 X-39.4 Y42.688 Z-4.425
N11160 X-39.365 Y42.704 Z-4.327
N11165 X-39.34 Y42.715 Z-4.226
N11170 X-39.324 Y42.721 Z-4.123
N11175 X-39.319 Y42.724 Z-4.018
N11180 G0 Z6.
N11185 G1 X-112.816 Y131.84 F5000.
N11190 G0 Z-4.8
N11195 G1 Z-7.4 F2328.
N11200 X-112.809 Y131.842 Z-7.594
N11205 X-112.788 Y131.849 Z-7.788
N11210 X-112.754 Y131.859 Z-7.979
N11215 X-112.705 Y131.874 Z-8.166
N11220 X-112.644 Y131.893 Z-8.35
N11225 X-112.57 Y131.916 Z-8.528
N11230 X-112.483 Y131.942 Z-8.7
N11235 X-112.384 Y131.973 Z-8.865
N11240 X-112.274 Y132.007 Z-9.021
N11245 X-112.152 Y132.044 Z-9.168
N11250 X-112.021 Y132.084 Z-9.306
N11255 X-111.88 Y132.128 Z-9.433
N11260 X-111.731 Y132.173 Z-9.548
N11265 X-111.573 Y132.222 Z-9.652
N11270 X-111.409 Y132.272 Z-9.743
N11275 X-111.239 Y132.325 Z-9.82
N11280 X-111.063 Y132.379 Z-9.884
N11285 X-110.884 Y132.434 Z-9.935
N11290 X-110.701 Y132.49 Z-9.971
N11295 X-110.516 Y132.547 Z-9.993
N11300 X-110.331 Y132.604 Z-10.
N11305 G3 X-109.493 Y133.116 I-0.581 J1.891
N11310 G1 X-108.964 Y133.7
N11315 X-108.215 Y134.42
N11320 X-107.984 Y134.616
N11325 X-107.466 Y135.012
N11330 X-106.971 Y135.366
N11335 X-106.717 Y135.529
N11340 X-105.968 Y135.974
N11345 X-105.219 Y136.344
N11350 X-104.993 Y136.439
N11355 X-104.631 Y136.613
N11360 X-103.981 Y136.991
N11365 X-102.567 Y137.974
N11370 X-101.23 Y139.059
N11375 X-99.858 Y140.099
N11380 X-98.444 Y141.081
N11385 X-96.988 Y141.999
N11390 X-95.491 Y142.85
N11395 X-93.958 Y143.633
N11400 X-92.393 Y144.35
N11405 X-90.8 Y145.003
N11410 X-89.183 Y145.596
N11415 X-87.548 Y146.132
N11420 X-85.895 Y146.616
N11425 X-84.229 Y147.051
N11430 X-82.553 Y147.441
N11435 X-80.867 Y147.79
N11440 X-79.174 Y148.102
N11445 X-77.475 Y148.38
N11450 X-75.771 Y148.627
N11455 X-74.063 Y148.848
N11460 X-72.353 Y149.043
N11465 X-70.64 Y149.216
N11470 X-68.925 Y149.37
N11475 X-67.209 Y149.505
N11480 X-65.492 Y149.625
N11485 X-63.773 Y149.731
N11490 X-62.054 Y149.825
N11495 X-58.614 Y149.98
N11500 X-56.894 Y150.044
N11505 X-53.452 Y150.15
N11510 X-50.01 Y150.231
N11515 X-44.846 Y150.32
N11520 X-37.96 Y150.395
N11525 X-29.352 Y150.447
N11530 X-15.579 Y150.482
N11535 X-5.25 Y150.492
N11540 X46.399 Y150.5
N11545 X73.945
N11550 X75.662 Y150.382
N11555 X77.33 Y149.954
N11560 X78.906 Y149.261
N11565 X80.369 Y148.353
N11570 X81.71 Y147.274
N11575 X82.928 Y146.057
N11580 X84.027 Y144.732
N11585 X85.015 Y143.322
N11590 X85.898 Y141.844
N11595 X86.685 Y140.313
N11600 X87.385 Y138.74
N11605 X88.005 Y137.134
N11610 X88.554 Y135.503
N11615 X89.039 Y133.851
N11620 X89.467 Y132.183
N11625 X89.844 Y130.503
N11630 X90.175 Y128.814
N11635 X90.466 Y127.117
N11640 X90.722 Y125.414
N11645 X90.946 Y123.707
N11650 X91.143 Y121.997
N11655 X91.315 Y120.284
N11660 X91.466 Y118.569
N11665 X91.598 Y116.853
N11670 X91.713 Y115.135
N11675 X91.814 Y113.416
N11680 X91.902 Y111.697
N11685 X92.046 Y108.257
N11690 X92.156 Y104.815
N11695 X92.239 Y101.373
N11700 X92.328 Y96.209
N11705 X92.387 Y91.044
N11710 X92.444 Y82.436
N11715 X92.479 Y70.385
N11720 X92.498 Y42.839
N11725 X92.499 Y30.788
N11730 X92.5 Y-20.86
N11735 Y-72.509
N11740 Y-124.157
N11745 Y-132.765
N11750 X92.23 Y-134.465
N11755 X91.67 Y-136.093
N11760 X90.869 Y-137.617
N11765 X89.874 Y-139.022
N11770 X88.725 Y-140.305
N11775 X87.454 Y-141.466
N11780 X86.086 Y-142.511
N11785 X84.642 Y-143.448
N11790 X83.137 Y-144.284
N11795 X81.585 Y-145.029
N11800 X79.995 Y-145.689
N11805 X78.376 Y-146.275
N11810 X76.734 Y-146.792
N11815 X75.074 Y-147.249
N11820 X73.4 Y-147.652
N11825 X71.715 Y-148.007
N11830 X70.022 Y-148.318
N11835 X68.323 Y-148.592
N11840 X66.618 Y-148.833
N11845 X64.909 Y-149.043
N11850 X63.197 Y-149.228
N11855 X61.483 Y-149.39
N11860 X59.768 Y-149.531
N11865 X58.051 Y-149.655
N11870 X56.332 Y-149.763
N11875 X54.613 Y-149.857
N11880 X52.894 Y-149.94
N11885 X49.453 Y-150.075
N11890 X46.011 Y-150.178
N11895 X42.569 Y-150.256
N11900 X37.405 Y-150.339
N11905 X30.519 Y-150.408
N11910 X21.911 Y-150.454
N11915 X8.138 Y-150.485
N11920 X4.695 Y-150.489
N11925 X-46.954 Y-150.5
N11930 X-74.499
N11935 X-76.207 Y-150.281
N11940 X-77.849 Y-149.764
N11945 X-79.391 Y-148.997
N11950 X-80.815 Y-148.03
N11955 X-82.116 Y-146.903
N11960 X-83.304 Y-145.657
N11965 X-84.409 Y-144.336
N11970 X-85.458 Y-142.971
N11975 X-87.498 Y-140.197
N11980 X-88.613 Y-138.73
N11985 X-88.948 Y-138.372
N11990 X-89.333 Y-138.067
N11995 X-89.758 Y-137.823
N12000 X-90.215 Y-137.645
N12005 X-90.694 Y-137.536
N12010 X-91.183 Y-137.5
N12015 X-99.228
N12020 X-99.977 Y-137.492
N12025 X-100.092 Y-137.505 Z-9.993
N12030 X-100.205 Y-137.518 Z-9.973
N12035 X-100.315 Y-137.53 Z-9.939
N12040 X-100.42 Y-137.542 Z-9.892
N12045 X-100.511 Y-137.57 Z-9.837
N12050 X-100.595 Y-137.595 Z-9.771
N12055 X-100.672 Y-137.618 Z-9.696
N12060 X-100.74 Y-137.639 Z-9.613
N12065 X-100.799 Y-137.656 Z-9.522
N12070 X-100.848 Y-137.671 Z-9.425
N12075 X-100.883 Y-137.686 Z-9.327
N12080 X-100.908 Y-137.697 Z-9.226
N12085 X-100.924 Y-137.703 Z-9.123
N12090 X-100.929 Y-137.705 Z-9.018
N12095 G0 Z6.
N12100 G1 X-108.543 Y136.691 F5000.
N12105 G0 Z-4.8
N12110 G1 Z-7.4 F2328.
N12115 X-108.536 Y136.69 Z-7.594
N12120 X-108.514 Y136.687 Z-7.788
N12125 X-108.479 Y136.682 Z-7.979
N12130 X-108.429 Y136.675 Z-8.166
N12135 X-108.365 Y136.666 Z-8.35
N12140 X-108.288 Y136.655 Z-8.528
N12145 X-108.198 Y136.643 Z-8.7
N12150 X-108.096 Y136.628 Z-8.865
N12155 X-107.981 Y136.612 Z-9.021
N12160 X-107.856 Y136.595 Z-9.168
N12165 X-107.72 Y136.576 Z-9.306
N12170 X-107.574 Y136.555 Z-9.433
N12175 X-107.419 Y136.533 Z-9.548
N12180 X-107.256 Y136.511 Z-9.652
N12185 X-107.086 Y136.487 Z-9.743
N12190 X-106.909 Y136.462 Z-9.82
N12195 X-106.727 Y136.436 Z-9.884
N12200 X-106.541 Y136.41 Z-9.935
N12205 X-106.352 Y136.384 Z-9.971
N12210 X-106.161 Y136.357 Z-9.993
N12215 X-105.968 Y136.33 Z-10.
N12220 G3 X-104.993 Y136.439 I0.275 J1.959
N12225 G1 X-104.47 Y136.658
N12230 X-103.928 Y136.866
N12235 X-102.973 Y137.132
N12240 X-102.224 Y137.286
N12245 X-101.475 Y137.402
N12250 X-100.726 Y137.474
N12255 X-99.977 Y137.492
N12260 X-98.479 Y137.5
N12265 X-92.488
N12270 X-90.769 Y137.586
N12275 X-89.048 Y137.648
N12280 X-87.329 Y137.745
N12285 X-85.612 Y137.867
N12290 X-82.181 Y138.152
N12295 X-75.32 Y138.753
N12300 X-71.888 Y139.027
N12305 X-68.454 Y139.272
N12310 X-65.017 Y139.485
N12315 X-61.579 Y139.668
N12320 X-58.139 Y139.822
N12325 X-54.698 Y139.951
N12330 X-51.257 Y140.058
N12335 X-46.093 Y140.183
N12340 X-40.929 Y140.275
N12345 X-34.043 Y140.358
N12350 X-25.435 Y140.422
N12355 X-13.384 Y140.467
N12360 X7.275 Y140.493
N12365 X10.718 Y140.494
N12370 X62.367 Y140.5
N12375 X64.08 Y140.332
N12380 X65.752 Y139.92
N12385 X67.35 Y139.279
N12390 X68.852 Y138.438
N12395 X70.247 Y137.43
N12400 X71.531 Y136.283
N12405 X72.704 Y135.022
N12410 X73.769 Y133.669
N12415 X74.732 Y132.242
N12420 X75.599 Y130.755
N12425 X76.377 Y129.219
N12430 X77.074 Y127.645
N12435 X77.697 Y126.04
N12440 X78.252 Y124.41
N12445 X78.746 Y122.761
N12450 X79.185 Y121.096
N12455 X79.575 Y119.42
N12460 X79.92 Y117.733
N12465 X80.227 Y116.039
N12470 X80.497 Y114.339
N12475 X80.737 Y112.634
N12480 X80.948 Y110.925
N12485 X81.135 Y109.214
N12490 X81.3 Y107.5
N12495 X81.445 Y105.785
N12500 X81.573 Y104.068
N12505 X81.686 Y102.35
N12510 X81.785 Y100.631
N12515 X81.872 Y98.912
N12520 X81.949 Y97.192
N12525 X82.076 Y93.751
N12530 X82.174 Y90.309
N12535 X82.28 Y85.145
N12540 X82.352 Y79.981
N12545 X82.413 Y73.095
N12550 X82.461 Y62.765
N12555 X82.49 Y45.549
N12560 X82.5 Y-6.099
N12565 Y-57.748
N12570 Y-109.396
N12575 Y-119.726
N12580 X82.422 Y-121.446
N12585 X82.102 Y-123.137
N12590 X81.543 Y-124.766
N12595 X80.773 Y-126.305
N12600 X79.824 Y-127.742
N12605 X78.726 Y-129.068
N12610 X77.505 Y-130.281
N12615 X76.184 Y-131.386
N12620 X74.783 Y-132.386
N12625 X73.317 Y-133.288
N12630 X71.798 Y-134.099
N12635 X70.237 Y-134.825
N12640 X68.642 Y-135.474
N12645 X67.021 Y-136.054
N12650 X65.379 Y-136.57
N12655 X63.719 Y-137.029
N12660 X62.047 Y-137.436
N12665 X60.364 Y-137.798
N12670 X58.672 Y-138.118
N12675 X56.974 Y-138.401
N12680 X55.271 Y-138.652
N12685 X53.563 Y-138.873
N12690 X51.853 Y-139.069
N12695 X50.14 Y-139.241
N12700 X48.425 Y-139.394
N12705 X46.709 Y-139.528
N12710 X44.991 Y-139.646
N12715 X43.273 Y-139.75
N12720 X41.553 Y-139.841
N12725 X38.113 Y-139.993
N12730 X34.672 Y-140.11
N12735 X31.23 Y-140.2
N12740 X26.066 Y-140.298
N12745 X20.902 Y-140.364
N12750 X14.016 Y-140.42
N12755 X3.686 Y-140.464
N12760 X-1.479 Y-140.476
N12765 X-27.303 Y-140.497
N12770 X-53.127 Y-140.5
N12775 X-61.735
N12780 X-63.455 Y-140.422
N12785 X-65.153 Y-140.135
N12790 X-66.809 Y-139.666
N12795 X-68.415 Y-139.045
N12800 X-69.969 Y-138.304
N12805 X-70.68 Y-137.911
N12810 X-71.056 Y-137.734
N12815 X-71.451 Y-137.604
N12820 X-71.86 Y-137.526
N12825 X-72.275 Y-137.5
N12830 X-91.183
N12835 X-91.297 Y-137.514 Z-9.993
N12840 X-91.41 Y-137.528 Z-9.973
N12845 X-91.52 Y-137.542 Z-9.939
N12850 X-91.625 Y-137.555 Z-9.892
N12855 X-91.716 Y-137.584 Z-9.837
N12860 X-91.8 Y-137.61 Z-9.771
N12865 X-91.876 Y-137.634 Z-9.696
N12870 X-91.944 Y-137.655 Z-9.613
N12875 X-92.003 Y-137.673 Z-9.522
N12880 X-92.051 Y-137.688 Z-9.425
N12885 X-92.086 Y-137.704 Z-9.327
N12890 X-92.112 Y-137.715 Z-9.226
N12895 X-92.127 Y-137.721 Z-9.123
N12900 X-92.132 Y-137.724 Z-9.018
N12905 G0 Z6.
N12910 G1 X-95.665 Y139.105 F5000.
N12915 G0 Z-4.8
N12920 G1 Z-7.4 F2328.
N12925 X-95.659 Y139.102 Z-7.594
N12930 X-95.64 Y139.091 Z-7.788
N12935 X-95.609 Y139.072 Z-7.979
N12940 X-95.566 Y139.046 Z-8.166
N12945 X-95.51 Y139.014 Z-8.35
N12950 X-95.444 Y138.974 Z-8.528
N12955 X-95.366 Y138.927 Z-8.7
N12960 X-95.277 Y138.875 Z-8.865
N12965 X-95.177 Y138.816 Z-9.021
N12970 X-95.068 Y138.751 Z-9.168
N12975 X-94.95 Y138.68 Z-9.306
N12980 X-94.823 Y138.605 Z-9.433
N12985 X-94.689 Y138.525 Z-9.548
N12990 X-94.548 Y138.441 Z-9.652
N12995 X-94.4 Y138.353 Z-9.743
N13000 X-94.247 Y138.262 Z-9.82
N13005 X-94.089 Y138.168 Z-9.884
N13010 X-93.927 Y138.072 Z-9.935
N13015 X-93.763 Y137.975 Z-9.971
N13020 X-93.597 Y137.876 Z-9.993
N13025 X-93.43 Y137.777 Z-10.
N13030 G3 X-92.488 Y137.5 I1.011 J1.7
N13035 G1 X-70.021 Y137.496
N13040 X-69.272 Y137.466
N13045 X-68.524 Y137.408
N13050 X-67.775 Y137.288
N13055 X-67.026 Y137.126
N13060 X-66.277 Y136.931
N13065 X-66.071 Y136.866
N13070 X-65.528 Y136.666
N13075 X-64.779 Y136.339
N13080 X-64.296 Y136.116
N13085 X-64.03 Y135.977
N13090 X-63.281 Y135.537
N13095 X-62.543 Y135.103
N13100 X-60.994 Y134.352
N13105 X-59.39 Y133.727
N13110 X-57.75 Y133.204
N13115 X-56.085 Y132.766
N13120 X-54.403 Y132.398
N13125 X-52.709 Y132.09
N13130 X-51.007 Y131.83
N13135 X-49.299 Y131.612
N13140 X-47.588 Y131.429
N13145 X-45.873 Y131.274
N13150 X-44.156 Y131.145
N13155 X-42.438 Y131.036
N13160 X-40.719 Y130.945
N13165 X-38.999 Y130.868
N13170 X-37.278 Y130.804
N13175 X-33.837 Y130.706
N13180 X-30.394 Y130.637
N13185 X-25.23 Y130.572
N13190 X-18.343 Y130.527
N13195 X-13.179 Y130.511
N13200 X5.759 Y130.497
N13205 X38.47 Y130.499
N13210 X50.521 Y130.5
N13215 X52.241 Y130.423
N13220 X53.939 Y130.139
N13225 X55.586 Y129.636
N13230 X57.156 Y128.93
N13235 X58.632 Y128.045
N13240 X60.006 Y127.007
N13245 X61.274 Y125.842
N13250 X62.435 Y124.571
N13255 X63.494 Y123.214
N13260 X64.454 Y121.785
N13265 X65.323 Y120.298
N13270 X66.106 Y118.765
N13275 X66.809 Y117.194
N13280 X67.441 Y115.592
N13285 X68.007 Y113.966
N13290 X68.512 Y112.32
N13295 X68.963 Y110.659
N13300 X69.365 Y108.985
N13305 X69.723 Y107.301
N13310 X70.042 Y105.609
N13315 X70.325 Y103.911
N13320 X70.576 Y102.208
N13325 X70.799 Y100.501
N13330 X70.997 Y98.79
N13335 X71.172 Y97.078
N13340 X71.327 Y95.363
N13345 X71.465 Y93.647
N13350 X71.586 Y91.93
N13355 X71.694 Y90.211
N13360 X71.789 Y88.493
N13365 X71.947 Y85.053
N13370 X72.071 Y81.612
N13375 X72.167 Y78.17
N13380 X72.273 Y73.006
N13385 X72.345 Y67.842
N13390 X72.407 Y60.956
N13395 X72.457 Y50.626
N13400 X72.463 Y48.905
N13405 X72.491 Y29.967
N13410 X72.499 Y-2.744
N13415 X72.5 Y-54.392
N13420 Y-106.041
N13425 X72.493 Y-109.484
N13430 X72.304 Y-111.195
N13435 X71.896 Y-112.868
N13440 X71.277 Y-114.474
N13445 X70.467 Y-115.993
N13450 X69.494 Y-117.413
N13455 X68.382 Y-118.727
N13460 X67.155 Y-119.936
N13465 X65.834 Y-121.039
N13470 X64.434 Y-122.042
N13475 X62.972 Y-122.95
N13480 X61.458 Y-123.77
N13485 X59.902 Y-124.508
N13490 X58.313 Y-125.171
N13495 X56.697 Y-125.764
N13500 X55.06 Y-126.296
N13505 X53.405 Y-126.77
N13510 X51.736 Y-127.193
N13515 X50.056 Y-127.57
N13520 X48.368 Y-127.906
N13525 X46.672 Y-128.204
N13530 X44.971 Y-128.469
N13535 X43.266 Y-128.704
N13540 X41.557 Y-128.913
N13545 X39.845 Y-129.097
N13550 X38.131 Y-129.261
N13555 X36.416 Y-129.406
N13560 X34.699 Y-129.535
N13565 X32.981 Y-129.648
N13570 X31.262 Y-129.749
N13575 X29.543 Y-129.837
N13580 X26.103 Y-129.985
N13585 X22.662 Y-130.1
N13590 X19.22 Y-130.19
N13595 X14.056 Y-130.288
N13600 X13.192 Y-130.301
N13605 X12.739 Y-130.339
N13610 X12.295 Y-130.439
N13615 X11.868 Y-130.6
N13620 X11.469 Y-130.817
N13625 X11.102 Y-131.087
N13630 X10.777 Y-131.406
N13635 X10.498 Y-131.765
N13640 X10.095 Y-132.366
N13645 X9.361 Y-133.265
N13650 X8.787 Y-133.866
N13655 X7.985 Y-134.616
N13660 X6.98 Y-135.366
N13665 X6.366 Y-135.755
N13670 X5.617 Y-136.15
N13675 X4.868 Y-136.511
N13680 X3.931 Y-136.866
N13685 X3.37 Y-137.022
N13690 X2.621 Y-137.216
N13695 X1.872 Y-137.348
N13700 X1.123 Y-137.435
N13705 X0.374 Y-137.489
N13710 X-1.872 Y-137.5
N13715 X-72.275
N13720 X-72.39 Y-137.514 Z-9.993
N13725 X-72.503 Y-137.528 Z-9.973
N13730 X-72.613 Y-137.542 Z-9.939
N13735 X-72.718 Y-137.555 Z-9.892
N13740 X-72.808 Y-137.584 Z-9.837
N13745 X-72.892 Y-137.61 Z-9.771
N13750 X-72.969 Y-137.634 Z-9.696
N13755 X-73.037 Y-137.655 Z-9.613
N13760 X-73.095 Y-137.673 Z-9.522
N13765 X-73.144 Y-137.688 Z-9.425
N13770 X-73.179 Y-137.704 Z-9.327
N13775 X-73.204 Y-137.715 Z-9.226
N13780 X-73.22 Y-137.721 Z-9.123
N13785 X-73.225 Y-137.724 Z-9.018
N13790 G0 Z6.
N13795 G1 X-64.996 Y138.656 F5000.
N13800 G0 Z-4.8
N13805 G1 Z-7.4 F2328.
N13810 X-64.993 Y138.649 Z-7.594
N13815 X-64.983 Y138.63 Z-7.788
N13820 X-64.968 Y138.597 Z-7.979
N13825 X-64.947 Y138.551 Z-8.166
N13830 X-64.92 Y138.493 Z-8.35
N13835 X-64.887 Y138.422 Z-8.528
N13840 X-64.849 Y138.34 Z-8.7
N13845 X-64.806 Y138.246 Z-8.865
N13850 X-64.757 Y138.141 Z-9.021
N13855 X-64.704 Y138.026 Z-9.168
N13860 X-64.646 Y137.902 Z-9.306
N13865 X-64.584 Y137.768 Z-9.433
N13870 X-64.518 Y137.626 Z-9.548
N13875 X-64.449 Y137.477 Z-9.652
N13880 X-64.377 Y137.321 Z-9.743
N13885 X-64.302 Y137.159 Z-9.82
N13890 X-64.225 Y136.992 Z-9.884
N13895 X-64.146 Y136.822 Z-9.935
N13900 X-64.065 Y136.649 Z-9.971
N13905 X-63.984 Y136.473 Z-9.993
N13910 X-63.902 Y136.297 Z-10.
N13915 G3 X-63.281 Y135.537 I1.795 J0.832
N13920 G1 X-63.032 Y135.366
N13925 X-62.017 Y134.616
N13930 X-61.784 Y134.412
N13935 X-61.035 Y133.706
N13940 X-60.497 Y133.116
N13945 X-60.286 Y132.858
N13950 X-59.903 Y132.366
N13955 X-59.407 Y131.616
N13960 X-59.169 Y131.203
N13965 X-58.91 Y130.802
N13970 X-58.396 Y130.132
N13975 X-57.736 Y129.4
N13980 X-56.906 Y128.615
N13985 X-55.866 Y127.781
N13990 X-54.564 Y126.898
N13995 X-53.066 Y126.049
N14000 X-51.51 Y125.313
N14005 X-49.911 Y124.674
N14010 X-48.281 Y124.12
N14015 X-46.628 Y123.638
N14020 X-44.958 Y123.221
N14025 X-43.275 Y122.858
N14030 X-41.582 Y122.543
N14035 X-39.883 Y122.269
N14040 X-38.177 Y122.032
N14045 X-36.468 Y121.825
N14050 X-34.756 Y121.646
N14055 X-33.041 Y121.491
N14060 X-31.325 Y121.356
N14065 X-29.607 Y121.24
N14070 X-27.889 Y121.138
N14075 X-26.169 Y121.051
N14080 X-24.449 Y120.975
N14085 X-21.008 Y120.852
N14090 X-17.566 Y120.761
N14095 X-12.402 Y120.665
N14100 X-10.681 Y120.642
N14105 X-3.795 Y120.576
N14110 X4.813 Y120.534
N14115 X20.308 Y120.507
N14120 X39.245 Y120.501
N14125 X40.967 Y120.47
N14130 X42.676 Y120.267
N14135 X44.349 Y119.859
N14140 X45.958 Y119.248
N14145 X47.486 Y118.453
N14150 X48.917 Y117.496
N14155 X50.247 Y116.403
N14160 X51.473 Y115.195
N14165 X52.597 Y113.89
N14170 X53.621 Y112.507
N14175 X54.552 Y111.058
N14180 X55.395 Y109.557
N14185 X56.156 Y108.013
N14190 X56.842 Y106.434
N14195 X57.457 Y104.826
N14200 X58.01 Y103.195
N14205 X58.505 Y101.547
N14210 X58.948 Y99.883
N14215 X59.343 Y98.207
N14220 X59.696 Y96.522
N14225 X60.011 Y94.83
N14230 X60.291 Y93.131
N14235 X60.541 Y91.428
N14240 X60.763 Y89.72
N14245 X60.961 Y88.01
N14250 X61.136 Y86.297
N14255 X61.292 Y84.583
N14260 X61.43 Y82.867
N14265 X61.553 Y81.15
N14270 X61.662 Y79.431
N14275 X61.758 Y77.713
N14280 X61.92 Y74.273
N14285 X62.047 Y70.832
N14290 X62.146 Y67.39
N14295 X62.256 Y62.227
N14300 X62.332 Y57.063
N14305 X62.398 Y50.176
N14310 X62.452 Y39.847
N14315 X62.483 Y26.074
N14320 X62.499 Y-10.08
N14325 X62.5 Y-25.574
N14330 Y-77.223
N14335 Y-97.882
N14340 X62.415 Y-99.602
N14345 X62.138 Y-101.301
N14350 X61.654 Y-102.953
N14355 X60.973 Y-104.534
N14360 X60.116 Y-106.027
N14365 X59.107 Y-107.422
N14370 X57.968 Y-108.714
N14375 X56.722 Y-109.902
N14380 X55.387 Y-110.988
N14385 X53.978 Y-111.978
N14390 X52.509 Y-112.875
N14395 X50.991 Y-113.687
N14400 X49.433 Y-114.419
N14405 X47.842 Y-115.078
N14410 X46.225 Y-115.67
N14415 X44.588 Y-116.201
N14420 X42.933 Y-116.676
N14425 X41.264 Y-117.1
N14430 X39.585 Y-117.48
N14435 X37.897 Y-117.818
N14440 X36.202 Y-118.119
N14445 X34.501 Y-118.388
N14450 X32.797 Y-118.627
N14455 X31.088 Y-118.84
N14460 X29.377 Y-119.029
N14465 X27.663 Y-119.197
N14470 X25.948 Y-119.346
N14475 X22.515 Y-119.603
N14480 X20.799 Y-119.745
N14485 X19.087 Y-119.93
N14490 X17.385 Y-120.183
N14495 X15.698 Y-120.529
N14500 X14.921 Y-120.743
N14505 X14.472 Y-120.903
N14510 X14.051 Y-121.126
N14515 X13.666 Y-121.407
N14520 X13.325 Y-121.741
N14525 X13.037 Y-122.12
N14530 X12.806 Y-122.537
N14535 X12.637 Y-122.983
N14540 X12.534 Y-123.449
N14545 X12.5 Y-123.924
N14550 Y-124.866
N14555 X12.514 Y-124.981 Z-9.993
N14560 X12.528 Y-125.094 Z-9.973
N14565 X12.542 Y-125.204 Z-9.939
N14570 X12.555 Y-125.309 Z-9.892
N14575 X12.583 Y-125.399 Z-9.837
N14580 X12.61 Y-125.483 Z-9.771
N14585 X12.634 Y-125.56 Z-9.696
N14590 X12.655 Y-125.628 Z-9.613
N14595 X12.673 Y-125.686 Z-9.522
N14600 X12.688 Y-125.735 Z-9.425
N14605 X12.704 Y-125.77 Z-9.327
N14610 X12.715 Y-125.795 Z-9.226
N14615 X12.721 Y-125.811 Z-9.123
N14620 X12.723 Y-125.816 Z-9.018
N14625 G0 Z6.
N14630 G1 X-59.365 Y134.757 F5000.
N14635 G0 Z-4.8
N14640 G1 Z-7.4 F2328.
N14645 Y134.75 Z-7.594
N14650 Y134.728 Z-7.788
N14655 X-59.366 Y134.692 Z-7.979
N14660 Y134.642 Z-8.166
N14665 X-59.367 Y134.578 Z-8.35
N14670 X-59.368 Y134.5 Z-8.528
N14675 X-59.37 Y134.409 Z-8.7
N14680 X-59.371 Y134.306 Z-8.865
N14685 X-59.372 Y134.19 Z-9.021
N14690 X-59.374 Y134.063 Z-9.168
N14695 X-59.376 Y133.926 Z-9.306
N14700 X-59.378 Y133.779 Z-9.433
N14705 X-59.38 Y133.622 Z-9.548
N14710 X-59.382 Y133.458 Z-9.652
N14715 X-59.385 Y133.286 Z-9.743
N14720 X-59.387 Y133.107 Z-9.82
N14725 X-59.389 Y132.924 Z-9.884
N14730 X-59.392 Y132.736 Z-9.935
N14735 X-59.394 Y132.545 Z-9.971
N14740 X-59.397 Y132.352 Z-9.993
N14745 X-59.4 Y132.158 Z-10.
N14750 G3 X-59.169 Y131.203 I1.978 J-0.026
N14755 G1 X-58.788 Y130.525
N14760 X-58.608 Y130.116
N14765 X-58.295 Y129.366
N14770 X-58.039 Y128.581
N14775 X-57.841 Y127.866
N14780 X-57.682 Y127.116
N14785 X-57.653 Y126.889
N14790 X-57.589 Y126.526
N14795 X-57.437 Y125.942
N14800 X-57.207 Y125.281
N14805 X-56.895 Y124.574
N14810 X-56.468 Y123.784
N14815 X-55.928 Y122.954
N14820 X-55.241 Y122.062
N14825 X-54.377 Y121.11
N14830 X-53.31 Y120.109
N14835 X-52. Y119.065
N14840 X-50.573 Y118.103
N14845 X-49.08 Y117.245
N14850 X-47.537 Y116.48
N14855 X-45.956 Y115.8
N14860 X-44.345 Y115.194
N14865 X-42.709 Y114.655
N14870 X-41.056 Y114.177
N14875 X-39.387 Y113.752
N14880 X-37.708 Y113.374
N14885 X-36.019 Y113.039
N14890 X-34.323 Y112.742
N14895 X-32.622 Y112.479
N14900 X-30.916 Y112.245
N14905 X-29.207 Y112.039
N14910 X-27.495 Y111.856
N14915 X-25.781 Y111.694
N14920 X-24.065 Y111.551
N14925 X-22.348 Y111.425
N14930 X-20.63 Y111.313
N14935 X-18.912 Y111.215
N14940 X-17.192 Y111.128
N14945 X-13.752 Y110.984
N14950 X-12.031 Y110.924
N14955 X-8.59 Y110.826
N14960 X-3.426 Y110.718
N14965 X1.739 Y110.646
N14970 X8.625 Y110.584
N14975 X18.954 Y110.537
N14980 X29.284 Y110.514
N14985 X31.004 Y110.438
N14990 X32.707 Y110.185
N14995 X34.368 Y109.733
N15000 X35.964 Y109.087
N15005 X37.476 Y108.264
N15010 X38.893 Y107.287
N15015 X40.21 Y106.178
N15020 X41.425 Y104.958
N15025 X42.54 Y103.646
N15030 X43.557 Y102.257
N15035 X44.482 Y100.805
N15040 X45.321 Y99.302
N15045 X46.079 Y97.756
N15050 X46.763 Y96.176
N15055 X47.379 Y94.568
N15060 X47.932 Y92.938
N15065 X48.428 Y91.289
N15070 X48.873 Y89.626
N15075 X49.271 Y87.951
N15080 X49.626 Y86.267
N15085 X49.944 Y84.575
N15090 X50.228 Y82.877
N15095 X50.481 Y81.174
N15100 X50.706 Y79.467
N15105 X50.907 Y77.757
N15110 X51.086 Y76.045
N15115 X51.245 Y74.33
N15120 X51.386 Y72.615
N15125 X51.512 Y70.898
N15130 X51.624 Y69.18
N15135 X51.723 Y67.461
N15140 X51.889 Y64.022
N15145 X52.021 Y60.581
N15150 X52.075 Y58.86
N15155 X52.167 Y55.418
N15160 X52.269 Y50.254
N15165 X52.34 Y45.09
N15170 X52.402 Y38.204
N15175 X52.453 Y27.874
N15180 X52.487 Y10.658
N15185 X52.49 Y7.215
N15190 X52.5 Y-44.433
N15195 X52.497 Y-87.474
N15200 X52.407 Y-89.193
N15205 X52.133 Y-90.893
N15210 X51.66 Y-92.548
N15215 X50.994 Y-94.135
N15220 X50.153 Y-95.638
N15225 X49.161 Y-97.045
N15230 X48.039 Y-98.351
N15235 X46.808 Y-99.554
N15240 X45.487 Y-100.658
N15245 X44.091 Y-101.666
N15250 X42.633 Y-102.581
N15255 X41.124 Y-103.411
N15260 X39.575 Y-104.16
N15265 X37.991 Y-104.836
N15270 X36.381 Y-105.445
N15275 X34.748 Y-105.991
N15280 X33.098 Y-106.482
N15285 X31.434 Y-106.925
N15290 X29.761 Y-107.329
N15295 X28.081 Y-107.705
N15300 X23.028 Y-108.777
N15305 X21.349 Y-109.156
N15310 X19.68 Y-109.578
N15315 X18.029 Y-110.066
N15320 X16.407 Y-110.643
N15325 X14.83 Y-111.327
N15330 X14.248 Y-111.637
N15335 X13.87 Y-111.873
N15340 X13.527 Y-112.158
N15345 X13.225 Y-112.486
N15350 X12.971 Y-112.851
N15355 X12.768 Y-113.248
N15360 X12.62 Y-113.669
N15365 X12.53 Y-114.105
N15370 X12.5 Y-114.55
N15375 Y-123.924
N15380 X12.514 Y-124.039 Z-9.993
N15385 X12.528 Y-124.152 Z-9.973
N15390 X12.542 Y-124.262 Z-9.939
N15395 X12.555 Y-124.367 Z-9.892
N15400 X12.584 Y-124.457 Z-9.837
N15405 X12.61 Y-124.541 Z-9.771
N15410 X12.634 Y-124.618 Z-9.696
N15415 X12.655 Y-124.686 Z-9.613
N15420 X12.673 Y-124.744 Z-9.522
N15425 X12.688 Y-124.793 Z-9.425
N15430 X12.704 Y-124.828 Z-9.327
N15435 X12.715 Y-124.853 Z-9.226
N15440 X12.721 Y-124.869 Z-9.123
N15445 X12.724 Y-124.874 Z-9.018
N15450 G0 Z6.
N15455 G1 X-56.455 Y130.241 F5000.
N15460 G0 Z-4.8
N15465 G1 Z-7.4 F2328.
N15470 X-56.458 Y130.234 Z-7.594
N15475 X-56.467 Y130.214 Z-7.788
N15480 X-56.481 Y130.181 Z-7.979
N15485 X-56.501 Y130.135 Z-8.166
N15490 X-56.527 Y130.076 Z-8.35
N15495 X-56.558 Y130.005 Z-8.528
N15500 X-56.594 Y129.922 Z-8.7
N15505 X-56.636 Y129.827 Z-8.865
N15510 X-56.682 Y129.721 Z-9.021
N15515 X-56.733 Y129.605 Z-9.168
N15520 X-56.788 Y129.479 Z-9.306
N15525 X-56.847 Y129.344 Z-9.433
N15530 X-56.909 Y129.2 Z-9.548
N15535 X-56.975 Y129.05 Z-9.652
N15540 X-57.044 Y128.892 Z-9.743
N15545 X-57.116 Y128.729 Z-9.82
N15550 X-57.189 Y128.561 Z-9.884
N15555 X-57.264 Y128.389 Z-9.935
N15560 X-57.341 Y128.213 Z-9.971
N15565 X-57.418 Y128.036 Z-9.993
N15570 X-57.496 Y127.858 Z-10.
N15575 G3 X-57.653 Y126.889 I1.813 J-0.792
N15580 G1 X-57.588 Y126.366
N15585 X-57.528 Y125.616
N15590 X-57.5 Y124.866
N15595 Y121.454
N15600 X-57.464 Y120.74
N15605 X-57.372 Y120.039
N15610 X-57.217 Y119.31
N15615 X-56.967 Y118.477
N15620 X-56.63 Y117.611
N15625 X-56.17 Y116.663
N15630 X-55.569 Y115.643
N15635 X-54.825 Y114.583
N15640 X-53.895 Y113.463
N15645 X-52.748 Y112.288
N15650 X-51.451 Y111.156
N15655 X-50.073 Y110.123
N15660 X-48.631 Y109.184
N15665 X-47.136 Y108.329
N15670 X-45.599 Y107.553
N15675 X-44.028 Y106.85
N15680 X-42.429 Y106.212
N15685 X-40.807 Y105.635
N15690 X-39.166 Y105.114
N15695 X-37.51 Y104.642
N15700 X-35.842 Y104.216
N15705 X-34.164 Y103.832
N15710 X-32.477 Y103.486
N15715 X-30.784 Y103.174
N15720 X-29.086 Y102.893
N15725 X-27.383 Y102.64
N15730 X-25.676 Y102.413
N15735 X-23.967 Y102.209
N15740 X-22.255 Y102.025
N15745 X-20.541 Y101.861
N15750 X-18.826 Y101.714
N15755 X-17.109 Y101.581
N15760 X-15.392 Y101.463
N15765 X-13.673 Y101.357
N15770 X-11.954 Y101.263
N15775 X-8.515 Y101.103
N15780 X-5.074 Y100.975
N15785 X-1.632 Y100.874
N15790 X3.531 Y100.76
N15795 X8.695 Y100.68
N15800 X15.581 Y100.609
N15805 X19.025 Y100.582
N15810 X20.744 Y100.493
N15815 X22.446 Y100.235
N15820 X24.107 Y99.783
N15825 X25.705 Y99.141
N15830 X27.221 Y98.326
N15835 X28.645 Y97.358
N15840 X29.969 Y96.258
N15845 X31.193 Y95.047
N15850 X32.318 Y93.744
N15855 X33.346 Y92.363
N15860 X34.283 Y90.918
N15865 X35.133 Y89.421
N15870 X35.902 Y87.881
N15875 X36.597 Y86.306
N15880 X37.223 Y84.702
N15885 X37.786 Y83.075
N15890 X38.292 Y81.43
N15895 X38.747 Y79.769
N15900 X39.154 Y78.096
N15905 X39.518 Y76.414
N15910 X39.844 Y74.723
N15915 X40.135 Y73.026
N15920 X40.395 Y71.325
N15925 X40.627 Y69.619
N15930 X40.834 Y67.91
N15935 X41.019 Y66.198
N15940 X41.183 Y64.484
N15945 X41.33 Y62.769
N15950 X41.46 Y61.052
N15955 X41.576 Y59.334
N15960 X41.68 Y57.616
N15965 X41.772 Y55.897
N15970 X41.926 Y52.457
N15975 X42.048 Y49.016
N15980 X42.144 Y45.574
N15985 X42.22 Y42.132
N15990 X42.305 Y36.968
N15995 X42.38 Y30.082
N16000 X42.439 Y21.199
N16005 X42.444 Y21.123
N16010 X42.481 Y20.624
N16015 X42.5 Y19.124
N16020 Y-67.12
N16025 X42.494 Y-67.87
N16030 X42.54 Y-69.591
N16035 X42.521 Y-76.478
N16040 X42.481 Y-78.199
N16045 X42.286 Y-79.909
N16050 X41.901 Y-81.587
N16055 X41.322 Y-83.209
N16060 X40.561 Y-84.753
N16065 X39.64 Y-86.208
N16070 X38.581 Y-87.565
N16075 X37.404 Y-88.822
N16080 X36.131 Y-89.98
N16085 X34.778 Y-91.045
N16090 X33.361 Y-92.023
N16095 X31.894 Y-92.924
N16100 X30.387 Y-93.756
N16105 X28.849 Y-94.53
N16110 X27.288 Y-95.257
N16115 X25.713 Y-95.951
N16120 X24.127 Y-96.622
N16125 X20.948 Y-97.943
N16130 X19.363 Y-98.616
N16135 X17.791 Y-99.318
N16140 X16.243 Y-100.071
N16145 X14.731 Y-100.894
N16150 X14.051 Y-101.319
N16155 X13.666 Y-101.6
N16160 X13.325 Y-101.934
N16165 X13.037 Y-102.314
N16170 X12.806 Y-102.731
N16175 X12.637 Y-103.176
N16180 X12.534 Y-103.642
N16185 X12.5 Y-104.117
N16190 Y-114.55
N16195 X12.514 Y-114.664 Z-9.993
N16200 X12.528 Y-114.777 Z-9.973
N16205 X12.542 Y-114.887 Z-9.939
N16210 X12.555 Y-114.992 Z-9.892
N16215 X12.584 Y-115.083 Z-9.837
N16220 X12.61 Y-115.167 Z-9.771
N16225 X12.634 Y-115.243 Z-9.696
N16230 X12.655 Y-115.311 Z-9.613
N16235 X12.673 Y-115.37 Z-9.522
N16240 X12.688 Y-115.418 Z-9.425
N16245 X12.704 Y-115.453 Z-9.327
N16250 X12.715 Y-115.479 Z-9.226
N16255 X12.721 Y-115.494 Z-9.123
N16260 X12.724 Y-115.499 Z-9.018
N16265 G0 Z6.
N16270 G1 X44.174 Y-64.732 F5000.
N16275 G0 Z-4.8
N16280 G1 Z-7.4 F2328.
N16285 X44.171 Y-64.739 Z-7.594
N16290 X44.159 Y-64.757 Z-7.788
N16295 X44.14 Y-64.788 Z-7.979
N16300 X44.113 Y-64.83 Z-8.166
N16305 X44.079 Y-64.885 Z-8.35
N16310 X44.038 Y-64.951 Z-8.528
N16315 X43.989 Y-65.027 Z-8.7
N16320 X43.934 Y-65.115 Z-8.865
N16325 X43.873 Y-65.213 Z-9.021
N16330 X43.806 Y-65.32 Z-9.168
N16335 X43.733 Y-65.437 Z-9.306
N16340 X43.654 Y-65.562 Z-9.433
N16345 X43.571 Y-65.694 Z-9.548
N16350 X43.484 Y-65.834 Z-9.652
N16355 X43.392 Y-65.979 Z-9.743
N16360 X43.298 Y-66.13 Z-9.82
N16365 X43.2 Y-66.286 Z-9.884
N16370 X43.101 Y-66.445 Z-9.935
N16375 X42.999 Y-66.607 Z-9.971
N16380 X42.896 Y-66.771 Z-9.993
N16385 X42.793 Y-66.935 Z-10.
N16390 G3 X42.494 Y-67.87 I1.676 J-1.051
N16395 G1 X42.477 Y-68.62
N16400 X42.416 Y-69.37
N16405 X42.308 Y-70.12
N16410 X42.159 Y-70.87
N16415 X41.949 Y-71.62
N16420 X41.696 Y-72.37
N16425 X41.399 Y-73.12
N16430 X41.023 Y-73.87
N16435 X40.815 Y-74.259
N16440 X40.585 Y-74.62
N16445 X40.066 Y-75.395
N16450 X39.317 Y-76.321
N16455 X38.778 Y-76.87
N16460 X38.568 Y-77.072
N16465 X37.968 Y-77.62
N16470 X36.973 Y-78.37
N16475 X36.321 Y-78.772
N16480 X35.685 Y-79.12
N16485 X34.174 Y-79.945
N16490 X32.676 Y-80.793
N16495 X31.166 Y-81.62
N16500 X29.645 Y-82.426
N16505 X28.113 Y-83.212
N16510 X26.573 Y-83.981
N16515 X23.475 Y-85.485
N16520 X20.376 Y-86.985
N16525 X18.833 Y-87.749
N16530 X17.303 Y-88.538
N16535 X15.794 Y-89.368
N16540 X14.322 Y-90.26
N16545 X13.933 Y-90.527
N16550 X13.575 Y-90.811
N16555 X13.26 Y-91.142
N16560 X12.994 Y-91.512
N16565 X12.781 Y-91.917
N16570 X12.626 Y-92.346
N16575 X12.532 Y-92.793
N16580 X12.5 Y-93.249
N16585 Y-104.117
N16590 G3 X16.803 Y-105.76 I2.498 J0.087
N16595 G1 X38.48 Y-83.145
N16600 G3 X35.685 Y-79.12 I-1.805 J1.73
N16605 G1 X34.823 Y-79.527
N16610 X33.898 Y-79.869
N16615 X33.326 Y-80.035
N16620 X32.577 Y-80.227
N16625 X31.828 Y-80.354
N16630 X31.079 Y-80.439
N16635 X30.33 Y-80.491
N16640 X27.335 Y-80.5
N16645 X22.092
N16650 X20.373 Y-80.59
N16655 X18.663 Y-80.79
N16660 X17.712 Y-80.979
N16665 X17.481 Y-81.034
N16670 X17.255 Y-81.105
N16675 X17.035 Y-81.192
N16680 G3 X18.402 Y-85.93 I1.082 J-2.254
N16685 G1 X20.574 Y-85.68
N16690 X22.291 Y-85.482
N16695 G3 X22.092 Y-80.5 I-0.286 J2.484
N16700 G1 X21.343 Y-80.502
N16705 X20.595 Y-80.517
N16710 X19.846 Y-80.546
N16715 X18.348 Y-80.735
N16720 X17.599 Y-80.945
N16725 X16.632 Y-81.369
N16730 X16.101 Y-81.659
N16735 X15.426 Y-82.119
N16740 X14.595 Y-82.869
N16745 X14.258 Y-83.244
N16750 X13.515 Y-84.369
N16755 X13.287 Y-84.744
N16760 X13.106 Y-85.177
N16765 X12.851 Y-85.869
N16770 X12.673 Y-86.619
N16775 X12.579 Y-87.369
N16780 X12.519 Y-88.119
N16785 X12.5 Y-88.869
N16790 Y-93.249
N16795 X12.514 Y-93.363 Z-9.993
N16800 X12.528 Y-93.476 Z-9.973
N16805 X12.542 Y-93.586 Z-9.939
N16810 X12.555 Y-93.691 Z-9.892
N16815 X12.584 Y-93.782 Z-9.837
N16820 X12.61 Y-93.866 Z-9.771
N16825 X12.634 Y-93.942 Z-9.696
N16830 X12.655 Y-94.01 Z-9.613
N16835 X12.673 Y-94.069 Z-9.522
N16840 X12.688 Y-94.117 Z-9.425
N16845 X12.704 Y-94.152 Z-9.327
N16850 X12.715 Y-94.178 Z-9.226
N16855 X12.721 Y-94.193 Z-9.123
N16860 X12.724 Y-94.198 Z-9.018
N16865 G0 Z6.
N16870 G1 X-55.895 Y124.631 F5000.
N16875 G0 Z-4.8
N16880 G1 Z-7.4 F2328.
N16885 X-55.898 Y124.625 Z-7.594
N16890 X-55.909 Y124.606 Z-7.788
N16895 X-55.928 Y124.575 Z-7.979
N16900 X-55.954 Y124.532 Z-8.166
N16905 X-55.986 Y124.476 Z-8.35
N16910 X-56.026 Y124.41 Z-8.528
N16915 X-56.073 Y124.331 Z-8.7
N16920 X-56.125 Y124.243 Z-8.865
N16925 X-56.184 Y124.143 Z-9.021
N16930 X-56.249 Y124.034 Z-9.168
N16935 X-56.32 Y123.916 Z-9.306
N16940 X-56.395 Y123.789 Z-9.433
N16945 X-56.475 Y123.655 Z-9.548
N16950 X-56.559 Y123.513 Z-9.652
N16955 X-56.647 Y123.366 Z-9.743
N16960 X-56.738 Y123.213 Z-9.82
N16965 X-56.832 Y123.055 Z-9.884
N16970 X-56.928 Y122.893 Z-9.935
N16975 X-57.025 Y122.729 Z-9.971
N16980 X-57.124 Y122.563 Z-9.993
N16985 X-57.223 Y122.396 Z-10.
N16990 G3 X-57.5 Y121.454 I1.7 J-1.011
N16995 G1 Y113.617
N17000 X-57.478 Y113.186
N17005 X-57.375 Y112.394
N17010 X-57.198 Y111.566
N17015 X-56.918 Y110.633
N17020 X-56.532 Y109.642
N17025 X-56.019 Y108.584
N17030 X-55.348 Y107.445
N17035 X-54.5 Y106.237
N17040 X-53.449 Y104.971
N17045 X-52.247 Y103.739
N17050 X-50.956 Y102.6
N17055 X-49.592 Y101.55
N17060 X-48.167 Y100.583
N17065 X-46.693 Y99.693
N17070 X-45.178 Y98.876
N17075 X-43.628 Y98.126
N17080 X-42.05 Y97.439
N17085 X-40.447 Y96.81
N17090 X-38.825 Y96.233
N17095 X-37.186 Y95.706
N17100 X-35.533 Y95.224
N17105 X-33.869 Y94.784
N17110 X-32.195 Y94.382
N17115 X-30.513 Y94.016
N17120 X-28.824 Y93.682
N17125 X-27.129 Y93.378
N17130 X-25.43 Y93.102
N17135 X-23.727 Y92.85
N17140 X-22.02 Y92.621
N17145 X-20.311 Y92.414
N17150 X-18.6 Y92.225
N17155 X-16.887 Y92.055
N17160 X-15.172 Y91.9
N17165 X-13.456 Y91.76
N17170 X-11.739 Y91.633
N17175 X-10.022 Y91.518
N17180 X-8.303 Y91.415
N17185 X-4.864 Y91.237
N17190 X-1.424 Y91.092
N17195 X2.017 Y90.975
N17200 X7.18 Y90.84
N17205 X8.901 Y90.799
N17210 X10.619 Y90.682
N17215 X12.317 Y90.402
N17220 X13.975 Y89.936
N17225 X15.569 Y89.285
N17230 X17.083 Y88.466
N17235 X18.505 Y87.496
N17240 X19.831 Y86.397
N17245 X21.057 Y85.188
N17250 X22.184 Y83.887
N17255 X23.216 Y82.509
N17260 X24.157 Y81.068
N17265 X25.012 Y79.573
N17270 X25.787 Y78.036
N17275 X26.487 Y76.463
N17280 X27.119 Y74.862
N17285 X27.688 Y73.237
N17290 X28.2 Y71.593
N17295 X28.66 Y69.934
N17300 X29.073 Y68.263
N17305 X29.442 Y66.581
N17310 X29.773 Y64.892
N17315 X30.069 Y63.196
N17320 X30.334 Y61.495
N17325 X30.571 Y59.789
N17330 X30.782 Y58.081
N17335 X30.971 Y56.37
N17340 X31.139 Y54.656
N17345 X31.289 Y52.941
N17350 X31.422 Y51.225
N17355 X31.542 Y49.507
N17360 X31.648 Y47.789
N17365 X31.742 Y46.07
N17370 X31.901 Y42.63
N17375 X31.978 Y40.61
N17380 X32.033 Y40.122
N17385 X32.161 Y39.647
N17390 X32.359 Y39.198
N17395 X32.624 Y38.784
N17400 X32.949 Y38.415
N17405 X33.326 Y38.099
N17410 X34.075 Y37.494
N17415 X35.406 Y36.372
N17420 X35.572 Y36.219
N17425 X36.321 Y35.474
N17430 X36.855 Y34.873
N17435 X37.819 Y33.661
N17440 X38.603 Y32.623
N17445 X39.095 Y31.873
N17450 X39.317 Y31.501
N17455 X39.526 Y31.123
N17460 X40.288 Y29.623
N17465 X40.661 Y28.873
N17470 X40.967 Y28.123
N17475 X41.239 Y27.373
N17480 X41.563 Y26.252
N17485 X41.869 Y25.123
N17490 X42.057 Y24.373
N17495 X42.099 Y24.266 Z-9.993
N17500 X42.14 Y24.159 Z-9.973
N17505 X42.18 Y24.056 Z-9.939
N17510 X42.218 Y23.957 Z-9.892
N17515 X42.267 Y23.876 Z-9.837
N17520 X42.313 Y23.801 Z-9.771
N17525 X42.355 Y23.733 Z-9.696
N17530 X42.392 Y23.672 Z-9.613
N17535 X42.424 Y23.62 Z-9.522
N17540 X42.45 Y23.576 Z-9.425
N17545 X42.474 Y23.546 Z-9.327
N17550 X42.491 Y23.524 Z-9.226
N17555 X42.501 Y23.511 Z-9.123
N17560 X42.504 Y23.506 Z-9.018
N17565 G0 Z6.
N17570 G1 X-55.895 Y116.794 F5000.
N17575 G0 Z-4.8
N17580 G1 Z-7.4 F2328.
N17585 X-55.898 Y116.788 Z-7.594
N17590 X-55.909 Y116.769 Z-7.788
N17595 X-55.928 Y116.738 Z-7.979
N17600 X-55.954 Y116.695 Z-8.166
N17605 X-55.986 Y116.639 Z-8.35
N17610 X-56.026 Y116.573 Z-8.528
N17615 X-56.073 Y116.494 Z-8.7
N17620 X-56.125 Y116.406 Z-8.865
N17625 X-56.184 Y116.306 Z-9.021
N17630 X-56.249 Y116.197 Z-9.168
N17635 X-56.32 Y116.079 Z-9.306
N17640 X-56.395 Y115.952 Z-9.433
N17645 X-56.475 Y115.818 Z-9.548
N17650 X-56.559 Y115.676 Z-9.652
N17655 X-56.647 Y115.529 Z-9.743
N17660 X-56.738 Y115.376 Z-9.82
N17665 X-56.832 Y115.218 Z-9.884
N17670 X-56.928 Y115.056 Z-9.935
N17675 X-57.025 Y114.892 Z-9.971
N17680 X-57.124 Y114.726 Z-9.993
N17685 X-57.223 Y114.559 Z-10.
N17690 G3 X-57.5 Y113.617 I1.7 J-1.011
N17695 G1 Y106.118
N17700 X-57.443 Y104.97
N17705 X-57.334 Y104.145
N17710 X-57.145 Y103.259
N17715 X-56.847 Y102.265
N17720 X-56.438 Y101.215
N17725 X-55.89 Y100.084
N17730 X-55.174 Y98.868
N17735 X-54.267 Y97.578
N17740 X-53.168 Y96.253
N17745 X-51.968 Y95.019
N17750 X-50.685 Y93.87
N17755 X-49.333 Y92.804
N17760 X-47.924 Y91.815
N17765 X-46.467 Y90.899
N17770 X-44.968 Y90.051
N17775 X-43.435 Y89.268
N17780 X-41.873 Y88.543
N17785 X-40.287 Y87.874
N17790 X-38.68 Y87.257
N17795 X-37.055 Y86.688
N17800 X-35.416 Y86.163
N17805 X-33.763 Y85.679
N17810 X-32.1 Y85.234
N17815 X-30.428 Y84.824
N17820 X-28.748 Y84.448
N17825 X-27.062 Y84.102
N17830 X-25.37 Y83.784
N17835 X-23.673 Y83.492
N17840 X-21.972 Y83.225
N17845 X-20.268 Y82.98
N17850 X-18.561 Y82.755
N17855 X-16.852 Y82.55
N17860 X-15.141 Y82.362
N17865 X-13.428 Y82.19
N17870 X-11.713 Y82.034
N17875 X-9.997 Y81.891
N17880 X-8.281 Y81.76
N17885 X-6.563 Y81.641
N17890 X-3.126 Y81.434
N17895 X-1.407 Y81.34
N17900 X0.308 Y81.189
N17905 X2.004 Y80.892
N17910 X3.66 Y80.422
N17915 X5.255 Y79.775
N17920 X6.774 Y78.964
N17925 X8.204 Y78.005
N17930 X9.539 Y76.918
N17935 X10.777 Y75.722
N17940 X11.917 Y74.432
N17945 X12.963 Y73.064
N17950 X13.918 Y71.632
N17955 X14.788 Y70.146
N17960 X15.577 Y68.616
N17965 X16.292 Y67.05
N17970 X16.938 Y65.454
N17975 X17.52 Y63.834
N17980 X18.045 Y62.194
N17985 X18.516 Y60.538
N17990 X18.94 Y58.87
N17995 X19.32 Y57.191
N18000 X19.661 Y55.503
N18005 X19.967 Y53.809
N18010 X20.24 Y52.109
N18015 X20.727 Y48.701
N18020 X20.992 Y46.999
N18025 X21.306 Y45.307
N18030 X21.466 Y44.613
N18035 X21.608 Y44.151
N18040 X21.816 Y43.715
N18045 X22.086 Y43.315
N18050 X22.412 Y42.957
N18055 X22.786 Y42.652
N18060 X23.201 Y42.404
N18065 X23.647 Y42.219
N18070 X24.116 Y42.102
N18075 X24.339 Y42.063
N18080 X25.088 Y41.905
N18085 X26.07 Y41.622
N18090 X27.335 Y41.227
N18095 X28.391 Y40.872
N18100 X28.832 Y40.691
N18105 X29.581 Y40.336
N18110 X31.079 Y39.529
N18115 X31.187 Y39.487 Z-9.993
N18120 X31.293 Y39.446 Z-9.973
N18125 X31.396 Y39.405 Z-9.939
N18130 X31.495 Y39.367 Z-9.892
N18135 X31.588 Y39.349 Z-9.837
N18140 X31.674 Y39.332 Z-9.771
N18145 X31.752 Y39.316 Z-9.696
N18150 X31.822 Y39.303 Z-9.613
N18155 X31.882 Y39.291 Z-9.522
N18160 X31.932 Y39.281 Z-9.425
N18165 X31.971 Y39.278 Z-9.327
N18170 X31.998 Y39.275 Z-9.226
N18175 X32.015 Y39.274 Z-9.123
N18180 X32.02 Y39.273 Z-9.018
N18185 G0 Z6.
N18190 G1 X-55.895 Y109.294 F5000.
N18195 G0 Z-4.8
N18200 G1 Z-7.4 F2328.
N18205 X-55.898 Y109.288 Z-7.594
N18210 X-55.909 Y109.269 Z-7.788
N18215 X-55.928 Y109.238 Z-7.979
N18220 X-55.954 Y109.195 Z-8.166
N18225 X-55.986 Y109.14 Z-8.35
N18230 X-56.026 Y109.073 Z-8.528
N18235 X-56.073 Y108.995 Z-8.7
N18240 X-56.125 Y108.906 Z-8.865
N18245 X-56.184 Y108.807 Z-9.021
N18250 X-56.249 Y108.698 Z-9.168
N18255 X-56.32 Y108.58 Z-9.306
N18260 X-56.395 Y108.453 Z-9.433
N18265 X-56.475 Y108.319 Z-9.548
N18270 X-56.559 Y108.177 Z-9.652
N18275 X-56.647 Y108.029 Z-9.743
N18280 X-56.738 Y107.876 Z-9.82
N18285 X-56.832 Y107.718 Z-9.884
N18290 X-56.928 Y107.557 Z-9.935
N18295 X-57.025 Y107.393 Z-9.971
N18300 X-57.124 Y107.227 Z-9.993
N18305 X-57.223 Y107.06 Z-10.
N18310 G3 X-57.5 Y106.118 I1.7 J-1.011
N18315 G1 Y97.118
N18320 X-57.467 Y96.468
N18325 X-57.356 Y95.619
N18330 X-57.157 Y94.688
N18335 X-56.846 Y93.651
N18340 X-56.419 Y92.554
N18345 X-55.844 Y91.369
N18350 X-55.094 Y90.094
N18355 X-54.142 Y88.74
N18360 X-53.042 Y87.415
N18365 X-51.848 Y86.175
N18370 X-50.574 Y85.018
N18375 X-49.233 Y83.937
N18380 X-47.836 Y82.931
N18385 X-46.392 Y81.993
N18390 X-44.908 Y81.121
N18395 X-43.389 Y80.31
N18400 X-41.841 Y79.556
N18405 X-40.269 Y78.856
N18410 X-38.674 Y78.206
N18415 X-37.062 Y77.603
N18420 X-35.434 Y77.044
N18425 X-33.792 Y76.525
N18430 X-32.139 Y76.045
N18435 X-30.476 Y75.599
N18440 X-28.804 Y75.187
N18445 X-27.125 Y74.806
N18450 X-25.44 Y74.453
N18455 X-23.75 Y74.127
N18460 X-22.055 Y73.826
N18465 X-20.356 Y73.549
N18470 X-18.653 Y73.292
N18475 X-16.948 Y73.056
N18480 X-15.24 Y72.839
N18485 X-13.53 Y72.638
N18490 X-11.819 Y72.449
N18495 X-10.111 Y72.229
N18500 X-8.423 Y71.894
N18505 X-6.772 Y71.405
N18510 X-5.178 Y70.756
N18515 X-3.656 Y69.951
N18520 X-2.217 Y69.005
N18525 X-0.87 Y67.933
N18530 X0.382 Y66.751
N18535 X1.54 Y65.477
N18540 X2.605 Y64.125
N18545 X3.58 Y62.706
N18550 X4.47 Y61.232
N18555 X5.279 Y59.712
N18560 X6.016 Y58.156
N18565 X6.69 Y56.572
N18570 X7.313 Y54.967
N18575 X7.895 Y53.347
N18580 X9.016 Y50.091
N18585 X9.603 Y48.473
N18590 X10.242 Y46.874
N18595 X10.954 Y45.307
N18600 X11.508 Y44.259
N18605 X11.743 Y43.878
N18610 X12.028 Y43.533
N18615 X12.356 Y43.23
N18620 X12.723 Y42.974
N18625 X13.12 Y42.769
N18630 X13.542 Y42.621
N18635 X13.98 Y42.53
N18640 X14.426 Y42.5
N18645 X19.846 Y42.499
N18650 X20.595 Y42.472
N18655 X21.343 Y42.428
N18660 X23.59 Y42.193
N18665 X24.116 Y42.102
N18670 X24.232 Y42.094 Z-9.993
N18675 X24.347 Y42.086 Z-9.972
N18680 X24.458 Y42.078 Z-9.938
N18685 X24.562 Y42.087 Z-9.892
N18690 X24.659 Y42.096 Z-9.835
N18695 X24.749 Y42.104 Z-9.766
N18700 X24.831 Y42.111 Z-9.688
N18705 X24.903 Y42.118 Z-9.601
N18710 X24.969 Y42.132 Z-9.496
N18715 X25.021 Y42.144 Z-9.383
N18720 X25.059 Y42.152 Z-9.265
N18725 X25.082 Y42.157 Z-9.143
N18730 X25.09 Y42.159 Z-9.018
N18735 G0 Z6.
N18740 G1 X-55.895 Y100.295 F5000.
N18745 G0 Z-4.8
N18750 G1 Z-7.4 F2328.
N18755 X-55.898 Y100.289 Z-7.594
N18760 X-55.909 Y100.27 Z-7.788
N18765 X-55.928 Y100.239 Z-7.979
N18770 X-55.954 Y100.196 Z-8.166
N18775 X-55.986 Y100.141 Z-8.35
N18780 X-56.026 Y100.074 Z-8.528
N18785 X-56.073 Y99.996 Z-8.7
N18790 X-56.125 Y99.907 Z-8.865
N18795 X-56.184 Y99.807 Z-9.021
N18800 X-56.249 Y99.698 Z-9.168
N18805 X-56.32 Y99.58 Z-9.306
N18810 X-56.395 Y99.454 Z-9.433
N18815 X-56.475 Y99.319 Z-9.548
N18820 X-56.559 Y99.178 Z-9.652
N18825 X-56.647 Y99.03 Z-9.743
N18830 X-56.738 Y98.877 Z-9.82
N18835 X-56.832 Y98.719 Z-9.884
N18840 X-56.928 Y98.558 Z-9.935
N18845 X-57.025 Y98.393 Z-9.971
N18850 X-57.124 Y98.227 Z-9.993
N18855 X-57.223 Y98.06 Z-10.
N18860 G3 X-57.5 Y97.118 I1.7 J-1.011
N18865 G1 Y96.368
N18870 X-57.441 Y95.618
N18875 X-57.357 Y94.868
N18880 X-56.22 Y86.619
N18885 X-55.961 Y85.251
N18890 X-55.703 Y84.312
N18895 X-55.323 Y83.267
N18900 X-54.804 Y82.13
N18905 X-54.129 Y80.92
N18910 X-53.259 Y79.62
N18915 X-52.191 Y78.27
N18920 X-51.02 Y77.008
N18925 X-49.765 Y75.829
N18930 X-48.441 Y74.729
N18935 X-47.058 Y73.704
N18940 X-45.626 Y72.748
N18945 X-44.152 Y71.858
N18950 X-42.643 Y71.029
N18955 X-41.104 Y70.257
N18960 X-39.54 Y69.538
N18965 X-37.954 Y68.869
N18970 X-36.349 Y68.246
N18975 X-34.727 Y67.667
N18980 X-33.092 Y67.128
N18985 X-31.445 Y66.627
N18990 X-29.788 Y66.161
N18995 X-28.122 Y65.728
N19000 X-26.448 Y65.326
N19005 X-24.767 Y64.952
N19010 X-23.081 Y64.605
N19015 X-21.392 Y64.27
N19020 X-19.712 Y63.894
N19025 X-18.059 Y63.415
N19030 X-16.449 Y62.805
N19035 X-14.898 Y62.056
N19040 X-13.421 Y61.173
N19045 X-12.024 Y60.167
N19050 X-10.711 Y59.053
N19055 X-9.482 Y57.847
N19060 X-8.332 Y56.565
N19065 X-7.253 Y55.224
N19070 X-6.234 Y53.837
N19075 X-5.264 Y52.415
N19080 X-4.329 Y50.969
N19085 X-3.42 Y49.507
N19090 X-1.616 Y46.574
N19095 X-0.679 Y45.13
N19100 X0.18 Y43.905
N19105 X0.464 Y43.554
N19110 X0.793 Y43.245
N19115 X1.162 Y42.983
N19120 X1.563 Y42.775
N19125 X1.988 Y42.623
N19130 X2.431 Y42.531
N19135 X2.881 Y42.5
N19140 X14.426
N19145 G3 X15.649 Y47.128 I-0.087 J2.498
N19150 G1 X-52.424 Y89.005
N19155 G3 X-56.22 Y86.619 I-1.31 J-2.129
N19160 G1 X-54.87 Y76.87
N19165 X-54.639 Y75.653
N19170 X-54.38 Y74.706
N19175 X-54.009 Y73.686
N19180 X-53.496 Y72.563
N19185 X-52.817 Y71.347
N19190 X-51.946 Y70.044
N19195 X-50.877 Y68.694
N19200 X-49.707 Y67.432
N19205 X-48.452 Y66.253
N19210 X-47.128 Y65.153
N19215 X-45.746 Y64.126
N19220 X-44.315 Y63.169
N19225 X-42.842 Y62.277
N19230 X-41.335 Y61.445
N19235 X-39.798 Y60.67
N19240 X-38.235 Y59.947
N19245 X-36.651 Y59.273
N19250 X-35.048 Y58.645
N19255 X-33.43 Y58.058
N19260 X-30.173 Y56.94
N19265 X-28.565 Y56.324
N19270 X-26.992 Y55.624
N19275 X-25.465 Y54.829
N19280 X-23.991 Y53.94
N19285 X-22.573 Y52.965
N19290 X-21.21 Y51.913
N19295 X-19.9 Y50.795
N19300 X-18.64 Y49.622
N19305 X-17.421 Y48.407
N19310 X-16.236 Y47.157
N19315 X-15.076 Y45.885
N19320 X-13.925 Y44.605
N19325 X-12.977 Y43.57
N19330 X-12.647 Y43.257
N19335 X-12.277 Y42.991
N19340 X-11.873 Y42.779
N19345 X-11.445 Y42.625
N19350 X-10.999 Y42.531
N19355 X-10.545 Y42.5
N19360 X2.881
N19365 G3 X4.052 Y47.159 I-0.087 J2.498
N19370 G1 X-51.126 Y79.286
N19375 G3 X-54.87 Y76.87 I-1.258 J-2.16
N19380 G1 X-53.546 Y67.303
N19385 X-53.311 Y66.064
N19390 X-53.05 Y65.115
N19395 X-52.679 Y64.094
N19400 X-52.166 Y62.969
N19405 X-51.486 Y61.751
N19410 X-50.612 Y60.444
N19415 X-49.543 Y59.094
N19420 X-48.373 Y57.831
N19425 X-47.119 Y56.651
N19430 X-45.796 Y55.55
N19435 X-44.415 Y54.521
N19440 X-42.987 Y53.56
N19445 X-41.524 Y52.652
N19450 X-38.558 Y50.904
N19455 X-37.085 Y50.013
N19460 X-35.631 Y49.09
N19465 X-34.203 Y48.129
N19470 X-32.803 Y47.127
N19475 X-31.432 Y46.086
N19480 X-30.088 Y45.01
N19485 X-28.767 Y43.906
N19490 X-28.052 Y43.294
N19495 X-27.676 Y43.016
N19500 X-27.266 Y42.794
N19505 X-26.828 Y42.632
N19510 X-26.371 Y42.533
N19515 X-25.905 Y42.5
N19520 X-11.608
N19525 G3 X-10.452 Y47.167 I-0.087 J2.498
N19530 G1 X-49.816 Y69.728
N19535 G3 X-53.546 Y67.303 I-1.243 J-2.169
N19540 G1 X-52.171 Y57.371
N19545 X-52. Y56.471
N19550 X-51.737 Y55.515
N19555 X-51.36 Y54.475
N19560 X-50.825 Y53.306
N19565 X-50.079 Y51.969
N19570 X-49.122 Y50.537
N19575 X-48.066 Y49.178
N19580 X-46.941 Y47.875
N19585 X-45.767 Y46.615
N19590 X-44.562 Y45.386
N19595 X-43.337 Y44.176
N19600 X-42.561 Y43.426
N19605 X-42.239 Y43.153
